; Generated music G-code
; X axis = melody 1
; Y axis = melody 2

G21 ; use millimeters
G90 ; absolute positioning
G28 X Y ; home x and y
M73 P1 R9
M73 Q1 S9
G0 X100.000 Y100.000 F2000 ; move to start position

G4 P200 ; pause
G4 P200 ; pause
G4 P200 ; pause
G4 P200 ; pause
G4 P200 ; pause
G4 P200 ; pause
G4 P200 ; pause
G4 P200 ; pause
G4 P200 ; pause
G4 P200 ; pause
G4 P200 ; pause
G4 P200 ; pause
G4 P200 ; pause
G1 X129.600 Y127.938 F12210.700 ; 200 ms
G1 X101.661 Y100.000 F11853.201 ; 200 ms
G4 P200 ; pause
G4 P200 ; pause
G1 X129.600 Y127.938 F11853.201 ; 200 ms
G1 X101.661 Y100.000 F11853.201 ; 200 ms
G1 X129.600 Y127.938 F11853.201 ; 200 ms
G1 X101.661 Y100.000 F11853.201 ; 200 ms
G1 X129.600 Y127.938 F11853.201 ; 200 ms
G1 X101.661 Y100.000 F11853.201 ; 200 ms
G1 X101.953 Y100.583 F195.445 ; 200 ms
G1 X101.661 Y100.000 F195.445 ; 200 ms
G1 X101.953 Y100.583 F195.445 ; 200 ms
G1 X101.661 Y100.146 F157.450 ; 200 ms
G1 X101.953 Y100.583 F157.450 ; 200 ms
G1 X101.661 Y72.644 F8381.934 ; 200 ms
G1 X102.098 Y72.936 F157.450 ; 200 ms
G1 X101.661 Y72.063 F292.837 ; 200 ms
G1 X102.244 Y72.354 F195.445 ; 200 ms
G1 X101.661 Y72.063 F195.445 ; 200 ms
G1 X102.098 Y100.001 F8382.502 ; 200 ms
G1 X101.661 Y100.001 F130.960 ; 200 ms
G4 P200 ; pause
G1 X102.098 Y100.001 F130.960 ; 200 ms
G1 X101.661 Y100.001 F130.960 ; 200 ms
G1 X102.098 Y100.874 F292.837 ; 200 ms
G1 X101.661 Y100.001 F292.837 ; 200 ms
G1 X102.098 Y127.939 F8382.502 ; 200 ms
G1 X101.661 Y100.001 F8382.502 ; 200 ms
G1 X102.098 Y127.939 F8382.502 ; 200 ms
G1 X74.160 Y100.001 F11853.201 ; 200 ms
G1 X102.098 Y127.939 F11853.201 ; 200 ms
G1 X74.160 Y100.001 F11853.201 ; 200 ms
G1 X74.596 Y127.939 F8382.502 ; 200 ms
G1 X74.160 Y100.001 F8382.502 ; 200 ms
G1 X74.596 Y100.874 F292.837 ; 200 ms
G1 X74.160 Y100.001 F292.837 ; 200 ms
G1 X74.596 Y127.939 F8382.502 ; 200 ms
G1 X46.658 Y100.001 F11853.201 ; 200 ms
G1 X74.596 Y127.939 F11853.201 ; 200 ms
G1 X44.997 Y100.001 F12210.700 ; 200 ms
G4 P200 ; pause
G4 P200 ; pause
G4 P200 ; pause
G1 X72.935 Y127.939 F11853.201 ; 200 ms
G1 X44.997 Y100.001 F11853.201 ; 200 ms
G1 X72.935 Y127.939 F11853.201 ; 200 ms
G1 X44.997 Y100.001 F11853.201 ; 200 ms
G1 X72.935 Y127.939 F11853.201 ; 200 ms
G1 X44.997 Y100.001 F11853.201 ; 200 ms
G1 X45.288 Y100.584 F195.445 ; 200 ms
G1 X44.997 Y100.001 F195.445 ; 200 ms
G1 X45.288 Y100.584 F195.445 ; 200 ms
G1 X44.997 Y100.147 F157.450 ; 200 ms
G1 X45.288 Y100.584 F157.450 ; 200 ms
G1 X44.997 Y72.645 F8381.934 ; 200 ms
G1 X45.433 Y72.937 F157.450 ; 200 ms
G1 X44.997 Y72.645 F157.450 ; 200 ms
G1 X45.579 Y72.937 F195.445 ; 200 ms
G1 X44.997 Y72.645 F195.445 ; 200 ms
G1 X45.433 Y100.584 F8382.502 ; 200 ms
G4 P200 ; pause
G4 P200 ; pause
G1 X44.997 Y100.584 F130.960 ; 200 ms
G1 X45.433 Y100.584 F130.960 ; 200 ms
G1 X44.997 Y99.711 F292.837 ; 200 ms
G1 X45.433 Y100.584 F292.837 ; 200 ms
G1 X44.997 Y100.584 F130.960 ; 200 ms
G1 X45.433 Y100.584 F130.960 ; 200 ms
G1 X17.495 Y72.645 F11853.201 ; 200 ms
G1 X17.786 Y73.228 F195.445 ; 200 ms
G1 X17.203 Y72.937 F195.445 ; 200 ms
G1 X17.495 Y73.519 F195.445 ; 200 ms
G1 X17.203 Y45.581 F8381.934 ; 200 ms
G1 X17.495 Y73.519 F8381.934 ; 200 ms
G1 X17.203 Y72.646 F276.120 ; 200 ms
G1 X17.495 Y73.519 F276.120 ; 200 ms
G1 X16.622 Y45.581 F8385.570 ; 200 ms
G1 X44.560 Y73.519 F11853.201 ; 200 ms
G4 P200 ; pause
G1 X14.960 Y43.920 F12558.026 ; 200 ms
G4 P200 ; pause
G4 P200 ; pause
G1 X44.560 Y43.920 F8879.865 ; 200 ms
G1 X16.622 Y15.982 F11853.201 ; 200 ms
G4 P200 ; pause
G1 X44.560 Y43.920 F11853.201 ; 200 ms
G1 X16.622 Y15.982 F11853.201 ; 200 ms
G1 X44.560 Y43.920 F11853.201 ; 200 ms
G1 X16.622 Y15.982 F11853.201 ; 200 ms
G1 X17.204 Y16.273 F195.445 ; 200 ms
G1 X16.913 Y15.690 F195.445 ; 200 ms
G1 X17.204 Y16.273 F195.445 ; 200 ms
G1 X16.913 Y15.836 F157.450 ; 200 ms
G1 X17.204 Y16.273 F157.450 ; 200 ms
G1 X16.913 Y-11.665 F8381.934 ; 200 ms
G1 X17.350 Y-11.374 F157.450 ; 200 ms
G1 X16.913 Y-12.247 F292.837 ; 200 ms
G1 X17.496 Y-11.956 F195.445 ; 200 ms
G1 X16.913 Y-12.247 F195.445 ; 200 ms
G1 X17.350 Y15.691 F8382.502 ; 200 ms
G1 X16.913 Y15.691 F130.960 ; 200 ms
G4 P200 ; pause
G1 X17.786 Y15.691 F130.960 ; 400 ms
G1 X16.913 Y13.945 F292.837 ; 400 ms
G1 X18.223 Y97.760 F8382.502 ; 600 ms
G1 X17.931 Y69.822 F8381.934 ; 200 ms
G1 X73.808 Y125.698 F11853.201 ; 400 ms
G1 X72.935 Y69.822 F8382.502 ; 400 ms
G1 X73.808 Y71.568 F292.837 ; 400 ms
G1 X72.935 Y15.691 F8382.502 ; 400 ms
G4 P1000 ; pause
G1 X240.564 Y183.321 F11853.201 ; 1200 ms
G1 X239.690 Y181.573 F195.445 ; 600 ms
G1 X240.273 Y182.446 F157.450 ; 400 ms
G1 X239.982 Y154.508 F8381.934 ; 200 ms
G1 X240.855 Y155.090 F157.450 ; 400 ms
G1 X239.689 Y154.508 F195.445 ; 400 ms
G1 X240.126 Y182.446 F8382.502 ; 200 ms
G1 X239.689 Y182.446 F130.960 ; 200 ms
G4 P200 ; pause
G1 X240.562 Y182.446 F130.960 ; 400 ms
G1 X239.689 Y180.700 F292.837 ; 400 ms
G1 X240.562 Y180.700 F130.960 ; 400 ms
G1 X240.126 Y152.761 F8382.502 ; 200 ms
G1 X241.000 Y154.510 F195.445 ; 600 ms
G1 X240.709 Y154.073 F157.450 ; 200 ms
G1 X241.582 Y154.656 F157.450 ; 400 ms
G1 X241.290 Y154.219 F157.450 ; 200 ms
G1 X269.229 Y182.157 F11853.201 ; 200 ms

; End of music G-code