; Generated music G-code
; X axis = melody 1
; Y axis = melody 2

G21 ; use millimeters
G90 ; absolute positioning
G28 X Y ; home x and y
M73 P1 R9
M73 Q1 S9
G0 X100.000 Y100.000 F2000 ; move to start position

G4 P200 ; pause
G4 P200 ; pause
G4 P200 ; pause
G4 P200 ; pause
G4 P200 ; pause
G4 P200 ; pause
G4 P200 ; pause
G4 P200 ; pause
G4 P200 ; pause
G1 X100.873 Y100.873 F370.412 ; 200 ms
G1 X100.000 Y100.873 F261.921 ; 200 ms
G1 X100.583 Y101.746 F314.899 ; 200 ms
G4 P200 ; pause
G1 X99.710 Y72.147 F8883.727 ; 200 ms
G1 X100.292 Y73.020 F314.899 ; 200 ms
G1 X98.644 Y73.020 F494.441 ; 200 ms
G1 X99.517 Y73.020 F261.921 ; 200 ms
G1 X98.935 Y45.081 F8383.301 ; 200 ms
G1 X100.243 Y45.954 F471.816 ; 200 ms
G1 X99.370 Y45.518 F292.837 ; 200 ms
G1 X100.243 Y73.456 F8385.570 ; 200 ms
G1 X98.857 Y72.678 F476.779 ; 200 ms
G1 X100.243 Y100.617 F8391.785 ; 200 ms
G1 X99.660 Y100.325 F195.445 ; 200 ms
G1 X100.243 Y100.617 F195.445 ; 200 ms
G1 X99.660 Y100.325 F195.445 ; 200 ms
G1 X100.243 Y100.762 F218.426 ; 200 ms
G1 X99.660 Y100.325 F218.426 ; 200 ms
G1 X100.314 Y100.617 F214.807 ; 200 ms
G1 X99.878 Y100.325 F157.450 ; 200 ms
G1 X100.314 Y101.198 F292.837 ; 200 ms
G1 X99.731 Y100.907 F195.445 ; 200 ms
G1 X100.314 Y101.198 F195.445 ; 200 ms
G1 X99.878 Y99.890 F413.713 ; 200 ms
G1 X102.497 Y105.129 F292.837 ; 1200 ms
G1 X102.060 Y104.090 F337.890 ; 200 ms
G1 X102.933 Y106.707 F413.713 ; 400 ms
G1 X102.059 Y105.397 F157.450 ; 600 ms
G1 X102.932 Y105.980 F157.450 ; 400 ms
G1 X100.750 Y101.614 F292.837 ; 1000 ms
G1 X101.623 Y102.051 F292.837 ; 200 ms
G1 X101.040 Y101.178 F314.899 ; 200 ms
G1 X103.659 Y102.487 F292.837 ; 600 ms
G1 X102.351 Y101.614 F471.816 ; 200 ms
G1 X102.788 Y102.487 F292.837 ; 200 ms
G1 X101.915 Y74.549 F8385.570 ; 200 ms
G1 X103.300 Y75.203 F459.750 ; 200 ms
G1 X75.362 Y47.265 F11853.201 ; 200 ms
G1 X77.110 Y48.139 F195.445 ; 600 ms
G1 X75.945 Y47.266 F218.426 ; 400 ms
G1 X76.599 Y47.557 F214.807 ; 200 ms
G1 X76.162 Y47.266 F157.450 ; 200 ms
G1 X76.599 Y48.139 F292.837 ; 200 ms
G1 X75.434 Y47.556 F195.445 ; 400 ms
G1 X79.799 Y56.287 F292.837 ; 2000 ms
G1 X76.885 Y54.830 F195.445 ; 1000 ms
G1 X77.758 Y55.122 F276.120 ; 200 ms
G1 X77.176 Y54.249 F314.899 ; 200 ms
G1 X80.668 Y56.579 F314.899 ; 800 ms
G1 X80.085 Y55.706 F314.899 ; 200 ms
G1 X81.831 Y56.872 F314.899 ; 400 ms
G1 X81.249 Y55.999 F314.899 ; 200 ms
G1 X82.557 Y56.872 F471.816 ; 200 ms
G1 X81.684 Y56.435 F292.837 ; 200 ms
G1 X109.622 Y84.373 F11853.201 ; 200 ms
G1 X108.236 Y83.596 F476.779 ; 200 ms
G1 X136.174 Y111.534 F11853.201 ; 200 ms
G1 X134.426 Y110.660 F195.445 ; 600 ms
G1 X135.592 Y111.533 F218.426 ; 400 ms
G1 X134.938 Y111.242 F214.807 ; 200 ms
G1 X135.374 Y111.533 F157.450 ; 200 ms
G1 X134.938 Y110.660 F292.837 ; 200 ms
G1 X136.103 Y111.243 F195.445 ; 400 ms
G1 X134.793 Y109.494 F218.426 ; 600 ms
G1 X136.540 Y112.987 F292.837 ; 800 ms
G1 X136.103 Y111.948 F337.890 ; 200 ms
G1 X136.540 Y113.257 F413.713 ; 200 ms
G1 X136.103 Y112.639 F226.831 ; 200 ms
G1 X136.977 Y113.949 F157.450 ; 600 ms
G1 X136.104 Y113.366 F157.450 ; 400 ms
G1 X136.541 Y114.239 F292.837 ; 200 ms
G1 X135.667 Y113.803 F292.837 ; 200 ms
G1 X136.977 Y116.422 F292.837 ; 600 ms
G1 X136.104 Y115.985 F292.837 ; 200 ms
G1 X136.687 Y116.535 F240.383 ; 200 ms
G1 X136.250 Y115.662 F292.837 ; 200 ms
G1 X137.996 Y116.828 F314.899 ; 400 ms
G1 X136.688 Y116.391 F413.713 ; 200 ms
G1 X137.125 Y117.264 F292.837 ; 200 ms
G1 X136.252 Y89.326 F8385.570 ; 200 ms
G1 X137.638 Y89.788 F438.314 ; 200 ms
G1 X136.252 Y61.850 F8391.785 ; 200 ms
G1 X138.000 Y62.724 F195.445 ; 600 ms
G1 X136.834 Y61.851 F218.426 ; 400 ms
G1 X137.488 Y62.143 F214.807 ; 200 ms
G1 X137.052 Y61.851 F157.450 ; 200 ms
G1 X137.925 Y62.288 F292.837 ; 200 ms
G1 X136.760 Y61.705 F195.445 ; 400 ms
G1 X137.196 Y62.578 F292.837 ; 200 ms
G1 X136.323 Y61.413 F218.426 ; 400 ms
G1 X138.942 Y66.651 F292.837 ; 1200 ms
G1 X138.506 Y65.343 F413.713 ; 200 ms
G1 X140.254 Y66.217 F195.445 ; 600 ms
G1 X139.088 Y65.344 F218.426 ; 400 ms
G1 X140.398 Y66.218 F157.450 ; 600 ms

; End of music G-code