; Generated music G-code
; X axis = melody 1
; Y axis = melody 2

G21 ; use millimeters
G90 ; absolute positioning
G28 X Y ; home x and y
M73 P1 R9
M73 Q1 S9
G0 X100.000 Y100.000 F2000 ; move to start position

G4 P800 ; pause
G1 X159.199 Y159.199 F12558.026 ; 400 ms
G1 X127.839 Y127.839 F13304.769 ; 200 ms
G1 X157.439 Y157.439 F12558.026 ; 200 ms
G1 X126.079 Y126.079 F13304.769 ; 200 ms
G1 X185.278 Y185.278 F12558.026 ; 400 ms
G1 X157.340 Y157.340 F11853.201 ; 200 ms
G1 X188.700 Y185.278 F12599.906 ; 200 ms
G1 X187.827 Y184.113 F436.851 ; 200 ms
G1 X215.765 Y212.051 F11853.201 ; 200 ms
G1 X215.182 Y211.615 F218.426 ; 200 ms
G1 X215.765 Y239.553 F8383.301 ; 200 ms
G1 X214.941 Y238.680 F360.168 ; 200 ms
G1 X215.814 Y239.504 F360.168 ; 200 ms
G1 X187.876 Y238.339 F8388.767 ; 200 ms
G1 X188.493 Y267.938 F8881.796 ; 200 ms
G1 X40.495 Y119.940 F12558.026 ; 1000 ms
G1 X41.881 Y151.300 F9417.075 ; 200 ms
G1 X10.522 Y121.701 F12936.787 ; 200 ms
G1 X11.104 Y122.137 F218.426 ; 200 ms
G1 X10.231 Y121.701 F292.837 ; 200 ms
G1 X11.104 Y122.574 F370.412 ; 200 ms
G1 X-77.694 Y33.775 F12558.026 ; 600 ms
G1 X-46.335 Y65.135 F13304.769 ; 200 ms
G1 X-105.534 Y5.935 F12558.026 ; 400 ms
G1 X-77.595 Y33.874 F11853.201 ; 200 ms
G1 X-108.955 Y2.514 F13304.769 ; 200 ms
G1 X-81.017 Y3.387 F8385.570 ; 200 ms
G1 X-108.955 Y-24.551 F11853.201 ; 200 ms
G1 X-108.372 Y3.387 F8383.301 ; 200 ms
G1 X-137.972 Y2.733 F8882.033 ; 200 ms
G1 X-137.099 Y3.557 F360.168 ; 200 ms
G1 X-137.972 Y-24.381 F8385.570 ; 200 ms
G1 X-137.355 Y-23.216 F395.648 ; 200 ms
G1 X-137.972 Y-52.815 F8881.796 ; 200 ms
G1 X-137.453 Y-52.379 F203.483 ; 200 ms
G1 X-138.761 Y-52.898 F422.211 ; 200 ms
G1 X-137.888 Y-23.298 F8883.727 ; 200 ms
G1 X-169.248 Y-54.658 F13304.769 ; 200 ms
G1 X-139.648 Y-25.058 F12558.026 ; 200 ms
G1 X-195.525 Y-80.935 F11853.201 ; 400 ms
G1 X-194.942 Y-52.997 F8383.301 ; 200 ms
G1 X-222.880 Y-80.935 F11853.201 ; 200 ms
G1 X-193.281 Y-51.335 F12558.026 ; 200 ms
G1 X-224.640 Y-82.695 F13304.769 ; 200 ms
G1 X-135.842 Y6.104 F12558.026 ; 600 ms
G1 X-137.150 Y-23.496 F8888.533 ; 200 ms
G1 X-107.550 Y6.104 F12558.026 ; 200 ms
G1 X-135.488 Y-21.835 F11853.201 ; 200 ms
G1 X-134.102 Y9.525 F9417.075 ; 200 ms
G1 X-162.041 Y8.652 F8385.570 ; 200 ms
G1 X-134.102 Y36.590 F11853.201 ; 200 ms
G1 X-134.685 Y8.652 F8383.301 ; 200 ms
G1 X-75.486 Y67.851 F12558.026 ; 400 ms
G1 X-103.424 Y39.913 F11853.201 ; 200 ms
G1 X-102.807 Y69.512 F8881.796 ; 200 ms
G1 X-132.407 Y39.913 F12558.026 ; 200 ms
G1 X-131.887 Y69.512 F8881.231 ; 200 ms
G1 X-133.196 Y68.639 F471.816 ; 200 ms
G1 X-132.157 Y69.678 F440.497 ; 200 ms
G1 X-161.757 Y40.078 F12558.026 ; 200 ms
G1 X-160.449 Y69.678 F8888.533 ; 200 ms
G1 X-161.835 Y38.318 F9417.075 ; 200 ms
G1 X-161.398 Y69.678 F9408.804 ; 200 ms
G1 X-161.981 Y40.078 F8881.586 ; 200 ms
G1 X-161.108 Y69.678 F8883.727 ; 200 ms
G1 X-190.707 Y40.078 F12558.026 ; 200 ms
G1 X-159.348 Y71.438 F13304.769 ; 200 ms
G1 X-188.947 Y41.838 F12558.026 ; 200 ms
G1 X-157.587 Y73.198 F13304.769 ; 200 ms
G1 X-187.187 Y43.598 F12558.026 ; 200 ms
G1 X-185.879 Y73.198 F8888.533 ; 200 ms
G1 X-241.755 Y17.321 F11853.201 ; 400 ms
G1 X-240.882 Y18.707 F491.396 ; 200 ms
G1 X-241.755 Y17.542 F436.851 ; 200 ms
G1 X-241.173 Y17.978 F218.426 ; 200 ms
G1 X-241.755 Y-11.621 F8881.586 ; 200 ms
G1 X-241.101 Y17.978 F8882.033 ; 200 ms
G1 X-241.974 Y-11.621 F8883.727 ; 200 ms
G1 X-214.036 Y16.317 F11853.201 ; 200 ms
G1 X-214.654 Y-13.283 F8881.796 ; 200 ms
G1 X-125.855 Y75.516 F12558.026 ; 600 ms
G1 X-157.215 Y44.156 F13304.769 ; 200 ms
G1 X-127.615 Y73.756 F12558.026 ; 200 ms
G1 X-128.488 Y45.818 F8385.570 ; 200 ms
G1 X-100.550 Y73.756 F11853.201 ; 200 ms
G1 X-101.132 Y73.206 F240.383 ; 200 ms
G1 X-100.550 Y74.514 F429.612 ; 200 ms
G1 X-130.149 Y44.915 F12558.026 ; 200 ms
G1 X-74.273 Y100.791 F11853.201 ; 400 ms
G1 X-192.671 Y-17.607 F12558.026 ; 800 ms
G1 X-161.311 Y13.753 F13304.769 ; 200 ms
G1 X-190.911 Y-15.847 F12558.026 ; 200 ms
G1 X-190.177 Y12.091 F8384.372 ; 200 ms
G1 X-218.115 Y-15.847 F11853.201 ; 200 ms
G1 X-217.498 Y12.091 F8383.525 ; 200 ms
G1 X-218.423 Y11.474 F333.624 ; 200 ms
G1 X-217.498 Y41.073 F8884.200 ; 200 ms
G1 X-247.097 Y13.135 F12210.700 ; 200 ms
G1 X-219.159 Y41.073 F11853.201 ; 200 ms
G1 X-220.545 Y9.714 F9417.075 ; 200 ms
G1 X-220.108 Y41.073 F9408.804 ; 200 ms
G1 X-220.691 Y11.474 F8881.586 ; 200 ms
G1 X-191.091 Y41.073 F12558.026 ; 200 ms
G1 X-219.030 Y13.135 F11853.201 ; 200 ms
G1 X-187.670 Y44.495 F13304.769 ; 200 ms
G1 X-217.270 Y43.877 F8881.796 ; 200 ms
G1 X-187.670 Y73.477 F12558.026 ; 200 ms
G1 X-188.543 Y43.877 F8883.727 ; 200 ms
G1 X-158.944 Y73.477 F12558.026 ; 200 ms
G1 X-159.817 Y43.877 F8883.727 ; 200 ms
G1 X-158.071 Y45.624 F370.412 ; 400 ms
G1 X-217.270 Y-13.576 F12558.026 ; 400 ms
G1 X-154.550 Y49.144 F13304.769 ; 400 ms
G1 X-184.150 Y19.544 F12558.026 ; 200 ms
G1 X-152.790 Y50.904 F13304.769 ; 200 ms
G1 X-182.390 Y21.304 F12558.026 ; 200 ms
G1 X-151.030 Y52.664 F13304.769 ; 200 ms
G1 X-210.229 Y-6.535 F12558.026 ; 400 ms
G1 X-182.291 Y21.403 F11853.201 ; 200 ms
G1 X-213.651 Y-6.535 F12599.906 ; 200 ms
G1 X-212.778 Y21.403 F8385.570 ; 200 ms
G1 X-240.716 Y-6.535 F11853.201 ; 200 ms
G1 X-240.133 Y-5.952 F247.221 ; 200 ms
G1 X-240.787 Y-6.535 F262.795 ; 200 ms
G1 X-239.963 Y-5.662 F360.168 ; 200 ms
G1 X-240.836 Y-6.486 F360.168 ; 200 ms
G1 X-212.898 Y-5.321 F8388.767 ; 200 ms
G1 X-213.515 Y-34.920 F8881.796 ; 200 ms
G1 X-65.518 Y113.077 F12558.026 ; 1000 ms
G1 X-96.877 Y111.692 F9417.075 ; 200 ms
G1 X-65.518 Y141.291 F12936.787 ; 200 ms
G1 X-65.954 Y140.598 F245.699 ; 200 ms
G1 X-65.081 Y141.181 F314.899 ; 200 ms
G1 X-65.954 Y140.308 F370.412 ; 200 ms
G1 X-36.355 Y169.907 F12558.026 ; 200 ms
G1 X-65.954 Y138.548 F12936.787 ; 200 ms
G1 X-36.355 Y168.147 F12558.026 ; 200 ms
G1 X-67.714 Y136.788 F13304.769 ; 200 ms
G1 X-8.515 Y195.987 F12558.026 ; 400 ms
G1 X-36.453 Y168.048 F11853.201 ; 200 ms
G1 X-5.094 Y199.408 F13304.769 ; 200 ms
G1 X-33.032 Y198.535 F8385.570 ; 200 ms
G1 X-5.094 Y226.473 F11853.201 ; 200 ms
G1 X-5.676 Y196.874 F8881.586 ; 200 ms
G1 X-5.022 Y226.473 F8882.033 ; 200 ms
G1 X-5.895 Y225.649 F360.168 ; 200 ms
G1 X-5.022 Y253.587 F8385.570 ; 200 ms
G1 X-5.640 Y252.422 F395.648 ; 200 ms
G1 X-5.022 Y282.022 F8881.796 ; 200 ms
G1 X-5.541 Y281.585 F203.483 ; 200 ms
G1 X-5.022 Y282.135 F226.891 ; 200 ms
G1 X-5.895 Y252.536 F8883.727 ; 200 ms
G1 X25.464 Y283.895 F13304.769 ; 200 ms
G1 X-4.135 Y254.296 F12558.026 ; 200 ms
G1 X51.741 Y310.172 F11853.201 ; 400 ms
G1 X-7.458 Y250.973 F12558.026 ; 400 ms
G1 X23.902 Y282.333 F13304.769 ; 200 ms
G1 X-4.037 Y254.394 F11853.201 ; 200 ms
G1 X25.563 Y283.994 F12558.026 ; 200 ms
G1 X25.073 Y254.394 F8881.082 ; 200 ms
G1 X25.563 Y255.267 F300.352 ; 200 ms
G1 X24.583 Y254.613 F353.463 ; 200 ms
G1 X25.563 Y284.213 F8884.731 ; 200 ms
G1 X-5.797 Y252.853 F13304.769 ; 200 ms
G1 X23.803 Y282.453 F12558.026 ; 200 ms
G1 X23.069 Y254.515 F8384.372 ; 200 ms
G1 X78.945 Y310.391 F11853.201 ; 400 ms
G1 X19.746 Y251.192 F12558.026 ; 400 ms
G1 X47.684 Y279.130 F11853.201 ; 200 ms
G1 X16.325 Y277.744 F9417.075 ; 200 ms
G1 X47.684 Y307.344 F12936.787 ; 200 ms
G1 X47.102 Y306.907 F218.426 ; 200 ms
G1 X47.975 Y307.344 F292.837 ; 200 ms
G1 X47.102 Y279.406 F8385.570 ; 200 ms
G1 X75.040 Y307.344 F11853.201 ; 200 ms
G1 X74.423 Y306.690 F269.821 ; 200 ms
G1 X75.040 Y336.289 F8881.796 ; 200 ms
G1 X74.603 Y334.981 F413.713 ; 200 ms
G1 X104.203 Y364.581 F12558.026 ; 200 ms
G1 X103.330 Y334.981 F8883.727 ; 200 ms
G1 X221.728 Y453.380 F12558.026 ; 800 ms
G1 X159.009 Y390.660 F13304.769 ; 400 ms
G1 X307.007 Y538.658 F12558.026 ; 1000 ms
G1 X305.699 Y509.058 F8888.533 ; 200 ms
G1 X335.298 Y538.658 F12558.026 ; 200 ms
G1 X307.360 Y510.720 F11853.201 ; 200 ms
G1 X338.719 Y542.079 F13304.769 ; 200 ms
G1 X282.843 Y486.203 F11853.201 ; 400 ms
G1 X342.042 Y545.402 F12558.026 ; 400 ms
G1 X341.169 Y515.802 F8883.727 ; 200 ms
G1 X342.042 Y543.741 F8385.570 ; 200 ms
G1 X341.425 Y542.761 F347.470 ; 200 ms
G1 X371.024 Y572.360 F12558.026 ; 200 ms
G1 X369.986 Y571.260 F226.891 ; 400 ms
G1 X371.024 Y572.298 F440.497 ; 200 ms
G1 X341.425 Y542.699 F12558.026 ; 200 ms
G1 X342.733 Y572.298 F8888.533 ; 200 ms
G1 X311.373 Y570.913 F9417.075 ; 200 ms
G1 X342.733 Y600.512 F12936.787 ; 200 ms
G1 X253.934 Y511.713 F12558.026 ; 600 ms
G1 X285.294 Y543.073 F13304.769 ; 200 ms
G1 X255.694 Y513.474 F12558.026 ; 200 ms
G1 X287.054 Y544.833 F13304.769 ; 200 ms
G1 X257.454 Y515.234 F12558.026 ; 200 ms
G1 X258.762 Y544.833 F8888.533 ; 200 ms
G1 X202.886 Y488.957 F11853.201 ; 400 ms
G1 X204.272 Y489.830 F491.396 ; 200 ms
G1 X203.399 Y461.891 F8385.570 ; 200 ms
G1 X203.981 Y489.830 F8383.301 ; 200 ms
G1 X115.183 Y401.031 F12558.026 ; 600 ms
G1 X143.121 Y428.969 F11853.201 ; 200 ms
G1 X142.504 Y399.370 F8881.796 ; 200 ms
G1 X172.103 Y428.969 F12558.026 ; 200 ms
G1 X171.584 Y399.370 F8881.231 ; 200 ms
G1 X172.457 Y428.969 F8883.727 ; 200 ms
G1 X141.098 Y397.610 F13304.769 ; 200 ms
G1 X170.697 Y427.209 F12558.026 ; 200 ms
G1 X169.824 Y425.901 F471.816 ; 200 ms
G1 X170.697 Y427.067 F436.851 ; 200 ms
G1 X170.114 Y426.630 F218.426 ; 200 ms
G1 X170.987 Y427.213 F314.899 ; 200 ms
G1 X169.679 Y425.827 F285.866 ; 400 ms
G1 X170.169 Y426.807 F328.698 ; 200 ms
G1 X138.810 Y397.207 F12936.787 ; 200 ms
G1 X168.409 Y428.567 F12936.787 ; 200 ms
G1 X167.755 Y398.967 F8882.033 ; 200 ms
G1 X197.355 Y430.327 F12936.787 ; 200 ms
G1 X196.701 Y400.727 F8882.033 ; 200 ms
G1 X197.283 Y430.327 F8881.586 ; 200 ms
G1 X196.118 Y429.402 F223.182 ; 400 ms
G1 X198.451 Y431.604 F320.873 ; 600 ms
G1 X197.834 Y430.827 F297.912 ; 200 ms
G1 X198.451 Y431.409 F254.677 ; 200 ms
G1 X168.852 Y430.947 F8880.949 ; 200 ms
G1 X169.725 Y460.546 F8883.727 ; 200 ms
G1 X169.262 Y459.812 F260.308 ; 200 ms
G1 X170.136 Y489.412 F8883.727 ; 200 ms
G1 X169.673 Y487.943 F461.832 ; 200 ms
G1 X170.546 Y517.543 F8883.727 ; 200 ms
G1 X170.084 Y487.943 F8880.949 ; 200 ms
G1 X170.666 Y517.543 F8881.586 ; 200 ms
G1 X170.084 Y516.889 F262.795 ; 200 ms
G1 X170.666 Y517.762 F314.899 ; 200 ms
G1 X170.084 Y517.108 F262.795 ; 200 ms
G1 X171.064 Y517.691 F342.042 ; 200 ms
G1 X170.481 Y517.108 F247.221 ; 200 ms
G1 X170.943 Y517.691 F223.182 ; 200 ms
G1 X169.635 Y516.305 F285.866 ; 400 ms
G1 X200.995 Y545.904 F12936.787 ; 200 ms
G1 X173.057 Y517.966 F11853.201 ; 200 ms
G1 X204.416 Y547.566 F12936.787 ; 200 ms
G1 X203.980 Y517.966 F8880.831 ; 200 ms
G1 X292.778 Y606.765 F12558.026 ; 600 ms
G1 X292.196 Y606.398 F206.607 ; 200 ms
G1 X293.361 Y606.860 F376.148 ; 200 ms
G1 X292.196 Y605.760 F480.766 ; 200 ms
G1 X292.686 Y606.223 F202.137 ; 200 ms
G1 X291.813 Y604.837 F491.396 ; 200 ms
G1 X292.303 Y605.299 F202.137 ; 200 ms
G1 X291.430 Y604.475 F360.168 ; 200 ms
G1 X291.920 Y632.413 F8382.767 ; 200 ms
G1 X290.995 Y631.105 F480.637 ; 200 ms
G1 X291.649 Y631.798 F285.866 ; 200 ms
G1 X290.669 Y630.760 F428.314 ; 200 ms
G1 X291.834 Y658.698 F8388.767 ; 200 ms
G1 X289.874 Y656.622 F428.314 ; 400 ms
G1 X290.652 Y658.177 F521.776 ; 200 ms
G1 X289.779 Y657.353 F360.168 ; 200 ms
G1 X290.433 Y658.046 F285.866 ; 200 ms
G1 X289.850 Y657.173 F314.899 ; 200 ms
G1 X290.313 Y657.827 F240.319 ; 200 ms
G1 X289.078 Y656.847 F236.453 ; 400 ms
G1 X317.016 Y684.785 F11853.201 ; 200 ms
G1 X316.362 Y683.747 F368.132 ; 200 ms
G1 X317.342 Y684.785 F428.314 ; 200 ms
G1 X316.177 Y655.186 F8886.745 ; 200 ms
G1 X318.137 Y657.262 F428.314 ; 400 ms
G1 X317.359 Y656.772 F275.787 ; 200 ms
G1 X318.232 Y657.752 F393.747 ; 200 ms
G1 X317.578 Y628.153 F8882.033 ; 200 ms
G1 X318.161 Y628.807 F262.795 ; 200 ms
G1 X317.698 Y628.153 F240.319 ; 200 ms
G1 X318.315 Y628.643 F236.453 ; 200 ms
G1 X317.825 Y628.026 F236.453 ; 200 ms
G1 X345.764 Y655.964 F11853.201 ; 200 ms
G1 X345.245 Y655.346 F241.984 ; 200 ms
G1 X376.604 Y686.706 F13304.769 ; 200 ms
G1 X375.296 Y657.107 F8888.533 ; 200 ms
G1 X406.656 Y686.706 F12936.787 ; 200 ms
G1 X405.348 Y685.398 F554.991 ; 200 ms
G1 X523.746 Y803.796 F12558.026 ; 800 ms
G1 X522.438 Y774.197 F8888.533 ; 200 ms
G1 X552.037 Y775.505 F8888.533 ; 200 ms
G1 X433.639 Y657.107 F12558.026 ; 800 ms
G1 X436.255 Y716.306 F8888.533 ; 400 ms
G1 X406.656 Y686.706 F12558.026 ; 200 ms
G1 X438.015 Y718.066 F13304.769 ; 200 ms
G1 X408.416 Y688.466 F12558.026 ; 200 ms
G1 X439.775 Y719.826 F13304.769 ; 200 ms
G1 X410.176 Y690.226 F12558.026 ; 200 ms
G1 X441.536 Y721.586 F13304.769 ; 200 ms
G1 X411.936 Y691.986 F12558.026 ; 200 ms
G1 X443.296 Y723.346 F13304.769 ; 200 ms
G1 X354.497 Y634.547 F12558.026 ; 600 ms
G1 X355.805 Y664.147 F8888.533 ; 200 ms
G1 X326.206 Y634.547 F12558.026 ; 200 ms
G1 X354.144 Y662.486 F11853.201 ; 200 ms
G1 X352.758 Y631.126 F9417.075 ; 200 ms
G1 X408.634 Y687.002 F11853.201 ; 400 ms
G1 X408.052 Y659.064 F8383.301 ; 200 ms
G1 X467.251 Y718.263 F12558.026 ; 400 ms
G1 X439.313 Y690.325 F11853.201 ; 200 ms
G1 X439.930 Y719.925 F8881.796 ; 200 ms
G1 X410.330 Y690.325 F12558.026 ; 200 ms
G1 X410.850 Y719.925 F8881.231 ; 200 ms
G1 X409.541 Y719.052 F471.816 ; 200 ms
G1 X410.580 Y720.090 F440.497 ; 200 ms
G1 X380.980 Y690.490 F12558.026 ; 200 ms
G1 X382.288 Y691.876 F571.730 ; 200 ms
G1 X380.902 Y660.517 F9417.075 ; 200 ms
G1 X381.339 Y691.876 F9408.804 ; 200 ms
G1 X380.756 Y662.277 F8881.586 ; 200 ms
G1 X381.629 Y691.876 F8883.727 ; 200 ms
G1 X352.030 Y662.277 F12558.026 ; 200 ms
G1 X383.389 Y693.636 F13304.769 ; 200 ms
G1 X353.790 Y664.037 F12558.026 ; 200 ms
G1 X385.149 Y695.396 F13304.769 ; 200 ms
G1 X355.550 Y665.797 F12558.026 ; 200 ms
G1 X356.858 Y695.396 F8888.533 ; 200 ms
G1 X300.981 Y639.520 F11853.201 ; 400 ms
G1 X301.855 Y640.906 F491.396 ; 200 ms
G1 X300.981 Y612.967 F8385.570 ; 200 ms
G1 X301.564 Y613.404 F218.426 ; 200 ms
G1 X300.981 Y585.466 F8383.301 ; 200 ms
G1 X301.636 Y615.065 F8882.033 ; 200 ms
G1 X300.762 Y585.466 F8883.727 ; 200 ms
G1 X328.701 Y613.404 F11853.201 ; 200 ms
G1 X210.303 Y495.006 F12558.026 ; 800 ms
G1 X241.662 Y526.365 F13304.769 ; 200 ms
G1 X212.063 Y496.766 F12558.026 ; 200 ms
G1 X212.936 Y524.704 F8385.570 ; 200 ms
G1 X184.997 Y496.766 F11853.201 ; 200 ms
G1 X185.580 Y497.202 F218.426 ; 200 ms
G1 X184.997 Y496.620 F247.221 ; 200 ms
G1 X244.197 Y555.819 F12558.026 ; 400 ms
G1 X212.837 Y524.459 F13304.769 ; 200 ms
G1 X242.436 Y554.059 F12558.026 ; 200 ms
G1 X211.077 Y522.699 F13304.769 ; 200 ms
G1 X270.276 Y581.898 F12558.026 ; 400 ms
G1 X242.338 Y553.960 F11853.201 ; 200 ms
G1 X273.697 Y585.320 F13304.769 ; 200 ms
G1 X272.824 Y557.381 F8385.570 ; 200 ms
G1 X300.762 Y585.320 F11853.201 ; 200 ms
G1 X300.180 Y557.381 F8383.301 ; 200 ms
G1 X300.762 Y558.035 F262.795 ; 200 ms
G1 X299.016 Y556.387 F360.168 ; 400 ms
G1 X300.182 Y557.005 F395.648 ; 200 ms
G1 X299.564 Y527.405 F8881.796 ; 200 ms
G1 X329.164 Y557.005 F12558.026 ; 200 ms
G1 X327.856 Y527.405 F8888.533 ; 200 ms
G1 X416.654 Y616.204 F12558.026 ; 600 ms
G1 X385.295 Y584.844 F13304.769 ; 200 ms
G1 X416.654 Y614.444 F12936.787 ; 200 ms
G1 X387.055 Y584.844 F12558.026 ; 200 ms
G1 X388.801 Y644.043 F8883.727 ; 400 ms
G1 X270.403 Y525.645 F12558.026 ; 800 ms
G1 X271.711 Y555.245 F8888.533 ; 200 ms
G1 X242.111 Y525.645 F12558.026 ; 200 ms
G1 X270.050 Y553.583 F11853.201 ; 200 ms
G1 X238.690 Y522.224 F13304.769 ; 200 ms
G1 X294.567 Y578.100 F11853.201 ; 400 ms
G1 X235.367 Y518.901 F12558.026 ; 400 ms
G1 X236.241 Y548.501 F8883.727 ; 200 ms
G1 X235.367 Y520.562 F8385.570 ; 200 ms
G1 X235.985 Y521.542 F347.470 ; 200 ms
G1 X206.385 Y491.943 F12558.026 ; 200 ms
G1 X207.424 Y493.043 F226.891 ; 400 ms
G1 X206.550 Y463.443 F8883.727 ; 200 ms
G1 X237.910 Y493.043 F12936.787 ; 200 ms
G1 X236.602 Y463.443 F8888.533 ; 200 ms
G1 X264.540 Y464.316 F8385.570 ; 200 ms
G1 X236.602 Y436.378 F11853.201 ; 200 ms
G1 X295.801 Y495.577 F12558.026 ; 400 ms
G1 X264.441 Y464.217 F13304.769 ; 200 ms
G1 X292.380 Y492.156 F11853.201 ; 200 ms
G1 X233.181 Y432.957 F12558.026 ; 400 ms
G1 X233.671 Y462.556 F8881.082 ; 200 ms
G1 X232.691 Y462.066 F328.698 ; 200 ms
G1 X233.671 Y493.426 F9412.485 ; 200 ms
G1 X204.071 Y463.826 F12558.026 ; 200 ms
G1 X233.671 Y464.604 F8882.931 ; 200 ms
G1 X232.936 Y436.666 F8384.372 ; 200 ms
G1 X233.426 Y464.604 F8382.767 ; 200 ms
G1 X205.488 Y436.666 F11853.201 ; 200 ms
G1 X206.413 Y466.265 F8884.200 ; 200 ms
G1 X176.814 Y436.666 F12558.026 ; 200 ms
G1 X204.752 Y464.604 F11853.201 ; 200 ms
G1 X173.392 Y436.666 F12599.906 ; 200 ms
G1 X204.752 Y466.265 F12936.787 ; 200 ms
G1 X175.152 Y465.683 F8881.586 ; 200 ms
G1 X176.025 Y466.119 F292.837 ; 200 ms
G1 X120.149 Y410.243 F11853.201 ; 400 ms
G1 X121.384 Y411.551 F269.821 ; 400 ms
G1 X120.947 Y410.243 F413.713 ; 200 ms
G1 X150.547 Y439.842 F12558.026 ; 200 ms
G1 X149.673 Y439.018 F360.168 ; 200 ms
G1 X179.273 Y468.618 F12558.026 ; 200 ms
G1 X178.400 Y439.018 F8883.727 ; 200 ms
G1 X237.599 Y498.217 F12558.026 ; 400 ms
G1 X174.880 Y435.498 F13304.769 ; 400 ms
G1 X204.479 Y465.098 F12558.026 ; 200 ms
G1 X173.120 Y433.738 F13304.769 ; 200 ms
G1 X261.918 Y522.537 F12558.026 ; 600 ms
G1 X260.610 Y492.937 F8888.533 ; 200 ms
G1 X290.210 Y522.537 F12558.026 ; 200 ms
G1 X262.272 Y494.598 F11853.201 ; 200 ms
G1 X263.657 Y525.958 F9417.075 ; 200 ms
G1 X235.719 Y525.085 F8385.570 ; 200 ms
G1 X263.657 Y553.023 F11853.201 ; 200 ms
G1 X174.859 Y464.224 F12558.026 ; 600 ms
G1 X202.797 Y492.163 F11853.201 ; 200 ms
G1 X202.180 Y462.563 F8881.796 ; 200 ms
G1 X231.779 Y492.163 F12558.026 ; 200 ms
G1 X231.260 Y491.613 F226.891 ; 200 ms
G1 X232.133 Y521.212 F8883.727 ; 200 ms
G1 X231.095 Y520.174 F440.497 ; 200 ms
G1 X260.694 Y549.774 F12558.026 ; 200 ms
G1 X259.386 Y548.388 F571.730 ; 200 ms
G1 X260.772 Y579.747 F9417.075 ; 200 ms
G1 X260.336 Y548.388 F9408.804 ; 200 ms
G1 X260.918 Y577.987 F8881.586 ; 200 ms
G1 X260.045 Y548.388 F8883.727 ; 200 ms
G1 X289.645 Y577.987 F12558.026 ; 200 ms
G1 X258.285 Y546.628 F13304.769 ; 200 ms
G1 X287.885 Y576.227 F12558.026 ; 200 ms
G1 X256.525 Y544.867 F13304.769 ; 200 ms
G1 X286.125 Y574.467 F12558.026 ; 200 ms
G1 X284.817 Y544.867 F8888.533 ; 200 ms
G1 X340.693 Y600.744 F11853.201 ; 400 ms
G1 X339.820 Y599.358 F491.396 ; 200 ms
G1 X340.693 Y600.523 F436.851 ; 200 ms
G1 X340.110 Y600.087 F218.426 ; 200 ms
G1 X340.693 Y629.686 F8881.586 ; 200 ms
G1 X340.039 Y628.862 F315.627 ; 200 ms
G1 X340.912 Y658.462 F8883.727 ; 200 ms
G1 X312.974 Y630.524 F11853.201 ; 200 ms
G1 X313.591 Y660.123 F8881.796 ; 200 ms
G1 X224.793 Y571.325 F12558.026 ; 600 ms
G1 X256.152 Y602.684 F13304.769 ; 200 ms
G1 X226.553 Y573.085 F12558.026 ; 200 ms
G1 X229.172 Y656.899 F8385.570 ; 600 ms
G1 X145.357 Y573.085 F11853.201 ; 600 ms
G1 X146.592 Y573.575 F398.514 ; 200 ms
G1 X143.652 Y484.776 F8884.731 ; 600 ms
G1 X144.632 Y485.941 F456.804 ; 200 ms
G1 X143.652 Y456.342 F8884.731 ; 200 ms
G1 X173.251 Y457.322 F8884.731 ; 200 ms
G1 X169.755 Y454.703 F436.851 ; 600 ms
G1 X171.501 Y457.033 F436.851 ; 400 ms
G1 X170.628 Y456.597 F292.837 ; 200 ms
G1 X171.666 Y457.635 F440.497 ; 200 ms
G1 X143.728 Y429.697 F11853.201 ; 200 ms
G1 X148.920 Y569.388 F8387.264 ; 1000 ms
G1 X148.046 Y568.002 F491.396 ; 200 ms
G1 X152.412 Y568.002 F261.921 ; 1000 ms
G1 X151.539 Y567.420 F314.899 ; 200 ms
G1 X154.314 Y651.234 F8386.071 ; 600 ms
G1 X153.389 Y649.849 F499.872 ; 200 ms
G1 X154.262 Y651.234 F491.396 ; 200 ms
G1 X152.954 Y650.652 F429.612 ; 200 ms
G1 X153.934 Y651.525 F393.747 ; 200 ms
G1 X152.187 Y650.217 F327.269 ; 400 ms
G1 X153.061 Y651.603 F491.396 ; 200 ms
G1 X150.441 Y649.640 F327.269 ; 600 ms
G1 X151.314 Y677.579 F8385.570 ; 200 ms
G1 X150.441 Y676.925 F327.269 ; 200 ms
G1 X151.059 Y706.524 F8881.796 ; 200 ms
G1 X150.441 Y705.289 F414.134 ; 200 ms
G1 X151.749 Y706.524 F539.642 ; 200 ms
G1 X150.972 Y705.870 F304.880 ; 200 ms
G1 X152.280 Y761.747 F8383.775 ; 400 ms
G1 X151.626 Y760.874 F327.269 ; 200 ms
G1 X152.499 Y761.528 F327.269 ; 200 ms
G1 X150.753 Y705.651 F8385.570 ; 400 ms
G1 X151.626 Y706.631 F393.747 ; 200 ms
G1 X146.726 Y558.633 F8884.731 ; 1000 ms
G1 X147.599 Y559.558 F381.584 ; 200 ms
G1 X146.433 Y558.633 F446.363 ; 200 ms
G1 X148.764 Y614.510 F8388.767 ; 400 ms
G1 X147.599 Y613.585 F446.363 ; 200 ms
G1 X148.472 Y643.184 F8883.727 ; 200 ms
G1 X8.781 Y503.493 F11853.201 ; 1000 ms
G1 X9.654 Y531.431 F8385.570 ; 200 ms
G1 X-18.285 Y503.493 F11853.201 ; 200 ms
G1 X-17.360 Y503.956 F310.249 ; 200 ms
G1 X-157.051 Y364.264 F11853.201 ; 1000 ms
G1 X-156.126 Y392.203 F8386.071 ; 200 ms
G1 X-160.046 Y273.804 F8884.731 ; 800 ms
G1 X-159.121 Y301.743 F8386.071 ; 200 ms
G1 X-160.429 Y300.965 F456.572 ; 200 ms
G1 X-159.504 Y302.130 F446.363 ; 200 ms
G1 X-162.279 Y299.797 F362.566 ; 600 ms
G1 X-161.354 Y300.962 F446.363 ; 200 ms
G1 X-162.519 Y300.184 F420.341 ; 200 ms
G1 X-161.354 Y300.767 F390.890 ; 200 ms
G1 X-190.954 Y299.989 F8882.931 ; 200 ms
G1 X-42.956 Y447.987 F12558.026 ; 1000 ms
G1 X-47.321 Y443.867 F360.168 ; 1000 ms
G4 P200 ; pause
G1 X-46.802 Y444.303 F203.483 ; 200 ms
G1 X-47.239 Y442.995 F413.713 ; 200 ms
G4 P1000 ; pause
G1 X-17.639 Y472.595 F12558.026 ; 200 ms
G1 X-18.512 Y471.770 F360.168 ; 200 ms
G1 X9.426 Y499.709 F11853.201 ; 200 ms
G1 X-20.173 Y470.109 F12558.026 ; 200 ms
G1 X-19.300 Y470.933 F360.168 ; 200 ms
G1 X-19.954 Y470.060 F327.269 ; 200 ms
G1 X-19.081 Y470.884 F360.168 ; 200 ms
G1 X-19.954 Y470.230 F327.269 ; 200 ms
G1 X-19.081 Y470.813 F314.899 ; 200 ms
G1 X-48.681 Y441.213 F12558.026 ; 200 ms
G1 X-47.808 Y442.037 F360.168 ; 200 ms
G1 X-49.554 Y440.729 F327.269 ; 400 ms
G1 X-48.681 Y441.312 F314.899 ; 200 ms
G1 X-49.554 Y440.658 F327.269 ; 200 ms
G1 X-18.194 Y472.018 F13304.769 ; 200 ms
G1 X-49.554 Y436.818 F14142.915 ; 200 ms
G1 X-48.681 Y468.177 F9411.538 ; 200 ms
G1 X-49.554 Y438.578 F8883.727 ; 200 ms
G1 X-48.681 Y439.402 F360.168 ; 200 ms
G1 X-49.554 Y408.042 F9411.538 ; 200 ms
G1 X-48.681 Y408.866 F360.168 ; 200 ms
G1 X-78.280 Y379.267 F12558.026 ; 200 ms
G1 X-46.921 Y410.626 F13304.769 ; 200 ms
G1 X-76.520 Y381.027 F12558.026 ; 200 ms
G1 X-43.296 Y414.251 F14095.911 ; 200 ms
G1 X-72.895 Y384.652 F12558.026 ; 200 ms
G1 X-39.671 Y414.251 F13349.133 ; 200 ms
G1 X-128.470 Y325.452 F12558.026 ; 600 ms
G1 X-100.531 Y353.391 F11853.201 ; 200 ms
G1 X-130.131 Y323.791 F12558.026 ; 200 ms
G1 X-98.771 Y355.151 F13304.769 ; 200 ms
G1 X-128.371 Y325.551 F12558.026 ; 200 ms
G1 X-127.063 Y326.859 F554.991 ; 200 ms
G1 X-182.939 Y270.983 F11853.201 ; 400 ms
G1 X-181.553 Y271.856 F491.396 ; 200 ms
G1 X-182.426 Y270.691 F436.851 ; 200 ms
G1 X-181.844 Y271.127 F218.426 ; 200 ms
G1 X-270.642 Y182.328 F12558.026 ; 600 ms
G1 X-242.704 Y210.267 F11853.201 ; 200 ms
G1 X-243.322 Y180.667 F8881.796 ; 200 ms
G1 X-213.722 Y210.267 F12558.026 ; 200 ms
G1 X-214.241 Y180.667 F8881.231 ; 200 ms
G1 X-213.368 Y210.267 F8883.727 ; 200 ms
G1 X-214.406 Y180.667 F8885.326 ; 200 ms
G1 X-184.807 Y210.267 F12558.026 ; 200 ms
G1 X-186.115 Y208.881 F571.730 ; 200 ms
G1 X-184.729 Y209.317 F435.911 ; 200 ms
G1 X-185.165 Y208.624 F245.699 ; 200 ms
G1 X-184.583 Y209.497 F314.899 ; 200 ms
G1 X-185.456 Y208.673 F360.168 ; 200 ms
G1 X-155.856 Y238.273 F12558.026 ; 200 ms
G1 X-187.216 Y206.913 F13304.769 ; 200 ms
G1 X-157.616 Y236.513 F12558.026 ; 200 ms
G1 X-188.976 Y205.153 F13304.769 ; 200 ms
G1 X-129.777 Y264.352 F12558.026 ; 400 ms
G1 X-157.715 Y236.414 F11853.201 ; 200 ms
G1 X-126.356 Y264.352 F12599.906 ; 200 ms
G1 X-127.229 Y236.414 F8385.570 ; 200 ms
G1 X-99.290 Y237.579 F8388.767 ; 200 ms
G1 X-99.873 Y237.143 F218.426 ; 200 ms
G1 X-99.219 Y237.726 F262.795 ; 200 ms
G1 X-100.043 Y236.852 F360.168 ; 200 ms
G1 X-99.170 Y237.677 F360.168 ; 200 ms
G1 X-127.108 Y236.511 F8388.767 ; 200 ms
G1 X-126.491 Y266.111 F8881.796 ; 200 ms
G1 X-215.290 Y177.312 F12558.026 ; 600 ms
G1 X-183.930 Y208.672 F13304.769 ; 200 ms
G1 X-213.529 Y179.072 F12558.026 ; 200 ms
G1 X-212.656 Y207.010 F8385.570 ; 200 ms
G1 X-240.595 Y179.072 F11853.201 ; 200 ms
G1 X-240.012 Y179.655 F247.221 ; 200 ms
G1 X-241.320 Y150.055 F8888.533 ; 200 ms
G1 X-211.721 Y179.655 F12558.026 ; 200 ms
G1 X-239.659 Y151.717 F11853.201 ; 200 ms
G1 X-239.169 Y179.655 F8382.767 ; 200 ms
G1 X-268.768 Y150.055 F12558.026 ; 200 ms
G1 X-268.278 Y179.655 F8881.082 ; 200 ms
G1 X-297.878 Y179.001 F8882.033 ; 200 ms
G1 X-268.278 Y208.600 F12558.026 ; 200 ms
G1 X-299.638 Y177.241 F13304.769 ; 200 ms
G1 X-270.038 Y206.840 F12558.026 ; 200 ms
G1 X-270.773 Y178.902 F8384.372 ; 200 ms
G1 X-242.834 Y206.840 F11853.201 ; 200 ms
G1 X-243.452 Y178.902 F8383.525 ; 200 ms
G1 X-242.527 Y208.502 F8884.200 ; 200 ms
G1 X-272.126 Y178.902 F12558.026 ; 200 ms
G1 X-244.188 Y206.840 F11853.201 ; 200 ms
G1 X-245.574 Y178.902 F8391.785 ; 200 ms
G1 X-244.188 Y179.339 F435.911 ; 200 ms
G1 X-244.625 Y178.646 F245.699 ; 200 ms
G1 X-244.042 Y179.519 F314.899 ; 200 ms
G1 X-244.915 Y149.919 F8883.727 ; 200 ms
G1 X-216.977 Y177.857 F11853.201 ; 200 ms
G1 X-248.336 Y146.498 F13304.769 ; 200 ms
G1 X-247.719 Y176.097 F8881.796 ; 200 ms
G1 X-366.117 Y57.699 F12558.026 ; 800 ms
G1 X-364.371 Y116.898 F8883.727 ; 400 ms
G1 X-393.971 Y87.299 F12558.026 ; 200 ms
G1 X-392.224 Y88.172 F585.673 ; 200 ms
G1 X-423.584 Y56.812 F13304.769 ; 200 ms
G1 X-393.984 Y88.172 F12936.787 ; 200 ms
G1 X-423.584 Y58.572 F12558.026 ; 200 ms
G1 X-392.224 Y89.932 F13304.769 ; 200 ms
G1 X-421.824 Y60.332 F12558.026 ; 200 ms
G1 X-390.464 Y91.692 F13304.769 ; 200 ms
G1 X-449.663 Y32.493 F12558.026 ; 400 ms
G1 X-421.725 Y60.431 F11853.201 ; 200 ms
G1 X-453.085 Y29.071 F13304.769 ; 200 ms
G1 X-452.212 Y57.010 F8385.570 ; 200 ms
G1 X-480.150 Y29.071 F11853.201 ; 200 ms
G1 X-479.567 Y29.621 F240.383 ; 200 ms
G1 X-480.221 Y0.022 F8882.033 ; 200 ms
G1 X-478.475 Y1.670 F360.168 ; 400 ms
G1 X-479.641 Y1.053 F395.648 ; 200 ms
G1 X-479.023 Y30.652 F8881.796 ; 200 ms
G1 X-479.542 Y1.053 F8881.231 ; 200 ms
G1 X-361.144 Y119.451 F12558.026 ; 800 ms
G1 X-423.863 Y60.252 F12936.787 ; 400 ms
G1 X-394.264 Y89.851 F12558.026 ; 200 ms
G1 X-396.010 Y30.652 F8883.727 ; 400 ms
G1 X-277.612 Y149.050 F12558.026 ; 800 ms
G1 X-278.920 Y119.451 F8888.533 ; 200 ms
G1 X-249.320 Y149.050 F12558.026 ; 200 ms
G1 X-277.259 Y121.112 F11853.201 ; 200 ms
G1 X-245.899 Y152.472 F13304.769 ; 200 ms
G1 X-301.776 Y96.595 F11853.201 ; 400 ms
G1 X-242.576 Y155.794 F12558.026 ; 400 ms
G1 X-243.450 Y126.195 F8883.727 ; 200 ms
G1 X-242.576 Y154.133 F8385.570 ; 200 ms
G1 X-243.194 Y124.533 F8881.796 ; 200 ms
G1 X-213.594 Y154.133 F12558.026 ; 200 ms
G1 X-214.113 Y153.583 F226.891 ; 200 ms
G1 X-213.563 Y183.183 F8881.398 ; 200 ms
G1 X-214.436 Y153.583 F8883.727 ; 200 ms
G1 X-183.077 Y183.183 F12936.787 ; 200 ms
G1 X-212.676 Y182.529 F8882.033 ; 200 ms
G1 X-17.109 Y378.096 F11853.201 ; 1400 ms
G4 P1000 ; pause

; End of music G-code