; Generated music G-code
; X axis = melody 1
; Y axis = melody 2

G21 ; use millimeters
G90 ; absolute positioning
G28 X Y ; home x and y
M73 P1 R9
M73 Q1 S9
G0 X100.000 Y100.000 F2000 ; move to start position

G4 P600 ; pause
G1 X104.153 Y100.000 F622.957 ; 400 ms
G4 P200 ; pause
G1 X97.923 Y100.000 F622.957 ; 600 ms
G4 P400 ; pause
G1 X98.903 Y100.000 F293.996 ; 200 ms
G4 P400 ; pause
G1 X97.923 Y100.000 F293.996 ; 200 ms
G4 P200 ; pause
G1 X100.254 Y100.000 F349.623 ; 400 ms
G4 P400 ; pause
G1 X99.089 Y100.000 F349.623 ; 200 ms
G4 P600 ; pause
G1 X100.069 Y100.000 F293.996 ; 200 ms
G4 P1000 ; pause
G1 X99.144 Y99.127 F381.584 ; 200 ms
G1 X100.069 Y99.127 F277.495 ; 200 ms
G4 P200 ; pause
G1 X99.144 Y98.254 F381.584 ; 200 ms
G1 X100.069 Y98.254 F277.495 ; 200 ms
G4 P200 ; pause
G1 X96.577 Y94.958 F720.335 ; 400 ms
G1 X98.323 Y95.831 F585.673 ; 200 ms
G1 X97.450 Y94.085 F585.673 ; 200 ms
G1 X100.942 Y95.831 F585.673 ; 400 ms
G4 P200 ; pause
G1 X99.474 Y95.831 F440.497 ; 200 ms
G1 X100.942 Y98.161 F826.428 ; 200 ms
G1 X99.474 Y98.161 F440.497 ; 200 ms
G1 X100.942 Y99.717 F641.746 ; 200 ms
G1 X99.474 Y97.386 F826.428 ; 200 ms
G1 X100.942 Y97.386 F440.497 ; 200 ms
G4 P200 ; pause
G1 X96.789 Y97.386 F622.957 ; 400 ms
G4 P1000 ; pause
G1 X97.769 Y97.386 F293.996 ; 200 ms
G4 P200 ; pause

; End of music G-code