; Generated music G-code
; X axis = melody 1
; Y axis = melody 2

G21 ; use millimeters
G90 ; absolute positioning
<<<<<<< HEAD
G0 X50.000 Y50.000 ; move to start position

G1 X51.386 Y51.308 F571.730 ; 200 ms
G1 X48.614 Y47.155 F748.961 ; 400 ms
G1 X50.000 Y49.927 F929.699 ; 200 ms
G1 X47.384 Y47.311 F1109.983 ; 200 ms
G1 X48.770 Y48.236 F499.872 ; 200 ms
G1 X47.604 Y46.850 F543.235 ; 200 ms
G1 X49.935 Y47.723 F746.691 ; 200 ms
G1 X48.770 Y46.850 F436.851 ; 200 ms
G1 X50.846 Y48.405 F778.380 ; 200 ms
G1 X49.921 Y46.329 F681.967 ; 200 ms
G1 X50.411 Y47.254 F314.026 ; 200 ms
G1 X49.921 Y46.274 F328.698 ; 200 ms
G1 X51.771 Y47.254 F314.026 ; 400 ms
G1 X48.279 Y45.946 F559.386 ; 400 ms
G1 X49.259 Y47.692 F600.703 ; 200 ms
G1 X48.221 Y47.692 F311.479 ; 200 ms
G4 P5000 ; pause
G1 X50.297 Y47.692 F622.957 ; 200 ms
G1 X48.447 Y46.044 F743.295 ; 200 ms
G1 X50.193 Y47.352 F654.537 ; 200 ms
G1 X49.610 Y46.801 F80.218 ; 600 ms
G1 X49.999 Y47.384 F105.085 ; 400 ms
G1 X49.804 Y46.801 F184.288 ; 200 ms
G1 X51.360 Y48.270 F641.746 ; 200 ms
G1 X50.777 Y46.714 F498.356 ; 200 ms
G1 X52.333 Y47.297 F498.356 ; 200 ms
G1 X51.750 Y47.037 F191.371 ; 200 ms
G1 X52.213 Y47.297 F159.106 ; 200 ms
G1 X51.994 Y46.317 F301.200 ; 200 ms
G4 P400 ; pause
G1 X52.612 Y46.971 F269.821 ; 200 ms
G1 X51.994 Y45.415 F502.097 ; 200 ms
G1 X52.612 Y45.621 F195.247 ; 200 ms
G1 X52.200 Y45.185 F90.042 ; 400 ms
G1 X52.406 Y46.931 F527.475 ; 200 ms
G1 X50.660 Y46.639 F531.084 ; 200 ms
G1 X50.951 Y47.129 F171.021 ; 200 ms
G1 X50.461 Y46.838 F171.021 ; 200 ms
G1 X50.951 Y47.274 F196.874 ; 200 ms
G1 X50.461 Y46.401 F300.352 ; 200 ms
G1 X50.951 Y48.478 F640.065 ; 200 ms
G1 X50.461 Y46.628 F574.129 ; 200 ms
G1 X52.207 Y47.118 F544.076 ; 200 ms
G1 X51.624 Y46.567 F80.218 ; 600 ms
G1 X51.818 Y46.859 F105.085 ; 200 ms
G1 X51.624 Y46.675 F80.218 ; 200 ms
G1 X51.818 Y47.258 F184.288 ; 200 ms
G1 X51.236 Y46.768 F228.402 ; 200 ms
G1 X52.984 Y47.547 F191.371 ; 600 ms
G1 X52.724 Y47.057 F166.350 ; 200 ms
G1 X53.214 Y47.057 F146.999 ; 200 ms
G4 P400 ; pause
G1 X52.802 Y45.822 F195.247 ; 400 ms
G1 X53.420 Y46.477 F90.042 ; 600 ms
G1 X52.930 Y46.271 F159.463 ; 200 ms
G1 X53.513 Y47.251 F171.021 ; 400 ms
G1 X53.023 Y46.959 F171.021 ; 200 ms
G1 X54.003 Y46.959 F146.999 ; 400 ms
G1 X53.130 Y46.959 F261.921 ; 200 ms
G4 P400 ; pause
G1 X54.296 Y48.061 F80.218 ; 1200 ms
G1 X53.714 Y47.866 F184.288 ; 200 ms
G1 X54.296 Y49.252 F451.029 ; 200 ms
G1 X53.714 Y49.058 F184.288 ; 200 ms
G1 X55.100 Y49.640 F451.029 ; 200 ms
G1 X53.714 Y49.178 F438.314 ; 200 ms
G1 X55.269 Y50.646 F641.746 ; 200 ms
G1 X53.961 Y49.411 F539.642 ; 200 ms
G1 X55.269 Y49.874 F416.244 ; 200 ms
G1 X54.395 Y49.437 F97.722 ; 600 ms
G1 X54.541 Y49.728 F97.722 ; 200 ms
G1 X54.395 Y49.238 F153.357 ; 200 ms
G1 X54.687 Y50.218 F306.714 ; 200 ms
G1 X54.104 Y49.238 F171.021 ; 400 ms
G1 X55.084 Y49.821 F171.021 ; 400 ms
G1 X54.594 Y49.821 F146.999 ; 200 ms
G1 X55.211 Y50.311 F236.453 ; 200 ms
G1 X54.721 Y49.694 F236.453 ; 200 ms
G1 X55.211 Y49.694 F146.999 ; 200 ms
G1 X54.822 Y49.111 F105.085 ; 400 ms
G1 X55.211 Y49.478 F80.218 ; 400 ms
G1 X54.822 Y47.147 F354.456 ; 400 ms
G1 X56.131 Y47.730 F429.612 ; 200 ms
G1 X54.745 Y46.422 F571.730 ; 200 ms
G1 X56.131 Y46.884 F438.314 ; 200 ms
G1 X54.965 Y46.422 F376.148 ; 200 ms
G1 X56.131 Y46.912 F379.269 ; 200 ms
G1 X55.668 Y45.987 F310.249 ; 200 ms
G1 X57.518 Y46.912 F310.249 ; 400 ms
G1 X56.644 Y46.475 F97.722 ; 600 ms
G1 X56.935 Y47.455 F153.357 ; 400 ms
G1 X55.380 Y45.986 F641.746 ; 200 ms
G1 X55.671 Y47.542 F474.805 ; 200 ms
G1 X54.115 Y47.251 F474.805 ; 200 ms
G1 X55.671 Y47.741 F489.294 ; 200 ms
G1 X55.181 Y47.741 F146.999 ; 200 ms
G1 X55.764 Y47.741 F87.406 ; 400 ms
G1 X55.472 Y47.251 F171.021 ; 200 ms
G1 X55.962 Y47.542 F171.021 ; 200 ms
G1 X55.185 Y46.808 F80.218 ; 800 ms
G1 X55.574 Y47.390 F105.085 ; 400 ms
G1 X55.379 Y46.082 F396.750 ; 200 ms
G1 X56.765 Y46.277 F419.846 ; 200 ms
G1 X55.379 Y45.352 F499.872 ; 200 ms
G1 X55.962 Y47.683 F360.383 ; 400 ms
G1 X54.576 Y46.375 F571.730 ; 200 ms
G1 X56.131 Y47.843 F641.746 ; 200 ms
G1 X54.576 Y47.380 F486.879 ; 200 ms
G1 X55.159 Y47.672 F97.722 ; 400 ms
G1 X53.850 Y47.380 F402.054 ; 200 ms
G1 X55.159 Y47.870 F419.066 ; 200 ms
G1 X53.993 Y46.562 F525.589 ; 200 ms
G1 X54.284 Y47.180 F204.796 ; 200 ms
G1 X53.702 Y46.200 F171.021 ; 400 ms
G1 X54.682 Y46.782 F171.021 ; 400 ms
G1 X54.099 Y45.548 F204.796 ; 400 ms
G1 X54.682 Y46.528 F171.021 ; 400 ms
G1 X54.422 Y45.362 F179.095 ; 400 ms
G1 X54.682 Y47.693 F351.784 ; 400 ms
G1 X53.516 Y47.563 F351.784 ; 200 ms
G1 X54.824 Y48.146 F429.612 ; 200 ms
G1 X54.242 Y46.838 F429.612 ; 200 ms
G1 X55.628 Y47.420 F451.029 ; 200 ms
G1 X55.045 Y46.035 F451.029 ; 200 ms
G1 X56.210 Y46.617 F390.890 ; 200 ms
G1 X55.748 Y45.744 F296.401 ; 200 ms
G1 X57.135 Y48.519 F310.249 ; 600 ms
G1 X56.673 Y46.964 F486.879 ; 200 ms
G1 X57.135 Y47.223 F159.106 ; 200 ms
G1 X55.580 Y46.761 F486.879 ; 200 ms
G1 X56.042 Y48.229 F461.832 ; 200 ms
G1 X54.487 Y47.766 F486.879 ; 200 ms
G1 X57.979 Y48.932 F552.240 ; 400 ms
G1 X56.423 Y47.463 F641.746 ; 200 ms
G1 X57.892 Y49.019 F641.746 ; 200 ms
G1 X56.336 Y48.557 F486.879 ; 200 ms
G1 X56.798 Y50.025 F461.832 ; 200 ms
G1 X55.873 Y48.175 F310.249 ; 400 ms
G1 X56.336 Y48.175 F138.748 ; 200 ms
G1 X55.947 Y47.592 F105.085 ; 400 ms
G1 X56.530 Y48.143 F80.218 ; 600 ms
G1 X56.336 Y47.560 F184.288 ; 200 ms
G1 X57.501 Y47.949 F184.288 ; 400 ms
G1 X56.724 Y46.393 F521.776 ; 200 ms
G1 X58.279 Y47.862 F641.746 ; 200 ms
G1 X56.533 Y46.214 F720.335 ; 200 ms
G1 X58.279 Y47.139 F592.802 ; 200 ms
G1 X56.893 Y45.831 F571.730 ; 200 ms
G1 X58.279 Y46.756 F499.872 ; 200 ms
G1 X57.696 Y46.464 F97.722 ; 400 ms
G1 X59.165 Y46.610 F442.660 ; 200 ms
G1 X57.696 Y45.054 F641.746 ; 200 ms
G1 X59.252 Y46.523 F641.746 ; 200 ms
G1 X57.506 Y46.231 F531.084 ; 200 ms
G1 X57.797 Y47.977 F531.084 ; 200 ms
G1 X56.242 Y46.509 F641.746 ; 200 ms
G1 X57.710 Y48.065 F641.746 ; 200 ms
G1 X56.154 Y47.575 F489.294 ; 200 ms
G1 X57.320 Y49.535 F171.021 ; 800 ms
G1 X56.931 Y48.952 F105.085 ; 400 ms
G1 X57.514 Y49.503 F80.218 ; 600 ms
G1 X56.349 Y49.114 F184.288 ; 400 ms
G1 X56.932 Y50.279 F390.890 ; 200 ms
G1 X56.349 Y49.044 F409.590 ; 200 ms
G1 X57.657 Y49.044 F392.438 ; 200 ms
G1 X56.271 Y47.736 F571.730 ; 200 ms
G1 X57.657 Y48.661 F499.872 ; 200 ms
G1 X55.326 Y46.811 F446.363 ; 400 ms
G1 X55.909 Y47.103 F97.722 ; 400 ms
G1 X54.353 Y45.634 F641.746 ; 200 ms
G1 X56.099 Y47.282 F720.335 ; 200 ms
G1 X54.353 Y47.137 F525.662 ; 200 ms
G1 X54.645 Y48.692 F474.805 ; 200 ms
G1 X54.353 Y48.202 F171.021 ; 200 ms
G1 X55.909 Y48.692 F489.294 ; 200 ms
G1 X55.419 Y48.401 F171.021 ; 200 ms
G1 X55.909 Y48.401 F146.999 ; 200 ms
G1 X55.617 Y47.421 F306.714 ; 200 ms
G1 X55.909 Y48.586 F360.383 ; 200 ms
G1 X54.523 Y47.278 F571.730 ; 200 ms
G1 X54.814 Y47.462 F103.303 ; 200 ms
G1 X54.425 Y46.879 F105.085 ; 400 ms
G1 X54.814 Y50.371 F527.080 ; 400 ms
G1 X54.620 Y50.188 F80.218 ; 200 ms
G1 X55.203 Y51.743 F498.356 ; 200 ms
G1 X54.620 Y51.253 F228.402 ; 200 ms
G1 X55.203 Y51.513 F191.371 ; 200 ms
G1 X54.943 Y51.023 F166.350 ; 200 ms
G1 X55.433 Y51.283 F166.350 ; 200 ms
G1 X54.453 Y50.505 F375.345 ; 200 ms
G1 X55.618 Y51.283 F420.341 ; 200 ms
G1 X54.310 Y50.820 F416.244 ; 200 ms
G1 X54.529 Y52.128 F397.864 ; 200 ms
G1 X53.911 Y51.638 F236.453 ; 200 ms
G1 X54.117 Y51.857 F90.042 ; 200 ms
G1 X52.562 Y51.651 F470.765 ; 200 ms
G1 X54.117 Y53.119 F641.746 ; 200 ms
G1 X52.562 Y52.913 F470.765 ; 200 ms
G1 X53.436 Y54.383 F171.021 ; 600 ms
G1 X52.946 Y54.091 F171.021 ; 200 ms
G1 X53.819 Y54.581 F300.352 ; 200 ms
G1 X53.329 Y54.363 F160.923 ; 200 ms
G1 X54.494 Y55.343 F456.804 ; 200 ms
G1 X53.108 Y54.035 F571.730 ; 200 ms
G1 X53.303 Y54.241 F84.988 ; 200 ms
G1 X52.330 Y53.323 F80.218 ; 1000 ms
G1 X53.638 Y53.542 F397.864 ; 200 ms
G1 X51.022 Y52.376 F429.612 ; 400 ms
G1 X52.330 Y52.636 F400.089 ; 200 ms
G1 X51.840 Y52.376 F166.350 ; 200 ms
G1 X52.765 Y52.839 F310.249 ; 200 ms
G1 X51.840 Y50.989 F310.249 ; 400 ms
G1 X52.059 Y51.606 F196.441 ; 200 ms
G1 X51.441 Y50.050 F502.097 ; 200 ms
G1 X51.853 Y50.487 F90.042 ; 400 ms
G1 X49.081 Y50.075 F420.342 ; 400 ms
G1 X50.247 Y52.035 F171.021 ; 800 ms
G1 X49.374 Y51.545 F300.352 ; 200 ms
G1 X49.864 Y52.525 F328.698 ; 200 ms
G1 X49.374 Y51.360 F379.269 ; 200 ms
G1 X50.760 Y51.850 F440.995 ; 200 ms
G1 X47.267 Y51.461 F527.080 ; 400 ms
G1 X47.462 Y51.752 F105.085 ; 200 ms
G1 X47.073 Y48.260 F527.080 ; 400 ms
G1 X47.267 Y48.443 F80.218 ; 200 ms
G1 X45.799 Y46.888 F641.746 ; 200 ms
G1 X46.289 Y48.356 F464.378 ; 200 ms
G1 X45.799 Y46.800 F489.294 ; 200 ms
G1 X46.779 Y48.356 F275.787 ; 400 ms
G1 X45.799 Y47.866 F328.698 ; 200 ms
G1 X46.289 Y49.031 F379.269 ; 200 ms
G1 X44.981 Y48.541 F419.066 ; 200 ms
G1 X45.187 Y49.031 F159.463 ; 200 ms
G1 X44.569 Y48.377 F90.042 ; 600 ms
G1 X45.877 Y48.595 F397.864 ; 200 ms
G1 X44.569 Y48.389 F397.275 ; 200 ms
G1 X45.955 Y48.680 F424.862 ; 200 ms
G1 X45.664 Y47.294 F424.862 ; 200 ms
G1 X47.049 Y47.784 F440.995 ; 200 ms
G1 X46.559 Y46.398 F440.995 ; 200 ms
G1 X47.049 Y46.398 F146.999 ; 200 ms
G1 X46.176 Y45.418 F393.747 ; 200 ms
G1 X47.342 Y46.291 F436.851 ; 200 ms
G1 X45.956 Y44.983 F571.730 ; 200 ms
G1 X46.150 Y45.167 F80.218 ; 200 ms
G1 X45.956 Y44.875 F105.085 ; 200 ms
G1 X46.345 Y45.243 F80.218 ; 400 ms
G1 X45.956 Y42.131 F470.322 ; 400 ms
G1 X49.880 Y43.519 F416.244 ; 600 ms
G1 X49.418 Y42.741 F271.479 ; 200 ms
G1 X50.196 Y43.203 F271.479 ; 200 ms
G1 X48.346 Y41.648 F362.566 ; 400 ms
G1 X49.271 Y41.648 F277.495 ; 200 ms
G1 X49.125 Y40.092 F468.732 ; 200 ms
G1 X49.271 Y40.383 F97.722 ; 200 ms
G1 X48.979 Y37.272 F468.732 ; 400 ms
G1 X50.365 Y37.503 F421.522 ; 200 ms
G1 X48.979 Y37.358 F418.064 ; 200 ms
G1 X50.365 Y37.358 F415.774 ; 200 ms
G4 P7400 ; pause
=======
G0 X100.000 Y100.000 ; move to start position

G1 X101.308 Y101.100 F256.373 ; 400 ms
G1 X100.981 Y100.773 F277.496 ; 100 ms
G1 X102.082 Y101.754 F294.977 ; 300 ms
G1 X101.348 Y100.976 F320.873 ; 200 ms
G1 X102.172 Y101.754 F339.953 ; 200 ms
G1 X100.936 Y101.754 F247.221 ; 300 ms
G1 X100.936 Y102.845 F261.921 ; 250 ms
G1 X99.494 Y101.318 F360.168 ; 350 ms
G1 X100.112 Y101.901 F339.953 ; 150 ms
G1 X99.194 Y100.929 F320.873 ; 250 ms
G1 X100.112 Y101.746 F294.977 ; 250 ms
G1 X99.622 Y101.256 F277.496 ; 150 ms
G1 X101.584 Y102.906 F256.373 ; 600 ms
G1 X101.584 Y102.356 F165.000 ; 200 ms
G4 P300 ; pause
G1 X102.564 Y102.356 F293.996 ; 200 ms
G1 X102.319 Y102.009 F509.217 ; 50 ms
G1 X103.419 Y103.395 F530.818 ; 200 ms
G1 X103.144 Y103.086 F496.090 ; 50 ms
G1 X104.124 Y104.321 F472.905 ; 200 ms
G1 X102.654 Y102.671 F441.966 ; 300 ms
G1 X102.654 Y103.771 F330.000 ; 200 ms
>>>>>>> e3a820950c0322f46167a1ccd3d75ba8f9ff44f6

; End of music G-code