; Generated music G-code
; X axis = melody 1
; Y axis = melody 2

G21 ; use millimeters
G90 ; absolute positioning
G28 X Y ; home x and y
M73 P1 R9
M73 Q1 S9
G0 X100.000 Y100.000 F2000 ; move to start position

G1 X105.544 Y100.000 F831.548 ; 400 ms
G4 P600 ; pause
G1 X102.772 Y100.000 F831.548 ; 200 ms
G4 P400 ; pause
G1 X105.103 Y100.000 F699.246 ; 200 ms
G4 P7400 ; pause
G1 X101.610 Y100.000 F1047.685 ; 200 ms
G1 X102.777 Y101.101 F160.436 ; 600 ms
G1 X102.388 Y100.519 F210.170 ; 200 ms
G1 X102.777 Y100.519 F116.672 ; 200 ms
G4 P2000 ; pause
G1 X101.542 Y100.519 F370.412 ; 200 ms
G4 P800 ; pause
G1 X105.035 Y101.101 F1062.169 ; 200 ms
G1 X104.452 Y101.101 F174.811 ; 200 ms
G4 P600 ; pause
G1 X105.432 Y101.101 F293.996 ; 200 ms
G4 P200 ; pause
G1 X101.940 Y101.101 F1047.685 ; 200 ms
G1 X103.106 Y102.202 F160.436 ; 600 ms
G1 X102.717 Y101.620 F210.170 ; 200 ms
G1 X103.106 Y101.620 F116.672 ; 200 ms
G4 P3000 ; pause
G1 X102.524 Y101.620 F174.811 ; 200 ms
G4 P1400 ; pause
G1 X104.079 Y103.088 F160.436 ; 800 ms
G1 X103.301 Y103.088 F116.672 ; 400 ms
G1 X104.467 Y103.477 F368.577 ; 200 ms
G1 X103.301 Y103.477 F349.623 ; 200 ms
G4 P1000 ; pause
G1 X105.918 Y103.477 F784.876 ; 200 ms
G1 X104.752 Y102.894 F195.445 ; 400 ms
G1 X105.335 Y102.894 F174.811 ; 200 ms
G4 P600 ; pause
G1 X104.752 Y102.894 F174.811 ; 200 ms
G4 P1400 ; pause
G1 X105.530 Y104.060 F210.170 ; 400 ms
G1 X105.141 Y103.693 F160.436 ; 200 ms
G1 X105.919 Y103.693 F116.672 ; 400 ms
G4 P1800 ; pause
G1 X104.754 Y103.110 F195.445 ; 400 ms
G4 P800 ; pause
G1 X105.336 Y103.110 F174.811 ; 200 ms
G4 P800 ; pause
G1 X104.754 Y103.110 F174.811 ; 200 ms
G4 P400 ; pause
G1 X106.309 Y104.578 F160.436 ; 800 ms
G1 X105.531 Y104.578 F116.672 ; 400 ms
G4 P600 ; pause
G1 X106.114 Y104.578 F174.811 ; 200 ms
G4 P800 ; pause
G1 X105.531 Y104.287 F195.445 ; 200 ms
G1 X106.114 Y104.287 F174.811 ; 200 ms
G1 X103.498 Y104.287 F784.876 ; 200 ms
G4 P600 ; pause
G1 X104.081 Y104.287 F174.811 ; 200 ms
G4 P800 ; pause
G1 X103.498 Y104.287 F174.811 ; 200 ms
G4 P400 ; pause
G1 X104.017 Y104.287 F77.869 ; 400 ms
G4 P1800 ; pause
G1 X103.092 Y104.287 F277.495 ; 200 ms
G4 P400 ; pause
G1 X104.017 Y107.398 F973.758 ; 200 ms
G4 P800 ; pause
G1 X97.032 Y107.398 F1047.685 ; 400 ms
G4 P1400 ; pause
G1 X97.810 Y108.564 F210.170 ; 400 ms
G1 X97.032 Y108.564 F116.672 ; 400 ms
G4 P1400 ; pause
G1 X100.525 Y108.564 F1047.685 ; 200 ms
G4 P400 ; pause
G1 X99.359 Y107.981 F195.445 ; 400 ms
G4 P600 ; pause
G1 X102.852 Y107.981 F1047.685 ; 200 ms
G1 X102.269 Y107.981 F174.811 ; 200 ms
G4 P800 ; pause
G1 X102.852 Y107.981 F174.811 ; 200 ms
G4 P400 ; pause
G1 X102.074 Y106.815 F210.170 ; 400 ms
G1 X102.852 Y106.815 F116.672 ; 400 ms
G4 P1200 ; pause
G1 X97.308 Y106.815 F831.548 ; 400 ms
G4 P400 ; pause
G1 X98.473 Y107.398 F195.445 ; 400 ms
G4 P200 ; pause
G1 X91.489 Y107.398 F1047.685 ; 400 ms
G1 X92.654 Y107.398 F174.811 ; 400 ms
G4 P800 ; pause
G1 X92.072 Y107.398 F174.811 ; 200 ms
G1 X94.843 Y107.398 F831.548 ; 200 ms
G4 P200 ; pause
G1 X94.066 Y106.233 F210.170 ; 400 ms
G1 X94.843 Y106.233 F116.672 ; 400 ms
G4 P2000 ; pause
G1 X93.609 Y106.233 F370.412 ; 200 ms
G4 P200 ; pause
G1 X96.720 Y106.233 F933.381 ; 200 ms
G4 P400 ; pause
G1 X95.555 Y106.233 F174.811 ; 400 ms
G4 P1400 ; pause
G1 X96.721 Y107.334 F160.436 ; 600 ms
G1 X95.943 Y107.334 F116.672 ; 400 ms
G1 X101.176 Y107.334 F784.876 ; 400 ms
G4 P1400 ; pause
G1 X99.941 Y107.334 F370.412 ; 200 ms
G4 P800 ; pause
G1 X101.107 Y107.334 F174.811 ; 400 ms
G4 P1000 ; pause
G1 X98.335 Y107.334 F831.548 ; 200 ms
G4 P200 ; pause
G1 X101.827 Y107.723 F1054.161 ; 200 ms
G1 X101.438 Y107.140 F210.170 ; 200 ms
G1 X102.216 Y107.140 F116.672 ; 400 ms
G4 P2000 ; pause
G1 X101.392 Y107.140 F123.610 ; 400 ms
G4 P600 ; pause
G1 X104.164 Y107.723 F849.724 ; 200 ms
G1 X103.581 Y104.951 F849.724 ; 200 ms
G4 P1200 ; pause
G1 X103.970 Y104.951 F116.672 ; 200 ms
G1 X103.581 Y104.368 F210.170 ; 200 ms
G1 X103.970 Y104.735 F160.436 ; 200 ms
G1 X103.192 Y104.735 F116.672 ; 400 ms
G4 P200 ; pause
G1 X108.425 Y104.735 F784.876 ; 400 ms
G4 P1400 ; pause
G1 X108.133 Y104.153 F195.445 ; 200 ms
G4 P400 ; pause
G1 X110.905 Y104.153 F831.548 ; 200 ms
G4 P7800 ; pause

; End of music G-code