; Generated music G-code
; X axis = melody 1
; Y axis = melody 2

G21 ; use millimeters
G90 ; absolute positioning
G28 X Y ; home x and y
M73 P1 R9
M73 Q1 S9
G0 X100.000 Y100.000 F2000 ; move to start position

G4 P200 ; pause
G4 P200 ; pause
G4 P200 ; pause
G1 X101.038 Y100.980 F428.314 ; 200 ms
G4 P200 ; pause
G4 P200 ; pause
G1 X100.058 Y99.815 F456.804 ; 200 ms
G4 P200 ; pause
G4 P200 ; pause
G1 X101.038 Y100.305 F328.698 ; 200 ms
G1 X100.260 Y98.749 F521.776 ; 200 ms
G1 X101.038 Y99.787 F389.190 ; 200 ms
G1 X100.058 Y98.319 F529.596 ; 200 ms
G4 P200 ; pause
G4 P200 ; pause
G1 X100.712 Y99.627 F438.759 ; 200 ms
G1 X99.732 Y98.973 F353.463 ; 200 ms
G4 P200 ; pause
G1 X100.386 Y100.359 F459.750 ; 200 ms
G1 X99.406 Y99.705 F353.463 ; 200 ms
G1 X100.641 Y99.705 F370.412 ; 200 ms
G1 X99.661 Y99.215 F328.698 ; 200 ms
G1 X101.129 Y100.195 F529.596 ; 200 ms
G1 X100.149 Y99.705 F328.698 ; 200 ms
G1 X100.639 Y100.685 F328.698 ; 200 ms
G4 P200 ; pause
G1 X99.474 Y99.519 F494.442 ; 200 ms
G1 X100.639 Y100.499 F456.804 ; 200 ms
G4 P200 ; pause
G1 X99.474 Y99.191 F525.589 ; 200 ms
G1 X100.639 Y100.357 F494.442 ; 200 ms
G1 X99.659 Y99.867 F328.698 ; 200 ms
G1 X100.437 Y100.847 F375.345 ; 200 ms
G1 X99.820 Y100.069 F297.912 ; 200 ms
G1 X100.800 Y102.538 F797.029 ; 200 ms
G1 X99.492 Y101.760 F456.572 ; 200 ms
G1 X100.146 Y103.146 F459.750 ; 200 ms
G1 X99.492 Y101.838 F438.759 ; 200 ms
G4 P200 ; pause
G1 X100.146 Y103.224 F459.750 ; 200 ms
G1 X98.760 Y101.916 F571.730 ; 200 ms
G1 X99.995 Y102.896 F472.905 ; 200 ms
G1 X99.015 Y101.428 F529.596 ; 200 ms
G4 P200 ; pause
G1 X99.995 Y101.918 F328.698 ; 200 ms
G1 X99.377 Y101.140 F297.912 ; 200 ms
G1 X100.543 Y101.874 F413.214 ; 200 ms
G1 X99.377 Y101.096 F420.341 ; 200 ms
G1 X100.543 Y102.076 F456.804 ; 200 ms
G1 X99.765 Y100.768 F456.572 ; 200 ms
G1 X100.745 Y101.933 F456.804 ; 200 ms
G1 X99.765 Y100.895 F428.314 ; 200 ms
G1 X101.233 Y101.875 F529.596 ; 200 ms
G4 P200 ; pause
G1 X100.253 Y100.837 F428.314 ; 200 ms
G1 X101.722 Y101.817 F529.596 ; 200 ms
G1 X100.742 Y100.349 F529.596 ; 200 ms
G1 X102.210 Y101.387 F539.497 ; 200 ms
G1 X101.432 Y99.831 F521.776 ; 200 ms
G1 X102.412 Y100.321 F328.698 ; 200 ms
G1 X101.432 Y99.543 F375.345 ; 200 ms
G1 X102.412 Y99.543 F293.996 ; 200 ms
G1 X101.432 Y98.766 F375.345 ; 200 ms
G4 P200 ; pause
G1 X102.412 Y100.000 F472.905 ; 200 ms
G1 X100.944 Y99.020 F529.596 ; 200 ms
G1 X101.869 Y100.000 F404.274 ; 200 ms
G1 X101.091 Y99.075 F362.566 ; 200 ms
G1 X102.071 Y100.055 F415.773 ; 200 ms
G1 X101.198 Y98.309 F585.673 ; 200 ms
G1 X102.178 Y99.475 F456.804 ; 200 ms
G1 X101.198 Y98.495 F415.773 ; 200 ms
G1 X102.178 Y99.229 F367.346 ; 200 ms
G1 X101.198 Y98.451 F375.345 ; 200 ms
G1 X103.158 Y101.388 F529.596 ; 400 ms
G1 X101.923 Y100.079 F539.642 ; 200 ms
G1 X102.903 Y100.569 F328.698 ; 200 ms
G1 X101.595 Y99.792 F456.572 ; 200 ms
G1 X102.575 Y100.282 F328.698 ; 200 ms
G1 X101.797 Y99.664 F297.912 ; 200 ms
G1 X102.777 Y101.133 F529.596 ; 200 ms
G1 X101.797 Y100.643 F328.698 ; 200 ms
G4 P200 ; pause
G1 X102.777 Y101.877 F472.905 ; 200 ms
G1 X101.797 Y101.099 F375.345 ; 200 ms
G1 X102.722 Y102.079 F404.274 ; 200 ms
G1 X101.944 Y100.914 F420.341 ; 200 ms
G4 P200 ; pause
G1 X102.817 Y101.787 F370.412 ; 200 ms
G1 X101.837 Y100.622 F456.804 ; 200 ms
G1 X102.817 Y101.602 F415.773 ; 200 ms
G1 X102.083 Y100.367 F430.946 ; 200 ms
G1 X103.063 Y100.367 F293.996 ; 200 ms
G1 X102.083 Y99.329 F428.314 ; 200 ms
G1 X102.701 Y100.063 F287.769 ; 200 ms
G1 X101.392 Y98.755 F554.991 ; 200 ms
G1 X103.352 Y101.527 F509.217 ; 400 ms
G1 X102.044 Y100.218 F554.991 ; 200 ms

; End of music G-code