; Generated music G-code
; X axis = melody 1
; Y axis = melody 2

G21 ; use millimeters
G90 ; absolute positioning
G0 X100.000 Y100.000 ; move to start position

G1 X101.308 Y101.100 F256.373 ; 400 ms
G1 X100.981 Y100.773 F277.496 ; 100 ms
G1 X102.082 Y101.754 F294.977 ; 300 ms
G1 X101.348 Y100.976 F320.873 ; 200 ms
G1 X102.172 Y101.754 F339.953 ; 200 ms
G1 X100.936 Y101.754 F247.221 ; 300 ms
G1 X100.936 Y102.845 F261.921 ; 250 ms
G1 X99.494 Y101.318 F360.168 ; 350 ms
G1 X100.112 Y101.901 F339.953 ; 150 ms
G1 X99.194 Y100.929 F320.873 ; 250 ms
G1 X100.112 Y101.746 F294.977 ; 250 ms
G1 X99.622 Y101.256 F277.496 ; 150 ms
G1 X101.584 Y102.906 F256.373 ; 600 ms
G1 X101.584 Y102.356 F165.000 ; 200 ms
G4 P300 ; pause
G1 X102.564 Y102.356 F293.996 ; 200 ms
G1 X102.319 Y102.009 F509.217 ; 50 ms
G1 X103.419 Y103.395 F530.818 ; 200 ms
G1 X103.144 Y103.086 F496.090 ; 50 ms
G1 X104.124 Y104.321 F472.905 ; 200 ms
G1 X102.654 Y102.671 F441.966 ; 300 ms
G1 X102.654 Y103.771 F330.000 ; 200 ms

; End of music G-code