; Generated music G-code
; X axis = melody 1
; Y axis = melody 2

G21 ; use millimeters
G90 ; absolute positioning
G28 X Y ; home x and y
M73 P1 R9
M73 Q1 S9
G0 X100.000 Y100.000 F2000 ; move to start position

G4 P5200 ; pause
G1 X100.925 Y101.850 F620.499 ; 200 ms
G1 X100.000 Y100.382 F520.617 ; 200 ms
G1 X100.925 Y101.547 F446.363 ; 200 ms
G4 P1000 ; pause
G1 X100.000 Y101.547 F277.495 ; 200 ms
G4 P200 ; pause
G1 X101.165 Y103.293 F629.799 ; 200 ms
G4 P400 ; pause
G1 X100.000 Y103.293 F349.623 ; 200 ms
G1 X101.746 Y103.293 F523.842 ; 200 ms
G4 P600 ; pause
G1 X100.581 Y103.293 F349.623 ; 200 ms
G4 P200 ; pause
G1 X101.454 Y104.459 F436.851 ; 200 ms
G1 X100.529 Y103.293 F446.363 ; 200 ms
G1 X101.694 Y104.218 F446.363 ; 200 ms
G1 X100.769 Y104.218 F277.495 ; 200 ms
G4 P2000 ; pause
G1 X101.547 Y104.872 F304.880 ; 200 ms
G1 X99.899 Y103.707 F605.565 ; 200 ms
G1 X100.553 Y104.872 F400.922 ; 200 ms
G4 P1600 ; pause
G1 X99.628 Y103.022 F620.499 ; 200 ms
G1 X100.553 Y103.022 F277.495 ; 200 ms
G4 P1200 ; pause
G1 X98.703 Y102.097 F620.499 ; 200 ms
G1 X100.171 Y102.097 F440.497 ; 200 ms
G1 X98.523 Y102.097 F494.441 ; 200 ms
G1 X100.373 Y102.097 F554.992 ; 200 ms
G1 X99.448 Y100.629 F520.617 ; 200 ms
G1 X100.373 Y102.479 F620.499 ; 200 ms
G1 X99.208 Y101.862 F395.648 ; 200 ms
G1 X100.373 Y101.862 F349.623 ; 200 ms
G1 X97.598 Y96.312 F620.499 ; 600 ms
G1 X98.764 Y97.237 F446.363 ; 200 ms
G1 X95.989 Y91.687 F620.499 ; 600 ms
G1 X97.839 Y94.018 F446.363 ; 400 ms
G1 X96.093 Y93.093 F592.802 ; 200 ms
G1 X97.942 Y95.423 F446.363 ; 400 ms
G4 P800 ; pause

; End of music G-code