; Generated music G-code
; X axis = melody 1
; Y axis = melody 2

G21 ; use millimeters
G90 ; absolute positioning
G28 X Y ; home x and y
M73 P1 R9
M73 Q1 S9
G0 X100.000 Y100.000 F2000 ; move to start position

G4 P5000 ; pause
G1 X127.938 Y127.938 F11853.201 ; 200 ms
G1 X126.383 Y72.062 F8384.726 ; 400 ms
G1 X127.938 Y72.062 F233.345 ; 400 ms
G1 X124.049 Y-67.630 F8384.726 ; 1000 ms
G1 X124.827 Y-67.630 F233.345 ; 200 ms
G1 X123.271 Y-123.506 F8384.726 ; 400 ms
G1 X124.049 Y-123.506 F233.345 ; 200 ms
G1 X122.494 Y-179.383 F8384.726 ; 400 ms
G1 X123.271 Y-179.383 F233.345 ; 200 ms
G1 X121.716 Y-235.259 F8384.726 ; 400 ms
G1 X122.494 Y-235.259 F233.345 ; 200 ms
G1 X121.716 Y-263.197 F8384.726 ; 200 ms
G1 X122.494 Y-233.598 F8882.931 ; 200 ms
G1 X121.716 Y-234.332 F320.873 ; 200 ms
G1 X123.271 Y-234.332 F233.345 ; 400 ms
G1 X122.494 Y-262.270 F8384.726 ; 200 ms
G1 X127.160 Y-262.270 F233.345 ; 1200 ms
G1 X126.383 Y-290.209 F8384.726 ; 200 ms
G1 X127.160 Y-290.209 F233.345 ; 200 ms
G1 X126.383 Y-290.791 F291.563 ; 200 ms
G1 X126.965 Y-290.013 F291.563 ; 200 ms
G1 X126.311 Y-290.791 F304.880 ; 200 ms
G1 X130.200 Y-287.878 F291.563 ; 1000 ms
G1 X129.327 Y-288.656 F350.789 ; 200 ms
G1 X131.177 Y-287.731 F310.249 ; 400 ms
G1 X130.715 Y-288.656 F310.249 ; 200 ms
G1 X132.565 Y-287.731 F310.249 ; 400 ms
G1 X131.526 Y-288.193 F340.984 ; 200 ms
G1 X134.146 Y-286.883 F292.837 ; 600 ms
G1 X133.709 Y-287.757 F292.837 ; 200 ms
G1 X134.487 Y-287.757 F233.345 ; 200 ms
G1 X133.833 Y-288.534 F304.880 ; 200 ms
G1 X136.166 Y-286.786 F291.563 ; 600 ms
G1 X135.584 Y-287.564 F291.563 ; 200 ms
G1 X136.166 Y-287.197 F206.607 ; 200 ms
G1 X135.584 Y-287.851 F262.795 ; 200 ms
G1 X137.139 Y-286.926 F271.479 ; 400 ms
G1 X136.361 Y-314.864 F8384.726 ; 200 ms
G1 X137.917 Y-313.939 F271.479 ; 400 ms
G1 X137.044 Y-314.717 F350.789 ; 200 ms
G1 X137.969 Y-314.255 F310.249 ; 200 ms
G1 X137.044 Y-342.193 F8386.071 ; 200 ms
G1 X137.969 Y-341.730 F310.249 ; 200 ms
G1 X137.044 Y-369.669 F8386.071 ; 200 ms
G1 X137.969 Y-369.206 F310.249 ; 200 ms
G1 X136.931 Y-369.533 F326.565 ; 200 ms
G1 X137.804 Y-369.043 F300.352 ; 200 ms
G1 X137.314 Y-369.916 F300.352 ; 200 ms
G1 X138.187 Y-341.978 F8385.570 ; 200 ms
G1 X137.750 Y-342.851 F292.837 ; 200 ms
G1 X138.528 Y-342.851 F233.345 ; 200 ms
G1 X137.750 Y-343.505 F304.880 ; 200 ms
G1 X139.306 Y-342.340 F291.563 ; 400 ms
G1 X138.723 Y-343.118 F291.563 ; 200 ms
G1 X139.306 Y-315.179 F8383.301 ; 200 ms
G1 X138.723 Y-315.179 F174.811 ; 200 ms
G1 X139.306 Y-287.241 F8383.301 ; 200 ms
G1 X135.417 Y-290.155 F291.563 ; 1000 ms
G1 X136.342 Y-289.572 F327.968 ; 200 ms
G1 X135.304 Y-290.350 F389.190 ; 200 ms
G1 X136.342 Y-262.411 F8387.264 ; 200 ms
G1 X135.304 Y-262.874 F340.984 ; 200 ms
G1 X135.766 Y-261.836 F340.984 ; 200 ms
G1 X134.728 Y-262.298 F340.984 ; 200 ms
G1 X135.190 Y-234.360 F8382.627 ; 200 ms
G4 P200 ; pause
G1 X107.252 Y-262.298 F11853.201 ; 200 ms
G1 X135.190 Y-262.298 F8381.479 ; 200 ms
G1 X107.252 Y-290.236 F11853.201 ; 200 ms
G1 X107.619 Y-262.298 F8382.202 ; 200 ms
G1 X106.581 Y-262.788 F344.424 ; 200 ms
G1 X107.164 Y-262.421 F206.607 ; 200 ms
G1 X105.608 Y-263.586 F291.563 ; 400 ms
G1 X106.191 Y-262.809 F291.563 ; 200 ms
G1 X105.413 Y-263.391 F291.563 ; 200 ms
G1 X106.286 Y-262.809 F314.899 ; 200 ms
G1 X105.361 Y-263.271 F310.249 ; 200 ms
G1 X105.823 Y-262.346 F310.249 ; 200 ms
G1 X103.973 Y-263.271 F310.249 ; 400 ms
G1 X106.050 Y-262.346 F340.984 ; 400 ms
G1 X105.467 Y-262.713 F206.607 ; 200 ms
G1 X107.023 Y-261.548 F291.563 ; 400 ms
G1 X106.440 Y-262.326 F291.563 ; 200 ms
G1 X107.218 Y-261.743 F291.563 ; 200 ms
G1 X106.293 Y-262.326 F327.968 ; 200 ms
G1 X108.912 Y-261.016 F292.837 ; 600 ms
G1 X108.476 Y-261.889 F292.837 ; 200 ms
G1 X109.401 Y-261.427 F310.249 ; 200 ms
G1 X108.623 Y-261.427 F233.345 ; 200 ms
G1 X110.369 Y-260.554 F292.837 ; 400 ms
G1 X109.933 Y-261.427 F292.837 ; 200 ms
G1 X110.224 Y-260.990 F157.450 ; 200 ms
G1 X109.641 Y-261.281 F195.445 ; 200 ms
G1 X137.579 Y-233.343 F11853.201 ; 200 ms
G1 X136.997 Y-234.121 F291.563 ; 200 ms
G1 X164.935 Y-206.183 F11853.201 ; 200 ms
G1 X163.770 Y-207.738 F291.563 ; 400 ms
G1 X164.547 Y-207.156 F291.563 ; 200 ms
G1 X164.057 Y-235.094 F8382.767 ; 200 ms
G1 X164.520 Y-234.169 F310.249 ; 200 ms
G1 X164.057 Y-263.768 F8880.949 ; 200 ms
G1 X164.520 Y-235.830 F8382.627 ; 200 ms
G1 X164.057 Y-265.430 F8880.949 ; 200 ms
G1 X164.520 Y-264.505 F310.249 ; 200 ms
G1 X164.057 Y-292.443 F8382.627 ; 200 ms
G1 X164.494 Y-264.505 F8382.502 ; 200 ms
G1 X163.621 Y-264.505 F130.960 ; 400 ms
G1 X164.057 Y-236.567 F8382.502 ; 200 ms
G1 X52.304 Y-348.320 F11853.201 ; 800 ms
G1 X54.052 Y-264.505 F8383.301 ; 600 ms
G1 X53.470 Y-294.104 F8881.586 ; 200 ms
G1 X53.932 Y-264.505 F8880.949 ; 200 ms
G1 X53.007 Y-266.060 F271.479 ; 400 ms
G1 X53.470 Y-238.122 F8382.627 ; 200 ms
G1 X52.692 Y-238.585 F271.479 ; 200 ms
G1 X53.617 Y-182.708 F8382.627 ; 400 ms
G4 P400 ; pause
G1 X25.679 Y-212.308 F12210.700 ; 200 ms
G1 X81.555 Y-156.431 F11853.201 ; 400 ms
G1 X81.065 Y-184.369 F8382.767 ; 200 ms
G1 X81.392 Y-154.770 F8880.407 ; 200 ms
G1 X80.902 Y-182.708 F8382.767 ; 200 ms
G1 X81.339 Y-182.218 F196.874 ; 200 ms
G1 X25.462 Y-238.095 F11853.201 ; 400 ms
G1 X26.045 Y-210.156 F8383.301 ; 200 ms
G1 X-29.832 Y-266.033 F11853.201 ; 400 ms
G1 X-28.083 Y-182.218 F8383.301 ; 600 ms
G1 X-28.861 Y-210.156 F8384.726 ; 200 ms
G1 X-0.923 Y-182.218 F11853.201 ; 200 ms
G1 X-1.506 Y-182.996 F291.563 ; 200 ms
G1 X0.242 Y-99.181 F8383.301 ; 600 ms
G1 X-27.696 Y-127.119 F11853.201 ; 200 ms
G1 X-26.308 Y-38.321 F8880.949 ; 600 ms
G1 X-26.771 Y-66.259 F8382.627 ; 200 ms
G1 X1.167 Y-65.797 F8382.627 ; 200 ms
G1 X-26.771 Y-93.735 F11853.201 ; 200 ms
G1 X2.829 Y-64.135 F12558.026 ; 200 ms
G1 X-53.048 Y-120.012 F11853.201 ; 400 ms
G1 X-52.270 Y-92.074 F8384.726 ; 200 ms
G1 X-80.208 Y-120.012 F11853.201 ; 200 ms
G1 X-79.626 Y-119.234 F291.563 ; 200 ms
G1 X-80.403 Y-119.817 F291.563 ; 200 ms
G1 X-79.821 Y-119.039 F291.563 ; 200 ms
G1 X-107.759 Y-146.977 F11853.201 ; 200 ms
G1 X-107.176 Y-119.039 F8383.301 ; 200 ms
G1 X-107.759 Y-148.638 F8881.586 ; 200 ms
G1 X-107.296 Y-120.700 F8382.627 ; 200 ms
G1 X-107.759 Y-150.300 F8880.949 ; 200 ms
G1 X-105.909 Y-38.547 F8382.627 ; 800 ms
G1 X-106.492 Y-66.485 F8383.301 ; 200 ms
G1 X-105.714 Y-65.902 F291.563 ; 200 ms
G1 X-106.297 Y-66.680 F291.563 ; 200 ms
G1 X-104.548 Y17.135 F8383.301 ; 600 ms
G1 X-104.985 Y-10.803 F8382.502 ; 200 ms
G1 X-104.548 Y-10.803 F130.960 ; 200 ms
G1 X-105.422 Y-66.680 F8382.502 ; 400 ms
G1 X-46.222 Y-10.803 F12210.700 ; 400 ms
G1 X-46.805 Y-38.742 F8383.301 ; 200 ms
G1 X-18.867 Y-10.803 F11853.201 ; 200 ms
G1 X-19.450 Y-38.742 F8383.301 ; 200 ms
G1 X-18.672 Y-10.803 F8384.726 ; 200 ms
G1 X-19.162 Y-10.803 F146.999 ; 200 ms
G1 X-18.672 Y18.796 F8881.082 ; 200 ms
G4 P200 ; pause
G1 X-20.142 Y18.796 F146.999 ; 600 ms
G1 X-19.679 Y18.796 F138.748 ; 200 ms
G1 X-20.142 Y-9.142 F8382.627 ; 200 ms
G1 X-19.705 Y18.796 F8382.502 ; 200 ms
G1 X-47.644 Y-9.142 F11853.201 ; 200 ms
G1 X-47.207 Y-9.142 F130.960 ; 200 ms
G1 X-48.080 Y-65.019 F8382.502 ; 400 ms
G1 X-47.644 Y-64.727 F157.450 ; 200 ms
G1 X-47.935 Y-65.310 F195.445 ; 200 ms
G1 X-47.644 Y-37.372 F8381.934 ; 200 ms
G1 X-47.935 Y-37.372 F87.406 ; 200 ms
G1 X-19.997 Y-37.372 F8381.479 ; 200 ms
G1 X-20.433 Y-65.310 F8382.502 ; 200 ms
G1 X-19.997 Y-35.711 F8880.831 ; 200 ms
G1 X-75.873 Y-94.910 F12210.700 ; 400 ms
G1 X-47.935 Y-66.971 F11853.201 ; 200 ms
G4 P400 ; pause
G1 X-48.713 Y-66.971 F233.345 ; 200 ms
G1 X7.164 Y-11.095 F11853.201 ; 400 ms
G1 X-20.774 Y-40.694 F12210.700 ; 200 ms
G1 X63.040 Y43.120 F11853.201 ; 600 ms
G1 X62.604 Y42.247 F292.837 ; 200 ms
G1 X64.350 Y43.120 F292.837 ; 400 ms
G1 X63.572 Y43.120 F233.345 ; 200 ms
G1 X64.350 Y71.059 F8384.726 ; 200 ms
G1 X63.572 Y70.622 F267.583 ; 200 ms
G1 X68.197 Y210.313 F8386.071 ; 1000 ms
G1 X67.159 Y209.877 F337.890 ; 200 ms
G1 X74.151 Y545.136 F8383.301 ; 2400 ms
G1 X73.113 Y544.646 F344.424 ; 200 ms
G1 X73.603 Y545.684 F344.424 ; 200 ms
G1 X72.565 Y545.194 F344.424 ; 200 ms
G1 X73.055 Y546.233 F344.424 ; 200 ms
G1 X72.016 Y545.743 F344.424 ; 200 ms
G1 X72.506 Y546.781 F344.424 ; 200 ms
G1 X71.468 Y546.318 F340.984 ; 200 ms
G1 X99.406 Y574.257 F11853.201 ; 200 ms
G1 X98.944 Y544.657 F8880.949 ; 200 ms
G1 X100.331 Y628.472 F8382.627 ; 600 ms
G1 X99.749 Y628.472 F174.811 ; 200 ms
G1 X102.662 Y768.163 F8383.301 ; 1000 ms
G1 X101.497 Y708.964 F8881.586 ; 400 ms
G1 X102.662 Y764.841 F8383.301 ; 400 ms
G1 X102.080 Y735.241 F8881.586 ; 200 ms
G1 X102.662 Y735.241 F174.811 ; 200 ms
G1 X101.624 Y734.804 F337.890 ; 200 ms
G1 X102.662 Y762.743 F8387.264 ; 200 ms
G1 X100.812 Y761.870 F306.846 ; 400 ms
G1 X101.685 Y762.306 F292.837 ; 200 ms
G1 X101.249 Y761.433 F292.837 ; 200 ms
G1 X103.582 Y763.181 F291.563 ; 600 ms
G1 X103.000 Y762.403 F291.563 ; 200 ms
G1 X103.777 Y762.986 F291.563 ; 200 ms
G1 X102.904 Y762.403 F314.899 ; 200 ms
G1 X105.679 Y764.152 F327.968 ; 600 ms
G1 X105.097 Y736.213 F8383.301 ; 200 ms
G1 X106.135 Y764.152 F8387.264 ; 200 ms
G1 X105.552 Y736.213 F8383.301 ; 200 ms
G1 X106.590 Y736.703 F344.424 ; 200 ms
G1 X106.100 Y735.665 F344.424 ; 200 ms
G1 X107.025 Y736.155 F314.026 ; 200 ms
G1 X106.100 Y708.217 F8386.071 ; 200 ms
G1 X107.847 Y710.067 F381.584 ; 400 ms
G1 X107.384 Y709.142 F310.249 ; 200 ms
G1 X108.309 Y709.604 F310.249 ; 200 ms
G1 X107.271 Y709.142 F340.984 ; 200 ms
G1 X107.733 Y710.180 F340.984 ; 200 ms
G1 X106.808 Y654.303 F8382.627 ; 400 ms
G1 X107.847 Y654.793 F344.424 ; 200 ms
G1 X107.357 Y626.855 F8382.767 ; 200 ms
G1 X107.847 Y626.855 F146.999 ; 200 ms
G1 X79.908 Y598.917 F11853.201 ; 200 ms
G1 X80.833 Y599.407 F314.026 ; 200 ms
G1 X79.795 Y598.917 F344.424 ; 200 ms
G1 X80.258 Y626.855 F8382.627 ; 200 ms
G1 X52.319 Y598.917 F11853.201 ; 200 ms
G1 X52.782 Y628.517 F8880.949 ; 200 ms
G1 X52.319 Y600.578 F8382.627 ; 200 ms
G1 X53.358 Y601.041 F340.984 ; 200 ms
G1 X52.433 Y600.578 F310.249 ; 200 ms
G1 X53.306 Y601.015 F292.837 ; 200 ms
G1 X52.869 Y600.142 F292.837 ; 200 ms
G1 X53.794 Y628.080 F8386.071 ; 200 ms
G1 X52.869 Y627.643 F306.846 ; 200 ms
G1 X53.742 Y628.080 F292.837 ; 200 ms
G1 X53.306 Y627.207 F292.837 ; 200 ms
G1 X55.639 Y628.955 F291.563 ; 600 ms
G1 X55.056 Y628.177 F291.563 ; 200 ms
G1 X55.929 Y628.760 F314.899 ; 200 ms
G1 X52.818 Y626.429 F291.563 ; 800 ms
G1 X53.401 Y654.367 F8383.301 ; 200 ms
G1 X52.623 Y653.785 F291.563 ; 200 ms
G1 X53.788 Y655.340 F291.563 ; 400 ms
G1 X-2.088 Y599.464 F11853.201 ; 400 ms
G1 X-0.923 Y655.340 F8383.301 ; 400 ms
G1 X-1.505 Y655.340 F174.811 ; 200 ms
G1 X-1.015 Y656.379 F344.424 ; 200 ms
G1 X-1.995 Y600.502 F8382.767 ; 400 ms
G1 X25.943 Y628.440 F11853.201 ; 200 ms
G1 X24.963 Y572.564 F8382.767 ; 400 ms
G1 X52.901 Y600.502 F11853.201 ; 200 ms
G1 X52.439 Y600.502 F138.748 ; 200 ms
G1 X52.901 Y628.440 F8382.627 ; 200 ms
G1 X52.439 Y628.440 F138.748 ; 200 ms
G1 X53.364 Y630.290 F310.249 ; 400 ms
G1 X52.901 Y629.512 F271.479 ; 200 ms
G1 X53.679 Y629.975 F271.479 ; 200 ms
G1 X53.216 Y629.197 F271.479 ; 200 ms
G1 X81.155 Y629.660 F8382.627 ; 200 ms
G1 X80.377 Y629.197 F271.479 ; 200 ms
G1 X80.839 Y657.135 F8382.627 ; 200 ms
G1 X80.257 Y629.197 F8383.301 ; 200 ms
G1 X80.839 Y658.797 F8881.586 ; 200 ms
G1 X80.257 Y658.797 F174.811 ; 200 ms
G1 X82.005 Y742.611 F8383.301 ; 600 ms
G1 X26.128 Y686.735 F11853.201 ; 400 ms
G1 X28.462 Y770.550 F8384.726 ; 600 ms
G1 X0.524 Y742.611 F11853.201 ; 200 ms
G1 X30.123 Y772.211 F12558.026 ; 200 ms
G1 X2.185 Y771.774 F8382.502 ; 200 ms
G1 X3.931 Y883.528 F8382.502 ; 800 ms
G1 X3.494 Y853.928 F8880.831 ; 200 ms
G1 X31.433 Y881.866 F11853.201 ; 200 ms
G1 X30.123 Y798.051 F8382.502 ; 600 ms
G1 X30.560 Y798.744 F245.699 ; 200 ms
G1 X27.646 Y659.053 F8383.301 ; 1000 ms
G1 X28.229 Y688.653 F8881.586 ; 200 ms
G1 X-1.371 Y660.714 F12210.700 ; 200 ms
G1 X26.567 Y688.653 F11853.201 ; 200 ms
G4 P600 ; pause
G1 X-29.309 Y632.776 F11853.201 ; 400 ms
G1 X-28.384 Y688.653 F8382.627 ; 400 ms
G1 X-84.261 Y632.776 F11853.201 ; 400 ms
G1 X-83.798 Y660.714 F8382.627 ; 200 ms
G1 X-84.288 Y632.776 F8382.767 ; 200 ms
G1 X-83.798 Y632.776 F146.999 ; 200 ms
G1 X-84.288 Y604.838 F8382.767 ; 200 ms
G1 X-56.350 Y632.776 F11853.201 ; 200 ms
G1 X-57.820 Y548.961 F8382.767 ; 600 ms
G1 X81.871 Y688.653 F11853.201 ; 1000 ms
G1 X81.435 Y660.714 F8382.502 ; 200 ms
G1 X109.373 Y688.653 F11853.201 ; 200 ms
G1 X108.500 Y688.653 F130.960 ; 400 ms
G1 X108.937 Y718.252 F8880.831 ; 200 ms
G1 X108.064 Y662.376 F8382.502 ; 400 ms
G1 X136.002 Y690.314 F11853.201 ; 200 ms
G1 X135.565 Y690.314 F130.960 ; 200 ms
G1 X136.875 Y774.129 F8382.502 ; 600 ms
G1 X135.127 Y771.795 F291.563 ; 600 ms
G1 X135.905 Y772.378 F291.563 ; 200 ms
G1 X132.991 Y632.687 F8383.301 ; 1000 ms
G1 X133.769 Y633.269 F291.563 ; 200 ms
G1 X133.186 Y605.331 F8383.301 ; 200 ms
G1 X133.769 Y634.931 F8881.586 ; 200 ms
G1 X105.831 Y606.992 F11853.201 ; 200 ms
G1 X106.293 Y606.992 F138.748 ; 200 ms
G1 X76.694 Y579.054 F12210.700 ; 200 ms
G1 X77.311 Y608.654 F8881.796 ; 200 ms
G1 X76.848 Y579.054 F8880.949 ; 200 ms
G1 X77.311 Y579.671 F231.414 ; 200 ms
G1 X74.536 Y412.042 F8382.627 ; 1200 ms
G1 X74.863 Y439.980 F8382.053 ; 200 ms
G1 X73.883 Y384.104 F8382.767 ; 400 ms
G1 X74.373 Y384.104 F146.999 ; 200 ms
G1 X46.435 Y356.165 F11853.201 ; 200 ms
G1 X46.925 Y385.765 F8881.082 ; 200 ms
G1 X46.435 Y357.827 F8382.767 ; 200 ms
G1 X74.373 Y385.765 F11853.201 ; 200 ms
G4 P200 ; pause
G1 X46.435 Y385.765 F8381.479 ; 200 ms
G1 X74.373 Y415.364 F12210.700 ; 200 ms
G1 X44.774 Y385.765 F12558.026 ; 200 ms
G1 X45.210 Y413.703 F8382.502 ; 200 ms
G1 X43.027 Y413.703 F130.960 ; 1000 ms
G1 X72.627 Y441.641 F12210.700 ; 200 ms
G1 X72.190 Y413.703 F8382.502 ; 200 ms
G1 X72.627 Y413.703 F130.960 ; 200 ms
G1 X71.317 Y329.888 F8382.502 ; 600 ms
G1 X71.900 Y330.666 F291.563 ; 200 ms
G1 X16.024 Y274.790 F11853.201 ; 400 ms
G1 X16.606 Y304.389 F8881.586 ; 200 ms
G1 X16.024 Y276.451 F8383.301 ; 200 ms
G1 X16.606 Y277.229 F291.563 ; 200 ms
G1 X13.495 Y274.898 F291.563 ; 800 ms
G1 X69.371 Y330.775 F11853.201 ; 400 ms
G4 P4800 ; pause

; End of music G-code