; Generated music G-code
; X axis = melody 1
; Y axis = melody 2

G21 ; use millimeters
G90 ; absolute positioning
G28 X Y ; home x and y
M73 P1 R9
M73 Q1 S9
G0 X100.000 Y100.000 F2000 ; move to start position

G1 X100.583 Y100.583 F247.221 ; 200 ms
G1 X100.000 Y100.583 F174.811 ; 200 ms
G1 X100.583 Y101.237 F262.795 ; 200 ms
G1 X99.929 Y100.654 F262.795 ; 200 ms
G1 X100.511 Y101.308 F262.795 ; 200 ms
G1 X99.638 Y100.725 F314.899 ; 200 ms
G1 X100.221 Y101.598 F314.899 ; 200 ms
G1 X99.056 Y101.016 F390.890 ; 200 ms
G1 X99.638 Y102.181 F390.890 ; 200 ms
G1 X98.330 Y101.631 F425.714 ; 200 ms
G1 X99.638 Y102.504 F471.816 ; 200 ms
G1 X98.765 Y102.504 F261.921 ; 200 ms
G1 X99.638 Y103.158 F327.269 ; 200 ms
G1 X98.984 Y103.158 F196.220 ; 200 ms
G1 X99.638 Y103.708 F256.373 ; 200 ms
G1 X98.330 Y103.708 F392.438 ; 200 ms
G1 X99.638 Y104.198 F419.066 ; 200 ms
G1 X99.148 Y102.812 F440.995 ; 200 ms
G1 X99.638 Y104.198 F440.995 ; 200 ms
G1 X98.765 Y103.708 F300.352 ; 200 ms
G1 X99.638 Y104.198 F300.352 ; 200 ms
G1 X98.984 Y103.708 F245.175 ; 200 ms
G1 X99.474 Y104.362 F245.175 ; 200 ms
G1 X98.088 Y103.872 F440.995 ; 200 ms
G1 X98.551 Y104.362 F202.137 ; 200 ms
G1 X97.571 Y103.872 F328.698 ; 200 ms
G1 X98.551 Y104.362 F328.698 ; 200 ms
G1 X97.773 Y103.872 F275.787 ; 200 ms
G1 X98.551 Y104.362 F275.787 ; 200 ms
G1 X97.968 Y103.872 F228.402 ; 200 ms
G1 X98.551 Y104.362 F228.402 ; 200 ms
G1 X97.571 Y103.872 F328.698 ; 200 ms
G1 X98.551 Y104.362 F328.698 ; 200 ms
G1 X98.088 Y103.489 F296.401 ; 200 ms
G1 X98.551 Y104.362 F296.401 ; 200 ms
G1 X98.088 Y103.708 F240.319 ; 200 ms
G1 X98.551 Y104.362 F240.319 ; 200 ms
G1 X97.968 Y103.900 F223.182 ; 200 ms
G1 X98.431 Y104.483 F223.182 ; 200 ms
G1 X97.968 Y103.829 F240.319 ; 200 ms
G1 X98.431 Y103.829 F138.748 ; 200 ms
G1 X97.968 Y103.829 F138.748 ; 200 ms
G1 X98.431 Y104.702 F296.401 ; 200 ms
G1 X97.558 Y104.239 F296.401 ; 200 ms
G1 X98.020 Y105.112 F296.401 ; 200 ms
G1 X97.558 Y104.458 F240.319 ; 200 ms
G1 X98.020 Y105.112 F240.319 ; 200 ms
G1 X97.437 Y104.650 F223.182 ; 200 ms
G1 X97.900 Y105.232 F223.182 ; 200 ms
G1 X97.410 Y104.905 F176.732 ; 200 ms
G1 X97.900 Y105.488 F228.402 ; 200 ms
G1 X97.317 Y105.197 F195.445 ; 200 ms
G1 X97.900 Y105.197 F174.811 ; 200 ms
G1 X97.317 Y105.197 F174.811 ; 200 ms
G1 X97.900 Y105.197 F174.811 ; 200 ms
G1 X97.317 Y105.197 F174.811 ; 200 ms
G1 X97.900 Y106.070 F314.899 ; 200 ms
G1 X97.317 Y106.070 F174.811 ; 200 ms
G1 X98.482 Y106.653 F195.445 ; 400 ms
G1 X97.900 Y105.779 F314.899 ; 200 ms
G1 X98.825 Y105.779 F138.748 ; 400 ms
G1 X98.388 Y104.471 F413.713 ; 200 ms
G1 X98.825 Y104.908 F185.206 ; 200 ms
G1 X97.079 Y104.908 F261.921 ; 400 ms
G1 X97.952 Y105.562 F327.269 ; 200 ms
G1 X97.079 Y105.562 F261.921 ; 200 ms
G1 X97.952 Y105.853 F276.120 ; 200 ms
G1 X95.332 Y104.105 F314.899 ; 600 ms
G1 X95.882 Y105.413 F425.714 ; 200 ms
G1 X95.009 Y104.863 F309.560 ; 200 ms
G1 X95.882 Y104.863 F261.921 ; 200 ms
G1 X95.009 Y104.313 F309.560 ; 200 ms
G1 X95.663 Y104.832 F250.513 ; 200 ms
G1 X95.009 Y104.282 F256.373 ; 200 ms
G1 X96.318 Y105.155 F471.816 ; 200 ms
G1 X95.444 Y103.847 F471.816 ; 200 ms
G1 X96.318 Y105.233 F491.396 ; 200 ms
G1 X94.932 Y104.360 F491.396 ; 200 ms
G1 X95.805 Y106.106 F585.673 ; 200 ms
G1 X94.932 Y105.616 F300.352 ; 200 ms
G1 X95.586 Y106.106 F245.175 ; 200 ms
G1 X95.096 Y104.720 F440.995 ; 200 ms
G1 X96.482 Y105.210 F440.995 ; 200 ms
G1 X95.096 Y104.748 F438.314 ; 200 ms
G1 X96.076 Y106.708 F328.698 ; 400 ms
G1 X95.298 Y105.542 F420.341 ; 200 ms
G1 X96.463 Y106.320 F420.341 ; 200 ms
G1 X95.881 Y105.830 F228.402 ; 200 ms
G1 X96.371 Y106.413 F228.402 ; 200 ms
G1 X95.391 Y104.453 F328.698 ; 400 ms
G1 X97.241 Y107.069 F240.319 ; 800 ms
G1 X96.658 Y106.607 F223.182 ; 200 ms
G1 X97.120 Y107.261 F240.319 ; 200 ms
G1 X96.466 Y106.798 F240.319 ; 200 ms
G1 X97.854 Y108.761 F240.319 ; 600 ms
G1 X96.981 Y108.298 F296.401 ; 200 ms
G1 X97.443 Y109.171 F296.401 ; 200 ms
G1 X96.518 Y107.863 F240.319 ; 400 ms
G1 X97.684 Y108.788 F223.182 ; 400 ms
G1 X97.194 Y108.788 F146.999 ; 200 ms
G1 X97.684 Y109.371 F228.402 ; 200 ms
G1 X95.353 Y109.371 F174.811 ; 800 ms
G1 X96.518 Y112.863 F552.240 ; 400 ms
G1 X94.187 Y112.863 F174.811 ; 800 ms
G1 X94.770 Y113.154 F195.445 ; 200 ms
G1 X94.479 Y112.827 F131.397 ; 200 ms
G1 X94.806 Y113.807 F309.934 ; 200 ms
G1 X94.479 Y113.461 F142.933 ; 200 ms
G1 X94.806 Y114.115 F219.380 ; 200 ms
G1 X94.479 Y113.652 F169.931 ; 200 ms
G1 X96.225 Y114.525 F292.837 ; 400 ms
G1 X95.735 Y114.198 F176.732 ; 200 ms
G1 X96.225 Y115.071 F300.352 ; 200 ms
G1 X95.352 Y115.071 F261.921 ; 200 ms
G1 X96.225 Y115.399 F279.693 ; 200 ms
G1 X95.245 Y114.621 F375.345 ; 200 ms
G1 X97.576 Y115.355 F366.556 ; 400 ms
G1 X96.798 Y114.988 F258.026 ; 200 ms
G1 X97.963 Y116.543 F291.563 ; 400 ms
G1 X96.983 Y115.766 F375.345 ; 200 ms
G1 X97.761 Y116.931 F420.341 ; 200 ms
G1 X96.836 Y115.081 F310.249 ; 400 ms
G1 X97.761 Y116.389 F240.319 ; 400 ms
G1 X97.178 Y115.224 F390.890 ; 200 ms

; End of music G-code