; Generated music G-code
; X axis = melody 1
; Y axis = melody 2

G21 ; use millimeters
G90 ; absolute positioning
G28 X Y ; home x and y
M73 P1 R9
M73 Q1 S9
G0 X100.000 Y100.000 F2000 ; move to start position

G1 X101.038 Y100.980 F428.314 ; 200 ms
G1 X100.058 Y99.942 F428.314 ; 200 ms
G1 X101.097 Y100.922 F428.314 ; 200 ms
G1 X100.058 Y99.942 F428.314 ; 200 ms
G1 X101.038 Y100.432 F328.698 ; 200 ms
G1 X100.000 Y99.452 F428.314 ; 200 ms
G1 X101.038 Y100.432 F428.314 ; 200 ms
G1 X100.260 Y99.608 F339.953 ; 200 ms
G1 X101.038 Y100.432 F339.953 ; 200 ms
G1 X99.873 Y99.654 F420.341 ; 200 ms
G1 X100.853 Y100.692 F428.314 ; 200 ms
G1 X99.815 Y99.712 F428.314 ; 200 ms
G1 X100.853 Y100.692 F428.314 ; 200 ms
G1 X100.075 Y99.868 F339.953 ; 200 ms
G1 X100.899 Y100.646 F339.953 ; 200 ms
G1 X99.734 Y99.481 F494.442 ; 200 ms
G1 X100.714 Y100.519 F428.314 ; 200 ms
G1 X99.675 Y99.539 F428.314 ; 200 ms
G1 X100.714 Y100.519 F428.314 ; 200 ms
G1 X99.734 Y99.481 F428.314 ; 200 ms
G1 X100.714 Y100.000 F332.699 ; 200 ms
G4 P200 ; pause
G1 X99.158 Y98.531 F641.746 ; 200 ms
G1 X100.714 Y100.000 F641.746 ; 200 ms
G1 X99.158 Y98.531 F641.746 ; 200 ms
G1 X100.714 Y100.000 F641.746 ; 200 ms
G1 X99.245 Y98.444 F641.746 ; 200 ms
G1 X100.714 Y100.000 F641.746 ; 200 ms
G1 X99.158 Y98.531 F641.746 ; 200 ms
G1 X100.714 Y100.000 F641.746 ; 200 ms
G1 X99.245 Y98.444 F641.746 ; 200 ms
G1 X102.542 Y100.000 F1093.475 ; 200 ms
G1 X100.893 Y96.703 F1105.604 ; 200 ms
G1 X102.059 Y97.938 F509.354 ; 200 ms
G1 X101.079 Y97.448 F328.698 ; 200 ms
G1 X102.059 Y98.428 F415.773 ; 200 ms
G1 X101.079 Y97.448 F415.773 ; 200 ms
G1 X101.857 Y98.272 F339.953 ; 200 ms
G1 X101.033 Y97.494 F339.953 ; 200 ms
G1 X102.198 Y98.660 F494.442 ; 200 ms
G1 X101.218 Y97.621 F428.314 ; 200 ms
G1 X102.256 Y98.601 F428.314 ; 200 ms
G1 X101.218 Y97.621 F428.314 ; 200 ms
G1 X102.198 Y98.660 F428.314 ; 200 ms
G1 X98.706 Y98.141 F1059.197 ; 200 ms
G4 P200 ; pause
G1 X100.782 Y99.121 F688.846 ; 200 ms
G1 X98.706 Y97.044 F880.994 ; 200 ms
G1 X100.782 Y99.121 F880.994 ; 200 ms
G1 X99.802 Y98.082 F428.314 ; 200 ms
G1 X100.841 Y99.062 F428.314 ; 200 ms
G1 X99.861 Y98.024 F428.314 ; 200 ms
G1 X101.937 Y99.004 F688.846 ; 200 ms
G1 X100.899 Y98.024 F428.314 ; 200 ms
G1 X101.879 Y99.062 F428.314 ; 200 ms
G1 X99.919 Y98.082 F657.396 ; 200 ms
G1 X101.879 Y99.062 F657.396 ; 200 ms
G1 X100.029 Y97.316 F763.169 ; 200 ms
G1 X101.677 Y98.872 F679.906 ; 200 ms
G1 X99.931 Y95.380 F1171.347 ; 200 ms
G4 P200 ; pause
G1 X100.624 Y96.114 F302.864 ; 200 ms
G1 X99.586 Y95.014 F453.783 ; 200 ms
G1 X100.320 Y96.052 F381.482 ; 200 ms
G1 X98.851 Y95.359 F487.088 ; 200 ms
G1 X101.788 Y96.093 F908.108 ; 200 ms
G1 X100.320 Y95.359 F492.491 ; 200 ms
G1 X101.706 Y96.667 F571.730 ; 200 ms
G1 X100.320 Y93.895 F929.699 ; 200 ms
G1 X101.628 Y96.365 F838.350 ; 200 ms
G1 X100.462 Y95.265 F480.766 ; 200 ms
G1 X101.628 Y96.499 F509.354 ; 200 ms
G4 P200 ; pause
G1 X100.850 Y96.499 F233.345 ; 200 ms
G1 X101.628 Y97.323 F339.953 ; 200 ms
G1 X100.462 Y96.546 F420.341 ; 200 ms
G1 X101.442 Y98.506 F657.396 ; 200 ms
G1 X100.462 Y97.526 F415.773 ; 200 ms
G1 X101.442 Y98.303 F375.345 ; 200 ms
G1 X99.887 Y96.344 F375.345 ; 400 ms
G1 X100.867 Y97.323 F415.773 ; 200 ms
G1 X98.536 Y94.854 F509.354 ; 400 ms
G1 X99.701 Y95.834 F456.804 ; 200 ms
G1 X98.721 Y94.796 F428.314 ; 200 ms
G1 X99.760 Y95.776 F428.314 ; 200 ms
G1 X98.594 Y94.541 F509.354 ; 200 ms
G1 X100.063 Y96.097 F641.746 ; 200 ms
G1 X98.507 Y95.117 F551.574 ; 200 ms
G1 X101.444 Y98.228 F641.746 ; 400 ms
G1 X98.332 Y95.291 F641.746 ; 400 ms
G1 X100.409 Y96.069 F665.226 ; 200 ms
G1 X98.332 Y94.904 F714.361 ; 200 ms
G1 X100.292 Y96.069 F684.085 ; 200 ms
G1 X97.352 Y92.954 F428.314 ; 600 ms
G1 X100.464 Y95.031 F1122.174 ; 200 ms
G1 X98.504 Y92.954 F428.314 ; 400 ms
G1 X100.464 Y93.934 F657.396 ; 200 ms
G1 X99.974 Y91.974 F606.090 ; 200 ms
G1 X103.466 Y95.467 F1481.650 ; 200 ms
G1 X101.818 Y93.911 F679.906 ; 200 ms
G1 X103.564 Y97.403 F1171.347 ; 200 ms
G1 X102.096 Y96.365 F539.497 ; 200 ms
G4 P200 ; pause
G1 X103.134 Y97.403 F440.497 ; 200 ms
G1 X101.748 Y96.669 F470.508 ; 200 ms
G1 X103.216 Y97.362 F487.088 ; 200 ms
G1 X102.523 Y96.669 F293.997 ; 200 ms
G1 X105.460 Y99.441 F605.728 ; 400 ms
G1 X104.074 Y98.133 F571.730 ; 200 ms
G1 X105.239 Y99.441 F525.589 ; 200 ms
G1 X104.074 Y97.110 F781.781 ; 200 ms
G1 X105.239 Y98.345 F509.354 ; 200 ms
G1 X104.415 Y97.179 F428.199 ; 200 ms
G4 P200 ; pause
G1 X105.193 Y98.004 F339.953 ; 200 ms
G1 X104.415 Y96.838 F420.341 ; 200 ms
G1 X105.395 Y98.798 F657.396 ; 200 ms
G1 X104.415 Y97.873 F404.274 ; 200 ms
G1 X105.193 Y99.039 F420.341 ; 200 ms
G1 X104.415 Y98.214 F339.953 ; 200 ms
G1 X105.193 Y99.194 F375.345 ; 200 ms
G1 X102.253 Y96.080 F428.314 ; 600 ms
G1 X104.587 Y98.552 F339.953 ; 600 ms
G1 X100.667 Y94.399 F428.314 ; 800 ms
G1 X101.705 Y95.379 F428.314 ; 200 ms
G1 X100.725 Y94.341 F428.314 ; 200 ms
G1 X101.705 Y94.831 F328.698 ; 200 ms
G4 P400 ; pause
G1 X100.667 Y93.851 F428.314 ; 200 ms
G4 P200 ; pause
G1 X101.647 Y94.889 F428.314 ; 200 ms
G1 X100.608 Y93.909 F428.314 ; 200 ms
G4 P200 ; pause
G1 X101.588 Y94.947 F428.314 ; 200 ms
G1 X101.038 Y93.967 F337.133 ; 200 ms
G1 X102.018 Y94.947 F415.773 ; 200 ms
G4 P200 ; pause
G1 X101.038 Y93.909 F428.314 ; 200 ms
G4 P400 ; pause
G1 X102.018 Y94.947 F428.314 ; 200 ms
G4 P200 ; pause
G1 X101.038 Y93.909 F428.314 ; 200 ms
G1 X102.077 Y94.889 F428.314 ; 200 ms
G4 P200 ; pause
G1 X101.097 Y93.851 F428.314 ; 200 ms
G1 X101.587 Y94.831 F328.698 ; 200 ms
G1 X100.607 Y93.851 F415.773 ; 200 ms
G4 P200 ; pause
G1 X109.427 Y103.195 F428.314 ; 1800 ms
G1 X107.093 Y100.723 F339.953 ; 600 ms
G1 X110.033 Y103.837 F428.314 ; 600 ms
G1 X107.700 Y101.365 F339.953 ; 600 ms
G1 X108.680 Y102.404 F428.314 ; 200 ms
G1 X107.641 Y101.424 F428.314 ; 200 ms
G1 X108.621 Y102.462 F428.314 ; 200 ms
G1 X107.583 Y101.482 F428.314 ; 200 ms
G1 X108.563 Y102.520 F428.314 ; 200 ms
G4 P200 ; pause
G1 X103.896 Y98.115 F641.746 ; 600 ms
G1 X106.833 Y101.226 F641.746 ; 400 ms
G1 X105.365 Y100.246 F529.596 ; 200 ms
G1 X106.920 Y101.715 F641.746 ; 200 ms
G1 X103.983 Y98.603 F641.746 ; 400 ms
G1 X104.761 Y101.900 F1016.041 ; 200 ms
G1 X103.113 Y98.603 F1105.604 ; 200 ms
G1 X104.279 Y100.159 F583.126 ; 200 ms
G1 X103.299 Y99.669 F328.698 ; 200 ms
G1 X105.259 Y101.629 F415.773 ; 400 ms
G1 X104.481 Y100.805 F339.953 ; 200 ms
G1 X105.305 Y101.583 F339.953 ; 200 ms
G1 X104.139 Y100.805 F420.341 ; 200 ms
G1 X105.119 Y101.843 F428.314 ; 200 ms
G1 X103.043 Y99.883 F428.314 ; 400 ms
G1 X105.003 Y101.960 F428.314 ; 400 ms
G4 P200 ; pause
G1 X104.023 Y99.883 F688.846 ; 200 ms
G1 X106.099 Y104.036 F1392.974 ; 200 ms
G1 X104.023 Y101.960 F880.994 ; 200 ms
G1 X105.003 Y102.998 F428.314 ; 200 ms
G1 X103.965 Y102.018 F428.314 ; 200 ms
G1 X104.945 Y103.056 F428.314 ; 200 ms
G1 X102.868 Y102.076 F688.846 ; 200 ms
G1 X104.945 Y103.115 F696.487 ; 200 ms
G1 X103.906 Y102.135 F428.314 ; 200 ms
G1 X105.866 Y103.115 F657.396 ; 200 ms
G1 X105.347 Y102.135 F332.699 ; 200 ms
G1 X107.197 Y103.881 F763.169 ; 200 ms
G1 X105.451 Y100.388 F1171.347 ; 200 ms
G1 X107.197 Y102.037 F720.335 ; 200 ms
G4 P200 ; pause
G1 X106.504 Y101.302 F302.864 ; 200 ms
G1 X107.542 Y102.402 F453.783 ; 200 ms
G1 X106.808 Y101.364 F381.482 ; 200 ms
G1 X108.277 Y102.057 F487.088 ; 200 ms
G1 X107.542 Y99.121 F908.108 ; 200 ms
G1 X109.011 Y99.855 F492.491 ; 200 ms
G1 X107.625 Y98.547 F571.730 ; 200 ms
G1 X109.011 Y101.318 F929.699 ; 200 ms
G1 X107.703 Y98.702 F877.519 ; 200 ms
G1 X108.868 Y99.937 F509.354 ; 200 ms
G1 X107.703 Y98.771 F494.442 ; 200 ms
G4 P200 ; pause
G1 X108.480 Y99.937 F420.341 ; 200 ms
G1 X107.703 Y99.113 F339.953 ; 200 ms
G1 X108.868 Y100.278 F494.442 ; 200 ms
G1 X107.888 Y98.318 F657.396 ; 200 ms
G1 X109.848 Y100.278 F415.773 ; 400 ms
G1 X109.070 Y99.298 F375.345 ; 200 ms
G1 X109.894 Y100.076 F339.953 ; 200 ms
G1 X108.914 Y98.116 F657.396 ; 200 ms
G1 X110.080 Y99.351 F509.354 ; 200 ms

; End of music G-code