; Generated music G-code
; X axis = melody 1
; Y axis = melody 2

G21 ; use millimeters
G90 ; absolute positioning
G28 X Y ; home x and y
M73 P1 R9
M73 Q1 S9
G0 X100.000 Y100.000 F2000 ; move to start position

G4 P200 ; pause
G4 P200 ; pause
G4 P200 ; pause
G4 P200 ; pause
G4 P200 ; pause
G4 P200 ; pause
G4 P200 ; pause
G4 P200 ; pause
G4 P200 ; pause
G4 P200 ; pause
G1 X100.734 Y100.778 F320.873 ; 200 ms
G1 X99.569 Y97.841 F947.833 ; 200 ms
G1 X101.769 Y98.575 F695.780 ; 200 ms
G1 X100.603 Y97.475 F480.766 ; 200 ms
G1 X101.528 Y98.348 F381.584 ; 200 ms
G1 X100.794 Y96.148 F695.780 ; 200 ms
G1 X101.572 Y96.883 F320.873 ; 200 ms
G1 X99.372 Y95.958 F715.964 ; 200 ms
G1 X101.449 Y96.651 F656.728 ; 200 ms
G1 X100.671 Y95.916 F320.873 ; 200 ms
G1 X102.871 Y97.993 F907.565 ; 200 ms
G1 X100.671 Y97.259 F695.780 ; 200 ms
G1 X101.651 Y98.083 F384.125 ; 200 ms
G1 X99.801 Y97.465 F585.079 ; 200 ms
G1 X101.651 Y98.445 F628.052 ; 200 ms
G1 X99.905 Y97.572 F585.673 ; 200 ms
G1 X100.559 Y99.319 F559.386 ; 200 ms
G1 X99.090 Y98.339 F529.596 ; 200 ms
G1 X100.070 Y100.669 F758.537 ; 200 ms
G1 X99.336 Y99.892 F320.873 ; 200 ms
G1 X100.070 Y100.669 F320.873 ; 200 ms
G1 X97.134 Y99.796 F919.105 ; 200 ms
G1 X99.334 Y100.530 F695.780 ; 200 ms
G1 X98.461 Y97.594 F919.105 ; 200 ms
G1 X99.238 Y98.328 F320.873 ; 200 ms
G1 X96.302 Y96.860 F984.982 ; 200 ms
G1 X97.036 Y97.785 F354.278 ; 200 ms
G1 X94.836 Y97.050 F695.780 ; 200 ms
G1 X96.912 Y99.250 F907.565 ; 200 ms
G1 X96.135 Y98.516 F320.873 ; 200 ms
G1 X98.095 Y99.496 F657.396 ; 200 ms
G1 X97.115 Y98.762 F367.346 ; 200 ms
G1 X99.075 Y99.742 F657.396 ; 200 ms
G1 X97.115 Y98.762 F657.396 ; 200 ms
G1 X97.605 Y99.742 F328.698 ; 200 ms
G1 X96.731 Y99.088 F327.269 ; 200 ms
G1 X97.897 Y101.419 F781.781 ; 200 ms
G1 X95.697 Y100.546 F710.072 ; 200 ms
G1 X96.677 Y102.506 F657.396 ; 200 ms
G1 X96.187 Y101.772 F264.798 ; 200 ms
G1 X97.112 Y102.645 F381.584 ; 200 ms
G1 X95.946 Y99.708 F947.833 ; 200 ms
G1 X98.146 Y100.442 F695.780 ; 200 ms
G1 X95.210 Y99.277 F947.833 ; 200 ms
G1 X97.410 Y100.011 F695.780 ; 200 ms
G1 X94.473 Y99.138 F919.105 ; 200 ms
G1 X95.207 Y101.338 F695.780 ; 200 ms
G1 X93.007 Y99.007 F961.533 ; 200 ms
G1 X95.207 Y99.741 F695.780 ; 200 ms
G1 X93.899 Y97.125 F877.519 ; 200 ms
G1 X94.723 Y99.741 F822.891 ; 200 ms
G1 X93.743 Y99.087 F353.463 ; 200 ms
G1 X94.723 Y101.703 F838.132 ; 200 ms
G1 X93.743 Y99.743 F657.396 ; 200 ms
G1 X95.489 Y100.668 F592.802 ; 200 ms
G1 X94.835 Y98.922 F559.386 ; 200 ms
G1 X96.304 Y100.668 F684.433 ; 200 ms
G1 X95.570 Y99.891 F320.873 ; 200 ms
G1 X105.447 Y100.871 F2977.848 ; 200 ms
G1 X101.042 Y96.466 F622.958 ; 600 ms
G1 X104.535 Y97.631 F552.240 ; 400 ms
G1 X102.458 Y96.758 F675.779 ; 200 ms
G1 X106.858 Y98.066 F688.551 ; 400 ms
G1 X101.625 Y95.735 F859.225 ; 400 ms
G1 X103.181 Y96.715 F551.574 ; 200 ms
G1 X102.403 Y93.604 F962.107 ; 200 ms
G1 X105.340 Y95.072 F984.982 ; 200 ms
G1 X104.467 Y94.034 F406.966 ; 200 ms
G1 X106.667 Y95.199 F746.884 ; 200 ms
G1 X104.921 Y94.545 F559.386 ; 200 ms
G1 X105.575 Y97.015 F766.371 ; 200 ms
G4 P200 ; pause
G1 X94.487 Y90.792 F3814.230 ; 200 ms
G1 X96.337 Y96.025 F1664.975 ; 200 ms
G1 X95.464 Y95.201 F360.168 ; 200 ms
G1 X96.933 Y97.401 F793.497 ; 200 ms
G1 X95.187 Y96.235 F629.799 ; 200 ms
G1 X96.655 Y98.435 F793.497 ; 200 ms
G1 X95.489 Y97.335 F480.766 ; 200 ms
G1 X96.314 Y98.208 F360.168 ; 200 ms
G1 X94.845 Y96.008 F793.497 ; 200 ms
G1 X96.591 Y97.174 F629.799 ; 200 ms
G1 X95.123 Y94.974 F793.497 ; 200 ms
G1 X96.288 Y97.174 F746.884 ; 200 ms
G1 X95.415 Y96.350 F360.168 ; 200 ms
G1 X96.884 Y98.550 F793.497 ; 200 ms
G1 X95.138 Y97.816 F568.260 ; 200 ms
G1 X96.523 Y98.689 F491.396 ; 200 ms
G1 X95.358 Y97.589 F480.766 ; 200 ms
G1 X97.104 Y98.323 F568.260 ; 200 ms
G1 X95.358 Y97.157 F629.799 ; 200 ms
G1 X96.826 Y98.626 F622.958 ; 200 ms
G1 X95.358 Y97.701 F520.617 ; 200 ms
G1 X96.523 Y98.801 F480.766 ; 200 ms
G1 X95.650 Y97.977 F360.168 ; 200 ms
G1 X97.119 Y99.142 F562.383 ; 200 ms
G1 X95.373 Y97.977 F629.799 ; 200 ms
G1 X96.841 Y100.177 F793.497 ; 200 ms
G1 X95.676 Y99.077 F480.766 ; 200 ms
G1 X96.549 Y99.901 F360.168 ; 200 ms
G1 X95.080 Y98.735 F562.383 ; 200 ms
G1 X95.814 Y100.481 F568.260 ; 200 ms
G1 X94.346 Y99.556 F520.617 ; 200 ms
G1 X95.512 Y100.656 F480.766 ; 200 ms
G1 X94.638 Y99.832 F360.168 ; 200 ms
G1 X96.107 Y100.998 F562.383 ; 200 ms
G1 X94.361 Y99.832 F629.799 ; 200 ms
G1 X95.829 Y102.032 F793.497 ; 200 ms
G1 X94.664 Y100.932 F480.766 ; 200 ms
G1 X98.583 Y102.488 F632.603 ; 400 ms
G1 X97.710 Y101.323 F436.851 ; 200 ms
G1 X98.690 Y102.631 F490.348 ; 200 ms
G1 X97.382 Y101.977 F438.759 ; 200 ms
G1 X98.255 Y102.850 F370.412 ; 200 ms
G1 X97.090 Y101.750 F480.766 ; 200 ms
G1 X98.836 Y102.915 F629.799 ; 200 ms
G1 X97.368 Y101.447 F622.958 ; 200 ms
G1 X98.533 Y102.547 F480.766 ; 200 ms
G1 X97.608 Y101.674 F381.584 ; 200 ms
G1 X98.708 Y103.874 F737.902 ; 200 ms
G1 X97.543 Y102.128 F629.799 ; 200 ms
G1 X99.011 Y103.053 F520.617 ; 200 ms
G1 X97.846 Y101.953 F480.766 ; 200 ms
G1 X98.771 Y102.878 F392.438 ; 200 ms
G1 X97.605 Y101.778 F480.766 ; 200 ms
G1 X99.351 Y103.246 F684.433 ; 200 ms
G1 X97.965 Y101.046 F780.043 ; 200 ms
G1 X99.712 Y102.211 F629.799 ; 200 ms
G1 X97.965 Y101.477 F568.260 ; 200 ms
G1 X99.131 Y103.223 F629.799 ; 200 ms
G1 X97.663 Y102.298 F520.617 ; 200 ms
G1 X99.131 Y103.767 F622.958 ; 200 ms
G1 X97.965 Y102.667 F480.766 ; 200 ms
G1 X99.131 Y103.249 F390.890 ; 200 ms
G1 X97.965 Y101.503 F629.799 ; 200 ms
G1 X98.583 Y102.738 F414.134 ; 200 ms
G1 X97.115 Y102.004 F492.491 ; 200 ms
G1 X98.349 Y103.312 F539.642 ; 200 ms
G1 X97.041 Y101.235 F736.263 ; 200 ms
G1 X99.241 Y102.215 F722.519 ; 200 ms
G1 X97.773 Y101.235 F529.596 ; 200 ms
G1 X99.241 Y102.704 F622.958 ; 200 ms
G1 X98.316 Y102.704 F277.495 ; 200 ms
G1 X99.050 Y103.481 F320.873 ; 200 ms
G1 X97.885 Y102.173 F525.589 ; 200 ms
G1 X99.353 Y103.408 F575.537 ; 200 ms
G1 X97.153 Y102.243 F746.884 ; 200 ms
G1 X98.899 Y103.408 F629.799 ; 200 ms
G1 X98.245 Y102.825 F262.795 ; 200 ms
G1 X99.284 Y103.864 F440.497 ; 200 ms
G1 X98.459 Y102.991 F360.168 ; 200 ms
G1 X99.928 Y104.737 F684.433 ; 200 ms
G1 X99.104 Y104.737 F247.221 ; 200 ms
G1 X100.338 Y105.471 F430.946 ; 200 ms
G1 X99.358 Y104.433 F428.314 ; 200 ms
G1 X100.827 Y105.358 F520.617 ; 200 ms
G1 X99.592 Y104.623 F430.946 ; 200 ms
G1 X100.978 Y105.496 F491.396 ; 200 ms
G1 X99.743 Y104.188 F539.642 ; 200 ms
G1 X101.212 Y105.061 F512.485 ; 200 ms
G1 X99.826 Y104.237 F483.721 ; 200 ms
G1 X101.060 Y104.972 F430.946 ; 200 ms
G1 X100.022 Y103.933 F440.497 ; 200 ms
G1 X101.257 Y104.711 F437.784 ; 200 ms
G1 X100.277 Y103.243 F529.596 ; 200 ms
G1 X101.745 Y104.168 F520.617 ; 200 ms
G1 X100.510 Y103.434 F430.946 ; 200 ms
G1 X101.896 Y104.902 F605.728 ; 200 ms
G1 X100.662 Y104.168 F430.946 ; 200 ms
G1 X102.130 Y105.093 F520.617 ; 200 ms
G1 X100.744 Y104.220 F491.396 ; 200 ms
G1 X102.212 Y105.454 F575.537 ; 200 ms
G1 X101.174 Y104.416 F440.497 ; 200 ms
G1 X102.409 Y105.194 F437.784 ; 200 ms
G1 X100.941 Y104.214 F529.596 ; 200 ms
G1 X102.409 Y105.087 F512.485 ; 200 ms
G1 X101.174 Y103.701 F556.842 ; 200 ms
G1 X101.998 Y104.574 F360.168 ; 200 ms
G1 X100.763 Y103.266 F539.642 ; 200 ms
G1 X102.232 Y104.734 F622.958 ; 200 ms
G1 X100.846 Y103.910 F483.721 ; 200 ms
G1 X102.081 Y105.379 F575.537 ; 200 ms
G1 X101.042 Y104.340 F440.497 ; 200 ms
G1 X102.511 Y105.575 F575.537 ; 200 ms
G1 X101.042 Y103.829 F684.433 ; 200 ms
G1 X102.428 Y105.477 F646.019 ; 200 ms
G1 X100.960 Y104.242 F575.537 ; 200 ms
G1 X103.429 Y107.179 F575.537 ; 400 ms
G1 X101.961 Y105.433 F684.433 ; 200 ms
G1 X103.347 Y107.081 F646.019 ; 200 ms
G1 X101.879 Y105.335 F684.433 ; 200 ms
G1 X103.113 Y106.643 F539.642 ; 200 ms
G1 X101.645 Y105.408 F575.537 ; 200 ms
G1 X102.379 Y106.877 F492.491 ; 200 ms
G1 X100.633 Y105.408 F684.433 ; 200 ms
G1 X102.019 Y107.056 F646.019 ; 200 ms
G1 X100.371 Y105.588 F662.201 ; 200 ms
G1 X101.839 Y106.823 F575.537 ; 200 ms
G1 X100.371 Y105.077 F684.433 ; 200 ms
G1 X102.019 Y106.463 F646.019 ; 200 ms
G1 X101.326 Y104.716 F563.585 ; 200 ms
G1 X102.364 Y107.828 F983.981 ; 200 ms
G1 X101.130 Y106.359 F575.537 ; 200 ms
G1 X102.598 Y108.105 F684.433 ; 200 ms
G1 X100.852 Y106.637 F684.433 ; 200 ms
G1 X102.238 Y108.285 F646.019 ; 200 ms
G1 X100.769 Y107.551 F492.491 ; 200 ms
G1 X102.238 Y108.786 F575.537 ; 200 ms
G1 X100.769 Y107.040 F684.433 ; 200 ms
G1 X101.462 Y108.426 F464.849 ; 200 ms
G1 X99.716 Y106.957 F684.433 ; 200 ms
G1 X100.754 Y107.996 F440.497 ; 200 ms
G1 X99.520 Y106.527 F575.537 ; 200 ms
G1 X102.456 Y110.020 F684.433 ; 400 ms
G1 X101.070 Y108.371 F646.019 ; 200 ms
G1 X101.848 Y109.840 F498.486 ; 200 ms
G1 X100.380 Y108.605 F575.537 ; 200 ms
G1 X101.158 Y109.339 F320.873 ; 200 ms
G1 X99.772 Y108.646 F464.849 ; 200 ms
G1 X101.240 Y110.392 F684.433 ; 200 ms
G1 X100.202 Y109.354 F440.497 ; 200 ms
G1 X101.437 Y110.822 F575.537 ; 200 ms
G1 X99.968 Y109.588 F575.537 ; 200 ms
G1 X101.437 Y111.334 F684.433 ; 200 ms
G1 X99.690 Y109.484 F763.169 ; 200 ms
G1 X100.925 Y110.952 F575.537 ; 200 ms
G1 X100.000 Y109.304 F566.988 ; 200 ms
G1 X100.824 Y110.082 F339.953 ; 200 ms
G1 X100.131 Y109.428 F285.866 ; 200 ms
G1 X100.824 Y110.121 F293.997 ; 200 ms
G1 X100.000 Y109.297 F349.623 ; 200 ms
G1 X100.824 Y110.945 F552.802 ; 200 ms
G1 X99.844 Y110.291 F353.463 ; 200 ms
G1 X100.578 Y111.759 F492.491 ; 200 ms
G1 X99.961 Y110.834 F333.624 ; 200 ms
G1 X100.834 Y111.814 F393.747 ; 200 ms
G1 X99.526 Y110.428 F571.730 ; 200 ms
G1 X100.912 Y111.736 F571.730 ; 200 ms
G1 X99.604 Y109.405 F801.843 ; 200 ms
G1 X101.935 Y110.571 F781.781 ; 200 ms
G1 X100.896 Y108.371 F729.808 ; 200 ms
G1 X102.642 Y109.064 F563.585 ; 200 ms
G1 X100.566 Y106.987 F880.994 ; 200 ms
G1 X101.546 Y108.947 F657.396 ; 200 ms
G1 X100.892 Y107.782 F400.922 ; 200 ms
G1 X101.546 Y109.528 F559.386 ; 200 ms
G1 X99.800 Y108.363 F629.799 ; 200 ms
G1 X107.200 Y109.288 F2237.243 ; 200 ms
G1 X106.582 Y108.249 F362.382 ; 200 ms
G1 X108.328 Y109.415 F629.799 ; 200 ms
G1 X107.348 Y107.669 F600.703 ; 200 ms
G1 X108.003 Y108.493 F315.627 ; 200 ms
G1 X107.078 Y107.568 F392.438 ; 200 ms
G1 X107.812 Y109.036 F492.491 ; 200 ms
G1 X107.034 Y108.302 F320.873 ; 200 ms
G1 X107.907 Y109.282 F393.747 ; 200 ms
G1 X107.253 Y108.302 F353.463 ; 200 ms
G1 X109.584 Y108.956 F726.255 ; 200 ms
G1 X108.276 Y106.625 F801.843 ; 200 ms
G1 X108.893 Y108.371 F555.618 ; 200 ms
G1 X107.147 Y107.063 F654.537 ; 200 ms
G1 X108.893 Y109.394 F873.702 ; 200 ms
G1 X107.728 Y108.229 F494.442 ; 200 ms
G1 X109.688 Y109.394 F684.085 ; 200 ms
G1 X107.728 Y108.414 F657.396 ; 200 ms
G1 X108.708 Y109.339 F404.274 ; 200 ms
G1 X107.239 Y108.722 F477.849 ; 200 ms
G1 X108.405 Y110.682 F684.085 ; 200 ms
G1 X107.751 Y110.064 F269.821 ; 200 ms
G1 X109.136 Y118.864 F2672.540 ; 200 ms
G1 X107.668 Y117.396 F622.958 ; 200 ms
G1 X108.593 Y118.269 F381.584 ; 200 ms
G1 X107.125 Y116.713 F641.746 ; 200 ms
G1 X108.593 Y117.491 F498.486 ; 200 ms
G1 X107.668 Y116.618 F381.584 ; 200 ms
G1 X109.136 Y117.543 F520.617 ; 200 ms
G1 X106.667 Y116.670 F785.764 ; 200 ms
G1 X109.604 Y118.226 F498.486 ; 400 ms
G1 X108.950 Y117.533 F285.866 ; 200 ms
G1 X110.696 Y118.513 F600.703 ; 200 ms
G1 X109.530 Y117.205 F525.589 ; 200 ms
G1 X110.999 Y118.185 F529.596 ; 200 ms
G1 X110.306 Y117.450 F302.864 ; 200 ms
G1 X110.999 Y118.489 F374.481 ; 200 ms
G1 X110.221 Y117.754 F320.873 ; 200 ms
G1 X111.689 Y118.489 F492.491 ; 200 ms
G1 X110.221 Y116.933 F641.746 ; 200 ms
G1 X111.689 Y119.264 F826.428 ; 200 ms
G1 X110.996 Y118.391 F334.395 ; 200 ms
G1 X114.489 Y121.883 F1481.650 ; 200 ms
G1 X113.020 Y117.483 F1391.560 ; 200 ms
G1 X114.186 Y120.975 F1104.482 ; 200 ms
G1 X111.855 Y119.810 F781.781 ; 200 ms
G1 X112.835 Y121.770 F657.396 ; 200 ms
G1 X109.539 Y120.122 F1105.604 ; 200 ms
G1 X113.458 Y121.508 F1247.322 ; 200 ms
G1 X110.162 Y120.342 F1048.868 ; 200 ms
G1 X112.493 Y121.508 F781.781 ; 200 ms
G1 X110.533 Y120.528 F657.396 ; 200 ms
G1 X111.458 Y121.836 F480.637 ; 200 ms
G1 X108.842 Y119.220 F1109.983 ; 200 ms
G1 X109.767 Y120.966 F592.802 ; 200 ms
G1 X106.995 Y119.986 F881.990 ; 200 ms
G1 X108.741 Y121.732 F740.824 ; 200 ms
G1 X107.273 Y120.424 F589.954 ; 200 ms
G1 X107.927 Y122.170 F559.386 ; 200 ms
G1 X106.181 Y120.320 F763.169 ; 200 ms
G1 X108.031 Y122.066 F763.169 ; 200 ms
G1 X106.284 Y120.216 F763.169 ; 200 ms
G1 X107.670 Y122.293 F374.481 ; 400 ms
G1 X106.797 Y121.600 F334.395 ; 200 ms
G1 X107.670 Y122.580 F393.747 ; 200 ms
G1 X106.797 Y121.887 F334.395 ; 200 ms
G1 X107.836 Y122.580 F374.481 ; 200 ms
G1 X107.182 Y120.110 F766.371 ; 200 ms
G1 X107.874 Y122.187 F656.728 ; 200 ms
G1 X107.182 Y121.494 F293.997 ; 200 ms
G1 X108.567 Y122.187 F464.849 ; 200 ms
G1 X107.529 Y121.148 F440.497 ; 200 ms
G1 X108.695 Y122.128 F456.804 ; 200 ms
G1 X107.386 Y120.894 F539.642 ; 200 ms
G1 X108.366 Y122.128 F472.905 ; 200 ms
G1 X107.386 Y121.203 F404.274 ; 200 ms
G1 X108.079 Y122.242 F374.481 ; 200 ms
G1 X107.386 Y120.165 F656.728 ; 200 ms
G1 X108.425 Y121.203 F440.497 ; 200 ms
G1 X106.679 Y119.735 F342.216 ; 400 ms
G1 X107.372 Y121.812 F656.728 ; 200 ms
G1 X106.679 Y121.158 F285.866 ; 200 ms
G1 X108.065 Y121.851 F464.849 ; 200 ms
G1 X107.372 Y120.812 F374.481 ; 200 ms
G1 X108.106 Y121.978 F413.214 ; 200 ms
G1 X106.550 Y119.647 F420.341 ; 400 ms
G1 X107.328 Y120.627 F375.345 ; 200 ms
G1 X105.860 Y118.667 F367.346 ; 400 ms
G1 X107.415 Y120.998 F420.341 ; 400 ms
G1 X104.799 Y119.442 F456.572 ; 400 ms
G1 X105.492 Y120.422 F360.071 ; 200 ms
G1 X104.454 Y119.729 F374.481 ; 200 ms
G1 X105.840 Y123.882 F656.728 ; 400 ms
G1 X104.860 Y123.189 F360.071 ; 200 ms
G1 X105.733 Y123.923 F342.216 ; 200 ms
G1 X105.040 Y121.847 F656.728 ; 200 ms
G1 X106.078 Y122.671 F397.665 ; 200 ms
G1 X105.385 Y121.746 F346.729 ; 200 ms
G1 X106.078 Y122.619 F334.395 ; 200 ms
G1 X104.913 Y121.694 F446.363 ; 200 ms
G1 X106.013 Y122.859 F480.766 ; 200 ms
G1 X104.847 Y121.879 F456.804 ; 200 ms
G1 X105.827 Y123.045 F456.804 ; 200 ms
G1 X104.662 Y121.879 F494.442 ; 200 ms
G1 X105.440 Y123.114 F437.784 ; 200 ms
G1 X104.131 Y122.134 F490.348 ; 200 ms
G1 X105.004 Y122.788 F327.269 ; 200 ms
G1 X104.131 Y121.964 F360.168 ; 200 ms
G1 X105.440 Y123.350 F571.730 ; 200 ms
G1 X104.131 Y122.696 F438.759 ; 200 ms
G1 X105.297 Y123.279 F390.890 ; 200 ms
G1 X103.911 Y122.586 F464.849 ; 200 ms
G1 X105.559 Y123.459 F559.531 ; 200 ms
G1 X104.173 Y121.990 F605.728 ; 200 ms
G1 X105.821 Y122.864 F559.531 ; 200 ms
G1 X104.173 Y122.039 F552.802 ; 200 ms
G1 X105.919 Y122.964 F592.802 ; 200 ms
G1 X104.939 Y121.004 F657.396 ; 200 ms
G1 X106.247 Y122.390 F571.730 ; 200 ms
G1 X104.287 Y118.470 F657.396 ; 400 ms
G1 X105.326 Y119.509 F440.497 ; 200 ms
G1 X104.160 Y118.529 F456.804 ; 200 ms
G1 X105.326 Y119.694 F494.442 ; 200 ms
G1 X104.018 Y118.459 F539.642 ; 200 ms
G1 X105.326 Y119.439 F490.348 ; 200 ms
G1 X97.020 Y111.133 F3523.978 ; 200 ms
G1 X98.328 Y112.113 F490.348 ; 200 ms
G1 X95.711 Y109.341 F571.730 ; 400 ms
G1 X97.020 Y110.215 F471.816 ; 200 ms
G1 X95.981 Y109.176 F440.497 ; 200 ms
G1 X97.289 Y111.793 F877.519 ; 200 ms
G1 X95.981 Y110.484 F554.991 ; 200 ms
G1 X98.598 Y113.256 F571.730 ; 400 ms
G1 X97.618 Y111.948 F490.348 ; 200 ms
G1 X99.266 Y112.928 F575.244 ; 200 ms
G1 X97.520 Y112.055 F585.673 ; 200 ms
G1 X98.906 Y112.789 F470.508 ; 200 ms
G1 X98.032 Y111.916 F370.412 ; 200 ms
G1 X98.810 Y112.789 F350.789 ; 200 ms
G1 X98.117 Y112.206 F271.618 ; 200 ms
G1 X99.352 Y120.046 F2380.963 ; 200 ms
G1 X98.372 Y119.392 F353.463 ; 200 ms
G1 X99.680 Y120.046 F438.759 ; 200 ms
G1 X98.700 Y119.269 F375.345 ; 200 ms
G1 X100.008 Y119.923 F438.759 ; 200 ms
G1 X99.028 Y118.943 F415.773 ; 200 ms
G1 X99.682 Y120.251 F438.759 ; 200 ms
G1 X98.374 Y119.326 F480.637 ; 200 ms
G1 X99.354 Y119.943 F347.470 ; 200 ms
G1 X98.046 Y119.070 F471.816 ; 200 ms
G1 X99.354 Y119.995 F480.637 ; 200 ms
G1 X98.189 Y118.687 F525.589 ; 200 ms
G1 X98.882 Y119.341 F285.866 ; 200 ms
G1 X97.716 Y118.176 F494.442 ; 200 ms
G1 X98.370 Y119.156 F353.463 ; 200 ms
G1 X97.716 Y117.847 F438.759 ; 200 ms
G1 X99.102 Y118.772 F499.872 ; 200 ms
G1 X98.409 Y117.734 F374.481 ; 200 ms
G1 X99.717 Y118.388 F438.759 ; 200 ms
G1 X99.024 Y117.002 F464.849 ; 200 ms
G1 X100.124 Y118.310 F512.745 ; 200 ms
G1 X99.300 Y117.437 F360.168 ; 200 ms
G1 X100.339 Y118.476 F440.497 ; 200 ms
G1 X99.173 Y117.437 F468.247 ; 200 ms
G1 X100.212 Y118.603 F468.247 ; 200 ms
G1 X97.881 Y116.526 F468.247 ; 400 ms
G1 X98.919 Y117.564 F440.497 ; 200 ms
G1 X97.754 Y116.399 F494.442 ; 200 ms
G1 X98.679 Y117.272 F381.584 ; 200 ms
G1 X97.944 Y116.494 F320.873 ; 200 ms
G1 X98.768 Y117.367 F360.168 ; 200 ms
G1 X98.075 Y116.329 F374.481 ; 200 ms
G1 X100.152 Y118.660 F468.247 ; 400 ms
G1 X98.987 Y117.495 F494.442 ; 200 ms
G1 X100.025 Y118.660 F468.247 ; 200 ms
G1 X98.859 Y117.622 F468.247 ; 200 ms
G1 X100.025 Y118.400 F420.341 ; 200 ms
G1 X99.152 Y117.475 F381.584 ; 200 ms
G1 X99.886 Y118.252 F320.873 ; 200 ms
G1 X99.062 Y117.379 F360.168 ; 200 ms
G1 X100.100 Y118.072 F374.481 ; 200 ms
G1 X99.062 Y117.034 F440.497 ; 200 ms
G1 X100.100 Y118.199 F468.247 ; 200 ms
G1 X98.935 Y117.034 F494.442 ; 200 ms
G1 X100.100 Y118.072 F468.247 ; 200 ms
G1 X99.062 Y116.907 F468.247 ; 200 ms
G1 X100.227 Y117.945 F468.247 ; 200 ms
G1 X99.354 Y117.020 F381.584 ; 200 ms
G1 X100.088 Y117.798 F320.873 ; 200 ms
G1 X99.050 Y116.925 F406.966 ; 200 ms
G1 X100.436 Y117.659 F470.508 ; 200 ms
G1 X99.398 Y114.548 F983.981 ; 200 ms
G1 X103.551 Y118.701 F440.497 ; 800 ms
G1 X102.513 Y115.590 F983.981 ; 200 ms
G1 X104.589 Y117.666 F440.497 ; 400 ms
G1 X102.389 Y116.932 F695.780 ; 200 ms
G1 X105.326 Y117.857 F923.664 ; 200 ms
G1 X104.592 Y117.079 F320.873 ; 200 ms
G1 X105.465 Y117.662 F314.899 ; 200 ms
G1 X102.528 Y116.737 F923.664 ; 200 ms
G1 X104.728 Y117.471 F695.780 ; 200 ms
G1 X101.791 Y114.534 F1245.914 ; 200 ms
G1 X103.991 Y115.268 F695.780 ; 200 ms
G1 X101.915 Y114.576 F656.728 ; 200 ms
G1 X108.515 Y116.778 F695.780 ; 600 ms
G1 X107.535 Y114.818 F657.396 ; 200 ms
G1 X109.385 Y115.435 F585.079 ; 200 ms
G1 X107.535 Y113.475 F808.549 ; 200 ms
G1 X109.281 Y114.129 F559.386 ; 200 ms
G1 X107.535 Y113.204 F592.802 ; 200 ms
G1 X109.003 Y113.939 F492.491 ; 200 ms
G1 X108.023 Y112.773 F456.804 ; 200 ms
G4 P200 ; pause
G1 X110.223 Y113.507 F695.780 ; 200 ms
G1 X107.287 Y112.634 F919.105 ; 200 ms
G1 X109.487 Y113.368 F695.780 ; 200 ms
G1 X108.613 Y112.544 F360.168 ; 200 ms
G1 X111.550 Y115.481 F1245.914 ; 200 ms
G1 X109.350 Y114.013 F793.497 ; 200 ms
G1 X112.287 Y114.791 F911.373 ; 200 ms
G1 X110.087 Y114.056 F695.780 ; 200 ms
G1 X112.163 Y114.749 F656.728 ; 200 ms
G1 X111.429 Y112.549 F695.780 ; 200 ms
G1 X113.389 Y113.529 F657.396 ; 200 ms
G1 X112.409 Y111.569 F657.396 ; 200 ms
G1 X116.329 Y113.529 F657.396 ; 400 ms
G1 X115.839 Y112.549 F328.698 ; 200 ms
G1 X116.493 Y113.529 F353.463 ; 200 ms
G1 X115.328 Y111.199 F781.781 ; 200 ms
G1 X117.528 Y112.299 F737.902 ; 200 ms
G1 X115.568 Y111.319 F657.396 ; 200 ms
G1 X117.528 Y111.809 F606.090 ; 200 ms
G1 X116.794 Y110.884 F354.278 ; 200 ms
G1 X119.730 Y112.049 F947.833 ; 200 ms
G1 X117.530 Y111.315 F695.780 ; 200 ms
G1 X120.467 Y114.251 F1245.914 ; 200 ms
G1 X119.301 Y111.315 F947.833 ; 200 ms
G1 X120.079 Y112.049 F320.873 ; 200 ms
G1 X117.879 Y111.271 F700.036 ; 200 ms
G1 X120.079 Y112.005 F695.780 ; 200 ms
G1 X118.003 Y111.312 F656.728 ; 200 ms
G1 X120.203 Y112.185 F710.072 ; 200 ms
G1 X117.586 Y110.877 F877.519 ; 200 ms
G1 X118.241 Y112.185 F438.759 ; 200 ms
G1 X115.624 Y111.205 F838.132 ; 200 ms
G1 X117.824 Y112.305 F737.902 ; 200 ms
G1 X116.951 Y111.481 F360.168 ; 200 ms
G1 X120.444 Y112.789 F559.386 ; 400 ms
G1 X118.975 Y112.055 F492.491 ; 200 ms
G1 X119.799 Y113.703 F552.802 ; 200 ms
G1 X115.394 Y109.298 F622.958 ; 600 ms
G1 X118.887 Y110.464 F552.240 ; 400 ms
G1 X116.810 Y109.686 F665.226 ; 200 ms
G1 X121.210 Y110.994 F688.551 ; 400 ms
G1 X118.594 Y109.829 F859.225 ; 200 ms
G1 X121.210 Y110.809 F838.132 ; 200 ms
G1 X118.099 Y107.697 F1320.000 ; 200 ms
G1 X121.395 Y110.994 F1398.491 ; 200 ms
G1 X119.927 Y108.057 F984.982 ; 200 ms
G1 X122.003 Y109.095 F696.487 ; 200 ms
G1 X119.803 Y107.930 F746.884 ; 200 ms
G1 X120.457 Y109.238 F438.759 ; 200 ms
G1 X119.803 Y107.278 F619.870 ; 200 ms
G1 X121.272 Y108.012 F492.491 ; 200 ms
G1 X119.525 Y107.087 F592.802 ; 200 ms
G1 X120.398 Y108.012 F381.584 ; 200 ms

; End of music G-code