; Generated music G-code
; X axis = melody 1
; Y axis = melody 2

G21 ; use millimeters
G90 ; absolute positioning
G28 X Y ; home x and y
M73 P1 R9
M73 Q1 S9
G0 X100.000 Y100.000 F2000 ; move to start position

G4 P800 ; pause
G1 X103.492 Y103.492 F740.824 ; 400 ms
G1 X101.844 Y101.937 F679.906 ; 200 ms
G1 X103.590 Y103.683 F740.824 ; 200 ms
G1 X101.942 Y102.127 F679.906 ; 200 ms
G1 X103.688 Y103.873 F740.824 ; 200 ms
G1 X102.380 Y103.256 F433.946 ; 200 ms
G1 X103.936 Y104.724 F641.746 ; 200 ms
G1 X102.550 Y103.416 F571.730 ; 200 ms
G1 X103.715 Y104.289 F436.851 ; 200 ms
G1 X102.550 Y103.853 F373.346 ; 200 ms
G1 X103.715 Y107.345 F552.240 ; 400 ms
G1 X103.061 Y106.472 F327.269 ; 200 ms
G1 X103.934 Y107.296 F360.168 ; 200 ms
G1 X102.769 Y106.131 F494.442 ; 200 ms
G1 X103.386 Y107.439 F433.946 ; 200 ms
G1 X102.078 Y107.002 F413.713 ; 200 ms
G1 X103.386 Y107.521 F422.211 ; 200 ms
G1 X102.513 Y77.922 F8883.727 ; 200 ms
G1 X103.551 Y79.022 F453.783 ; 200 ms
G1 X102.243 Y77.787 F539.642 ; 200 ms
G1 X103.629 Y79.095 F571.730 ; 200 ms
G1 X103.193 Y77.709 F435.911 ; 200 ms
G1 X103.775 Y79.095 F451.029 ; 200 ms
G1 X102.902 Y77.709 F491.396 ; 200 ms
G1 X103.775 Y78.582 F370.412 ; 200 ms
G1 X102.029 Y76.934 F720.335 ; 200 ms
G1 X103.677 Y78.680 F720.335 ; 200 ms
G1 X101.931 Y76.934 F740.824 ; 200 ms
G1 X103.579 Y78.490 F679.906 ; 200 ms
G1 X101.833 Y76.744 F740.824 ; 200 ms
G1 X103.141 Y77.978 F539.642 ; 200 ms
G1 X101.586 Y76.510 F641.746 ; 200 ms
G1 X102.972 Y77.818 F571.730 ; 200 ms
G1 X101.806 Y76.945 F436.851 ; 200 ms
G1 X102.972 Y77.382 F373.346 ; 200 ms
G1 X102.389 Y75.635 F552.240 ; 200 ms
G1 X103.043 Y76.218 F262.795 ; 200 ms
G1 X102.170 Y75.564 F327.269 ; 200 ms
G1 X103.335 Y76.437 F436.851 ; 200 ms
G1 X102.718 Y75.272 F395.648 ; 200 ms
G1 X103.335 Y76.580 F433.946 ; 200 ms
G1 X102.027 Y76.143 F413.713 ; 200 ms
G1 X103.335 Y77.378 F539.642 ; 200 ms
G1 X102.462 Y76.554 F360.168 ; 200 ms
G1 X103.848 Y77.862 F571.730 ; 200 ms
G1 X102.540 Y76.627 F539.642 ; 200 ms
G1 X103.705 Y78.013 F543.235 ; 200 ms
G1 X102.540 Y76.848 F494.442 ; 200 ms
G1 X103.123 Y78.594 F552.240 ; 200 ms
G1 X102.540 Y78.011 F247.221 ; 200 ms
G1 X104.286 Y79.758 F740.824 ; 200 ms
G1 X102.638 Y78.109 F699.246 ; 200 ms
G1 X104.384 Y79.856 F740.824 ; 200 ms
G1 X102.736 Y78.109 F720.335 ; 200 ms
G1 X104.482 Y79.758 F720.335 ; 200 ms
G1 X103.174 Y78.011 F654.537 ; 200 ms
G1 X104.482 Y79.567 F609.760 ; 200 ms
G1 X102.927 Y78.181 F625.034 ; 200 ms
G1 X104.312 Y79.489 F571.730 ; 200 ms
G1 X103.147 Y78.103 F543.235 ; 200 ms
G1 X104.312 Y78.686 F390.890 ; 200 ms
G1 X103.730 Y76.940 F552.240 ; 200 ms
G1 X104.384 Y77.633 F285.866 ; 200 ms
G1 X103.511 Y76.809 F360.168 ; 200 ms
G1 X104.676 Y77.974 F494.442 ; 200 ms
G1 X104.059 Y76.666 F433.946 ; 200 ms
G1 X105.367 Y77.103 F413.713 ; 200 ms
G1 X104.059 Y76.583 F422.211 ; 200 ms
G1 X105.367 Y77.818 F539.642 ; 200 ms
G1 X104.329 Y76.945 F406.966 ; 200 ms
G1 X105.637 Y77.983 F501.026 ; 200 ms
G1 X104.329 Y76.597 F571.730 ; 200 ms
G1 X107.101 Y77.471 F435.911 ; 400 ms
G1 X106.518 Y76.597 F314.899 ; 200 ms
G1 X107.391 Y77.422 F360.168 ; 200 ms
G1 X105.645 Y75.675 F740.824 ; 200 ms
G1 X107.293 Y77.231 F679.906 ; 200 ms
G1 X105.547 Y75.485 F740.824 ; 200 ms
G1 X107.195 Y77.040 F679.906 ; 200 ms
G1 X105.449 Y75.294 F740.824 ; 200 ms
G1 X106.757 Y76.529 F539.642 ; 200 ms
G1 X105.201 Y75.061 F641.746 ; 200 ms
G1 X106.587 Y76.616 F625.034 ; 200 ms
G1 X105.201 Y75.451 F543.235 ; 200 ms
G1 X106.367 Y75.887 F373.346 ; 200 ms
G1 X105.784 Y74.722 F390.890 ; 200 ms
G1 X106.367 Y76.468 F552.240 ; 200 ms
G1 X105.713 Y75.775 F285.866 ; 200 ms
G1 X106.586 Y76.599 F360.168 ; 200 ms
G1 X105.420 Y75.434 F494.442 ; 200 ms
G1 X106.038 Y76.742 F433.946 ; 200 ms
G1 X104.729 Y76.306 F413.713 ; 200 ms
G1 X105.249 Y77.861 F491.991 ; 200 ms
G1 X104.376 Y77.037 F360.168 ; 200 ms
G1 X105.761 Y78.345 F571.730 ; 200 ms
G1 X104.453 Y76.959 F571.730 ; 200 ms
G1 X105.761 Y78.125 F525.589 ; 200 ms
G1 X104.596 Y77.688 F373.346 ; 200 ms
G1 X105.179 Y79.434 F552.240 ; 200 ms
G1 X104.596 Y78.852 F247.221 ; 200 ms
G1 X105.904 Y80.238 F571.730 ; 200 ms
G1 X104.518 Y78.682 F625.034 ; 200 ms
G1 X106.074 Y80.150 F641.746 ; 200 ms
G1 X102.582 Y79.170 F544.076 ; 400 ms
G1 X103.236 Y80.916 F559.386 ; 200 ms
G1 X102.256 Y79.878 F428.314 ; 200 ms
G1 X104.106 Y80.803 F620.499 ; 200 ms
G1 X102.360 Y79.057 F740.824 ; 200 ms
G1 X103.094 Y79.835 F320.873 ; 200 ms
G1 X102.604 Y79.057 F275.787 ; 200 ms
G1 X103.221 Y79.547 F236.453 ; 200 ms
G1 X102.296 Y78.930 F333.624 ; 200 ms
G1 X103.221 Y79.803 F381.584 ; 200 ms
G1 X101.665 Y78.334 F641.746 ; 200 ms
G1 X103.221 Y79.720 F625.034 ; 200 ms
G1 X100.449 Y78.847 F435.911 ; 400 ms
G1 X101.032 Y80.233 F451.029 ; 200 ms
G1 X100.159 Y79.409 F360.168 ; 200 ms
G1 X101.714 Y80.877 F641.746 ; 200 ms
G1 X100.329 Y79.569 F571.730 ; 200 ms
G1 X100.946 Y80.877 F433.946 ; 200 ms
G1 X99.638 Y80.441 F413.713 ; 200 ms
G1 X100.511 Y81.749 F471.816 ; 200 ms
G1 X99.638 Y80.925 F360.168 ; 200 ms
G1 X100.511 Y81.798 F370.412 ; 200 ms
G1 X99.638 Y80.974 F360.168 ; 200 ms
G1 X100.511 Y81.847 F370.412 ; 200 ms
G1 X97.019 Y78.355 F740.824 ; 400 ms
G1 X98.667 Y80.003 F699.246 ; 200 ms
G1 X97.019 Y78.447 F679.906 ; 200 ms
G1 X98.765 Y80.193 F740.824 ; 200 ms
G1 X97.117 Y78.638 F679.906 ; 200 ms
G1 X98.863 Y80.384 F740.824 ; 200 ms
G1 X97.215 Y78.828 F679.906 ; 200 ms
G1 X98.961 Y80.574 F740.824 ; 200 ms
G1 X97.653 Y79.957 F433.946 ; 200 ms
G1 X99.208 Y81.425 F641.746 ; 200 ms
G1 X97.822 Y80.117 F571.730 ; 200 ms
G1 X98.988 Y80.990 F436.851 ; 200 ms
G1 X97.822 Y80.554 F373.346 ; 200 ms
G1 X98.405 Y82.300 F552.240 ; 200 ms
G1 X97.822 Y81.646 F262.795 ; 200 ms
G1 X98.476 Y82.519 F327.269 ; 200 ms
G1 X97.603 Y81.695 F360.168 ; 200 ms
G1 X98.769 Y82.860 F494.442 ; 200 ms
G1 X98.151 Y81.552 F433.946 ; 200 ms
G1 X99.459 Y81.989 F413.713 ; 200 ms
G1 X98.940 Y80.433 F491.991 ; 200 ms
G1 X99.813 Y81.257 F360.168 ; 200 ms
G1 X98.775 Y80.157 F453.783 ; 200 ms
G1 X100.083 Y81.392 F539.642 ; 200 ms
G1 X98.697 Y80.084 F571.730 ; 200 ms
G1 X99.134 Y81.470 F435.911 ; 200 ms
G1 X98.551 Y79.723 F552.240 ; 200 ms
G1 X99.424 Y80.547 F360.168 ; 200 ms
G1 X98.551 Y79.674 F370.412 ; 200 ms
G1 X100.297 Y81.322 F720.335 ; 200 ms
G1 X98.649 Y79.576 F720.335 ; 200 ms
G1 X100.395 Y81.322 F740.824 ; 200 ms
G1 X98.747 Y79.767 F679.906 ; 200 ms
G1 X100.493 Y81.513 F740.824 ; 200 ms
G1 X99.185 Y80.278 F539.642 ; 200 ms
G1 X100.741 Y81.747 F641.746 ; 200 ms
G1 X99.355 Y80.438 F571.730 ; 200 ms
G1 X100.520 Y81.312 F436.851 ; 200 ms
G1 X99.355 Y80.875 F373.346 ; 200 ms
G1 X99.938 Y82.621 F552.240 ; 200 ms
G1 X99.284 Y81.928 F285.866 ; 200 ms
G1 X100.157 Y82.582 F327.269 ; 200 ms
G1 X98.991 Y81.709 F436.851 ; 200 ms
G1 X99.609 Y82.875 F395.648 ; 200 ms
G1 X98.991 Y81.566 F433.946 ; 200 ms
G1 X100.299 Y82.003 F413.713 ; 200 ms
G1 X99.780 Y81.453 F226.891 ; 200 ms
G1 X100.653 Y82.277 F360.168 ; 200 ms
G1 X99.267 Y80.969 F571.730 ; 200 ms
G1 X100.576 Y82.277 F554.991 ; 200 ms
G1 X99.410 Y81.404 F436.851 ; 200 ms
G1 X100.576 Y81.841 F373.346 ; 200 ms
G1 X99.993 Y80.094 F552.240 ; 200 ms
G1 X101.301 Y80.712 F433.946 ; 200 ms
G1 X99.915 Y79.404 F571.730 ; 200 ms
G1 X101.471 Y80.790 F625.034 ; 200 ms
G1 X100.002 Y79.043 F684.433 ; 200 ms
G1 X100.492 Y80.512 F464.378 ; 200 ms
G1 X98.746 Y79.858 F559.386 ; 200 ms
G1 X100.706 Y81.934 F428.314 ; 400 ms
G1 X98.856 Y80.188 F763.169 ; 200 ms
G1 X100.602 Y81.934 F740.824 ; 200 ms
G1 X99.868 Y81.156 F320.873 ; 200 ms
G1 X100.358 Y82.712 F489.294 ; 200 ms
G1 X99.741 Y81.156 F502.097 ; 200 ms
G1 X100.666 Y82.029 F381.584 ; 200 ms
G1 X98.920 Y81.156 F585.673 ; 200 ms
G1 X100.475 Y82.625 F641.746 ; 200 ms
G1 X99.089 Y81.752 F491.396 ; 200 ms
G1 X99.526 Y83.138 F435.911 ; 200 ms
G1 X98.943 Y81.752 F451.029 ; 200 ms
G1 X99.816 Y83.138 F491.396 ; 200 ms
G1 X98.943 Y82.313 F360.168 ; 200 ms
G1 X100.329 Y83.869 F625.034 ; 200 ms
G1 X99.712 Y82.483 F455.158 ; 200 ms
G1 X100.329 Y83.791 F433.946 ; 200 ms
G1 X99.021 Y83.355 F413.713 ; 200 ms
G1 X100.767 Y85.003 F360.168 ; 400 ms
G1 X99.894 Y83.257 F585.673 ; 200 ms
G1 X100.767 Y84.081 F360.168 ; 200 ms
G1 X99.021 Y83.208 F585.673 ; 200 ms
G1 X102.513 Y86.700 F740.824 ; 400 ms
G1 X100.865 Y85.144 F679.906 ; 200 ms
G1 X102.611 Y86.891 F740.824 ; 200 ms
G1 X100.963 Y85.144 F720.335 ; 200 ms
G1 X104.455 Y88.441 F720.335 ; 400 ms
G1 X102.807 Y86.695 F720.335 ; 200 ms
G1 X104.553 Y88.003 F654.537 ; 200 ms
G1 X103.245 Y86.768 F539.642 ; 200 ms
G1 X104.801 Y88.236 F641.746 ; 200 ms
G1 X103.415 Y86.928 F571.730 ; 200 ms
G1 X104.580 Y87.801 F436.851 ; 200 ms
G1 X103.415 Y86.636 F494.442 ; 200 ms
G1 X103.998 Y88.382 F552.240 ; 200 ms
G1 X103.344 Y86.305 F653.129 ; 200 ms
G1 X104.217 Y87.130 F360.168 ; 200 ms
G1 X103.051 Y85.964 F494.442 ; 200 ms
G1 X103.669 Y87.272 F433.946 ; 200 ms
G1 X102.361 Y86.655 F433.946 ; 200 ms
G1 X103.669 Y87.174 F422.211 ; 200 ms
G1 X102.796 Y86.655 F304.725 ; 200 ms
G1 X103.669 Y87.693 F406.966 ; 200 ms
G1 X102.630 Y86.385 F501.026 ; 200 ms
G1 X103.939 Y87.693 F554.991 ; 200 ms
G1 X102.553 Y86.307 F587.993 ; 200 ms
G1 X103.939 Y86.744 F435.911 ; 200 ms
G1 X103.356 Y85.871 F314.899 ; 200 ms
G1 X104.229 Y115.470 F8883.727 ; 200 ms
G1 X102.483 Y114.597 F585.673 ; 200 ms
G1 X104.131 Y116.153 F679.906 ; 200 ms
G1 X102.385 Y115.570 F552.240 ; 200 ms
G1 X104.033 Y117.316 F720.335 ; 200 ms
G1 X102.287 Y115.570 F740.824 ; 200 ms
G1 X103.595 Y117.316 F654.537 ; 200 ms
G1 X102.039 Y116.008 F609.760 ; 200 ms
G1 X103.425 Y117.564 F625.034 ; 200 ms
G1 X102.039 Y116.398 F543.235 ; 200 ms
G1 X103.205 Y116.835 F373.346 ; 200 ms
G1 X102.622 Y115.669 F390.890 ; 200 ms
G1 X103.205 Y117.416 F552.240 ; 200 ms
G1 X102.551 Y116.723 F285.866 ; 200 ms
G1 X103.424 Y117.547 F360.168 ; 200 ms
G1 X102.258 Y116.381 F494.442 ; 200 ms
G1 X102.876 Y117.035 F269.821 ; 200 ms
G1 X101.568 Y116.599 F413.713 ; 200 ms
G1 X102.087 Y118.155 F491.991 ; 200 ms
G1 X101.214 Y117.330 F360.168 ; 200 ms
G1 X102.599 Y118.639 F571.730 ; 200 ms
G1 X101.291 Y117.253 F571.730 ; 200 ms
G1 X102.599 Y118.418 F525.589 ; 200 ms
G1 X101.434 Y117.982 F373.346 ; 200 ms
G1 X102.017 Y119.147 F390.890 ; 200 ms
G1 X101.144 Y118.564 F314.899 ; 200 ms
G1 X101.837 Y119.218 F285.866 ; 200 ms
G1 X100.529 Y117.832 F285.866 ; 400 ms
G1 X101.914 Y118.295 F438.314 ; 200 ms
G1 X101.332 Y116.909 F451.029 ; 200 ms
G1 X101.986 Y117.602 F285.866 ; 200 ms
G1 X100.600 Y117.019 F451.029 ; 200 ms
G1 X101.254 Y117.712 F285.866 ; 200 ms
G1 X99.404 Y115.966 F763.169 ; 200 ms
G1 X99.987 Y116.429 F223.182 ; 200 ms
G1 X99.404 Y114.682 F552.240 ; 200 ms
G1 X100.960 Y116.151 F320.873 ; 400 ms
G1 X100.182 Y114.682 F498.486 ; 200 ms
G1 X100.960 Y115.460 F330.000 ; 200 ms
G1 X100.342 Y113.610 F585.079 ; 200 ms
G1 X100.805 Y114.264 F240.319 ; 200 ms
G1 X99.932 Y112.188 F675.779 ; 200 ms
G1 X101.400 Y112.805 F477.849 ; 200 ms
G1 X100.527 Y112.805 F261.921 ; 200 ms
G1 X101.995 Y113.295 F464.378 ; 200 ms
G1 X101.122 Y111.909 F491.396 ; 200 ms
G1 X102.288 Y112.372 F376.148 ; 200 ms
G1 X101.705 Y111.206 F390.890 ; 200 ms
G1 X102.288 Y111.860 F262.795 ; 200 ms
G1 X101.705 Y110.114 F552.240 ; 200 ms
G1 X102.288 Y110.768 F262.795 ; 200 ms
G1 X101.308 Y110.186 F342.042 ; 200 ms
G1 X101.890 Y111.351 F390.890 ; 200 ms
G1 X100.504 Y110.888 F438.314 ; 200 ms
G1 X101.813 Y112.274 F285.866 ; 400 ms
G1 X100.427 Y111.692 F451.029 ; 200 ms
G1 X101.982 Y112.346 F506.263 ; 200 ms
G1 X100.334 Y111.763 F524.434 ; 200 ms
G1 X102.080 Y112.200 F539.964 ; 200 ms
G1 X101.498 Y110.453 F552.240 ; 200 ms
G1 X102.152 Y112.200 F559.386 ; 200 ms
G1 X101.569 Y110.453 F552.240 ; 200 ms
G1 X102.152 Y111.619 F390.890 ; 200 ms
G1 X100.986 Y110.519 F480.766 ; 200 ms
G1 X102.152 Y111.905 F543.235 ; 200 ms
G1 X100.766 Y111.415 F440.995 ; 200 ms
G1 X102.152 Y112.288 F491.396 ; 200 ms
G1 X100.766 Y111.798 F440.995 ; 200 ms
G1 X101.639 Y113.184 F491.396 ; 200 ms
G1 X101.149 Y111.628 F489.294 ; 200 ms
G1 X102.074 Y112.936 F480.637 ; 200 ms
G1 X101.420 Y112.243 F285.866 ; 200 ms
G1 X102.400 Y113.282 F428.314 ; 200 ms
G1 X101.234 Y112.116 F494.442 ; 200 ms
G1 X102.214 Y113.154 F428.314 ; 200 ms
G1 X101.234 Y112.281 F393.747 ; 200 ms
G1 X102.012 Y113.261 F375.345 ; 200 ms
G1 X101.139 Y112.281 F393.747 ; 200 ms
G1 X102.119 Y113.320 F428.314 ; 200 ms
G1 X101.246 Y112.737 F314.899 ; 200 ms
G1 X103.322 Y113.391 F653.129 ; 200 ms
G1 X101.937 Y111.835 F625.034 ; 200 ms
G1 X102.554 Y112.489 F269.821 ; 200 ms
G1 X101.900 Y111.796 F285.866 ; 200 ms
G1 X102.554 Y113.873 F653.129 ; 200 ms
G1 X101.574 Y112.835 F428.314 ; 200 ms
G1 X102.739 Y114.000 F494.442 ; 200 ms
G1 X100.779 Y111.924 F428.314 ; 400 ms
G1 X101.557 Y112.904 F375.345 ; 200 ms
G1 X100.684 Y111.924 F393.747 ; 200 ms
G1 X101.664 Y112.962 F428.314 ; 200 ms
G1 X100.791 Y112.379 F314.899 ; 200 ms
G1 X101.445 Y114.229 F588.658 ; 200 ms
G1 X100.955 Y112.483 F544.076 ; 200 ms
G1 X101.572 Y114.333 F585.079 ; 200 ms
G1 X100.017 Y113.716 F502.097 ; 200 ms
G1 X100.634 Y115.566 F585.079 ; 200 ms
G1 X98.986 Y114.010 F679.906 ; 200 ms
G1 X100.294 Y115.318 F554.991 ; 200 ms
G1 X98.646 Y113.572 F720.335 ; 200 ms
G1 X99.954 Y115.318 F654.537 ; 200 ms
G1 X98.208 Y113.670 F720.335 ; 200 ms
G1 X103.446 Y118.908 F740.824 ; 600 ms
G1 X102.138 Y117.674 F539.642 ; 200 ms
G1 X103.884 Y119.420 F740.824 ; 200 ms
G1 X102.236 Y117.674 F720.335 ; 200 ms
G1 X103.982 Y119.322 F720.335 ; 200 ms
G1 X98.744 Y114.083 F740.824 ; 600 ms
G1 X100.052 Y115.318 F539.642 ; 200 ms
G1 X98.306 Y113.572 F740.824 ; 200 ms
G1 X99.954 Y115.128 F679.906 ; 200 ms
G1 X98.208 Y113.381 F740.824 ; 200 ms
G1 X99.856 Y114.937 F679.906 ; 200 ms
G1 X98.110 Y113.191 F740.824 ; 200 ms
G1 X99.758 Y114.747 F679.906 ; 200 ms
G1 X98.012 Y113.000 F740.824 ; 200 ms
G1 X99.660 Y113.824 F552.802 ; 200 ms
G1 X97.914 Y112.078 F740.824 ; 200 ms
G1 X99.562 Y113.824 F720.335 ; 200 ms
G1 X97.816 Y112.176 F720.335 ; 200 ms
G1 X99.124 Y113.922 F654.537 ; 200 ms
G1 X97.816 Y112.367 F609.760 ; 200 ms
G1 X99.372 Y113.753 F625.034 ; 200 ms
G1 X97.986 Y112.445 F571.730 ; 200 ms
G1 X99.151 Y113.831 F543.235 ; 200 ms
G1 X97.986 Y113.248 F390.890 ; 200 ms
G1 X98.568 Y114.994 F552.240 ; 200 ms
G1 X97.914 Y114.301 F285.866 ; 200 ms
G1 X98.787 Y115.125 F360.168 ; 200 ms
G1 X97.622 Y113.960 F494.442 ; 200 ms
G1 X98.239 Y115.268 F433.946 ; 200 ms
G1 X96.931 Y114.831 F413.713 ; 200 ms
G1 X98.239 Y115.350 F422.211 ; 200 ms
G1 X96.931 Y114.477 F471.816 ; 200 ms
G1 X97.970 Y115.350 F406.966 ; 200 ms
G1 X96.661 Y114.312 F501.026 ; 200 ms
G1 X97.970 Y115.698 F571.730 ; 200 ms
G1 X95.198 Y114.825 F435.911 ; 400 ms
G1 X95.780 Y116.211 F451.029 ; 200 ms
G1 X94.907 Y115.387 F360.168 ; 200 ms
G1 X96.653 Y117.133 F740.824 ; 200 ms
G1 X95.005 Y115.577 F679.906 ; 200 ms
G1 X96.751 Y117.323 F740.824 ; 200 ms
G1 X95.103 Y115.768 F679.906 ; 200 ms
G1 X96.849 Y117.514 F740.824 ; 200 ms
G1 X95.541 Y116.279 F539.642 ; 200 ms
G1 X97.097 Y117.748 F641.746 ; 200 ms
G1 X95.711 Y116.192 F625.034 ; 200 ms
G1 X97.097 Y117.357 F543.235 ; 200 ms
G1 X95.932 Y116.921 F373.346 ; 200 ms
G1 X96.514 Y118.086 F390.890 ; 200 ms
G1 X95.932 Y116.340 F552.240 ; 200 ms
G1 X96.586 Y117.033 F285.866 ; 200 ms
G1 X95.713 Y116.209 F360.168 ; 200 ms
G1 X96.878 Y117.374 F494.442 ; 200 ms
G1 X96.261 Y116.066 F433.946 ; 200 ms
G1 X97.569 Y117.301 F539.642 ; 200 ms
G1 X96.261 Y116.782 F422.211 ; 200 ms
G1 X97.134 Y118.090 F471.816 ; 200 ms
G1 X95.748 Y116.782 F571.730 ; 200 ms
G1 X97.056 Y118.168 F571.730 ; 200 ms
G1 X95.748 Y117.002 F525.589 ; 200 ms
G1 X96.913 Y117.439 F373.346 ; 200 ms
G1 X95.748 Y113.947 F552.240 ; 400 ms
G1 X97.494 Y115.693 F740.824 ; 200 ms
G1 X95.748 Y114.045 F720.335 ; 200 ms
G1 X97.396 Y115.600 F679.906 ; 200 ms
G1 X95.650 Y113.854 F740.824 ; 200 ms
G1 X97.298 Y115.410 F679.906 ; 200 ms
G1 X95.552 Y113.664 F740.824 ; 200 ms
G1 X96.860 Y114.898 F539.642 ; 200 ms
G1 X95.304 Y113.430 F641.746 ; 200 ms
G1 X96.690 Y114.738 F571.730 ; 200 ms
G1 X95.525 Y113.865 F436.851 ; 200 ms
G1 X96.690 Y114.302 F373.346 ; 200 ms
G1 X96.107 Y112.555 F552.240 ; 200 ms
G1 X96.690 Y113.210 F262.795 ; 200 ms
G1 X95.817 Y112.555 F327.269 ; 200 ms
G1 X96.690 Y113.721 F436.851 ; 200 ms
G1 X95.525 Y113.103 F395.648 ; 200 ms
G1 X96.142 Y114.412 F433.946 ; 200 ms
G1 X94.834 Y113.975 F413.713 ; 200 ms
G1 X96.142 Y114.494 F422.211 ; 200 ms
G1 X95.269 Y113.670 F360.168 ; 200 ms
G1 X96.307 Y114.770 F453.783 ; 200 ms
G1 X94.999 Y113.535 F539.642 ; 200 ms
G1 X96.385 Y114.409 F491.396 ; 200 ms
G1 X94.999 Y113.972 F435.911 ; 200 ms
G1 X95.582 Y115.718 F552.240 ; 200 ms
G1 X94.709 Y114.894 F360.168 ; 200 ms
G1 X95.582 Y115.767 F370.412 ; 200 ms
G1 X93.934 Y114.021 F720.335 ; 200 ms
G1 X97.426 Y117.317 F720.335 ; 400 ms
G1 X95.778 Y115.571 F720.335 ; 200 ms
G1 X97.524 Y116.879 F654.537 ; 200 ms
G1 X96.216 Y115.645 F539.642 ; 200 ms
G1 X97.772 Y117.113 F641.746 ; 200 ms
G1 X96.386 Y115.805 F571.730 ; 200 ms
G1 X97.551 Y116.678 F436.851 ; 200 ms
G1 X96.386 Y115.512 F494.442 ; 200 ms
G1 X96.968 Y117.259 F552.240 ; 200 ms
G1 X96.314 Y115.182 F653.129 ; 200 ms
G1 X97.187 Y116.006 F360.168 ; 200 ms
G1 X96.022 Y114.841 F494.442 ; 200 ms
G1 X96.639 Y116.149 F433.946 ; 200 ms
G1 X95.331 Y115.531 F433.946 ; 200 ms
G1 X96.639 Y116.051 F422.211 ; 200 ms
G1 X95.766 Y115.531 F304.725 ; 200 ms
G1 X96.639 Y116.917 F491.396 ; 200 ms
G1 X95.253 Y115.609 F571.730 ; 200 ms
G1 X96.562 Y116.917 F554.991 ; 200 ms
G1 X95.396 Y115.531 F543.235 ; 200 ms
G1 X96.562 Y116.114 F390.890 ; 200 ms
G1 X95.979 Y114.368 F552.240 ; 200 ms
G1 X97.287 Y115.603 F539.642 ; 200 ms
G1 X95.901 Y114.295 F571.730 ; 200 ms
G1 X97.457 Y115.763 F641.746 ; 200 ms
G1 X95.988 Y114.783 F529.596 ; 200 ms
G1 X96.478 Y116.251 F464.378 ; 200 ms
G1 X94.732 Y115.597 F559.386 ; 200 ms
G1 X96.692 Y117.674 F428.314 ; 400 ms
G1 X94.842 Y115.928 F763.169 ; 200 ms
G1 X96.588 Y116.662 F568.260 ; 200 ms
G1 X95.854 Y115.884 F320.873 ; 200 ms
G1 X96.344 Y117.352 F464.378 ; 200 ms
G1 X95.727 Y115.797 F502.097 ; 200 ms
G1 X96.652 Y116.670 F381.584 ; 200 ms
G1 X94.906 Y114.924 F740.824 ; 200 ms
G1 X96.374 Y116.479 F641.746 ; 200 ms
G1 X94.988 Y115.606 F491.396 ; 200 ms
G1 X96.374 Y116.043 F435.911 ; 200 ms
G1 X94.988 Y115.460 F451.029 ; 200 ms
G1 X95.861 Y116.284 F360.168 ; 200 ms
G1 X94.305 Y115.411 F535.166 ; 200 ms
G1 X95.691 Y116.967 F625.034 ; 200 ms
G1 X95.074 Y116.312 F269.821 ; 200 ms
G1 X95.691 Y117.621 F433.946 ; 200 ms
G1 X94.383 Y117.184 F413.713 ; 200 ms
G1 X95.256 Y118.057 F370.412 ; 200 ms
G1 X94.383 Y117.233 F360.168 ; 200 ms
G1 X95.256 Y118.106 F370.412 ; 200 ms
G1 X94.383 Y117.282 F360.168 ; 200 ms
G1 X99.622 Y122.521 F740.824 ; 600 ms
G1 X97.974 Y120.965 F679.906 ; 200 ms
G1 X99.720 Y122.711 F740.824 ; 200 ms
G1 X98.072 Y120.965 F720.335 ; 200 ms
G1 X99.818 Y122.711 F740.824 ; 200 ms
G1 X98.170 Y120.965 F720.335 ; 200 ms
G1 X99.916 Y122.613 F720.335 ; 200 ms
G1 X98.608 Y120.867 F654.537 ; 200 ms
G1 X99.916 Y122.422 F609.760 ; 200 ms
G1 X98.360 Y121.037 F625.034 ; 200 ms
G1 X99.746 Y122.345 F571.730 ; 200 ms
G1 X98.581 Y120.959 F543.235 ; 200 ms
G1 X99.163 Y122.124 F390.890 ; 200 ms
G1 X98.581 Y120.378 F552.240 ; 200 ms
G1 X99.235 Y122.455 F653.129 ; 200 ms
G1 X98.362 Y121.631 F360.168 ; 200 ms
G1 X99.527 Y122.796 F494.442 ; 200 ms
G1 X98.910 Y121.488 F433.946 ; 200 ms
G1 X100.218 Y121.924 F413.713 ; 200 ms
G1 X99.699 Y120.616 F422.211 ; 200 ms
G1 X100.572 Y121.440 F360.168 ; 200 ms
G1 X99.533 Y120.567 F406.966 ; 200 ms
G1 X100.842 Y121.605 F501.026 ; 200 ms
G1 X99.533 Y120.220 F571.730 ; 200 ms
G1 X100.919 Y121.528 F571.730 ; 200 ms
G1 X99.533 Y121.091 F435.911 ; 200 ms
G1 X100.116 Y121.964 F314.899 ; 200 ms
G1 X99.243 Y121.140 F360.168 ; 200 ms
G1 X100.989 Y122.886 F740.824 ; 200 ms
G1 X99.341 Y121.331 F679.906 ; 200 ms
G1 X101.087 Y123.077 F740.824 ; 200 ms
G1 X99.439 Y121.521 F679.906 ; 200 ms
G1 X101.185 Y123.267 F740.824 ; 200 ms
G1 X99.877 Y122.033 F539.642 ; 200 ms
G1 X101.433 Y123.501 F641.746 ; 200 ms
G1 X100.047 Y121.945 F625.034 ; 200 ms
G1 X101.212 Y123.331 F543.235 ; 200 ms
G1 X100.047 Y122.895 F373.346 ; 200 ms
G1 X100.630 Y124.060 F390.890 ; 200 ms
G1 X100.047 Y122.314 F552.240 ; 200 ms
G1 X100.701 Y123.007 F285.866 ; 200 ms
G1 X99.828 Y122.183 F360.168 ; 200 ms
G1 X100.993 Y123.348 F494.442 ; 200 ms
G1 X100.376 Y122.040 F433.946 ; 200 ms
G1 X101.684 Y122.477 F413.713 ; 200 ms
G1 X101.165 Y120.921 F491.991 ; 200 ms
G1 X102.038 Y121.745 F360.168 ; 200 ms
G1 X100.652 Y120.437 F571.730 ; 200 ms
G1 X101.960 Y121.823 F571.730 ; 200 ms
G1 X100.652 Y120.657 F525.589 ; 200 ms
G1 X101.525 Y121.823 F436.851 ; 200 ms
G1 X100.360 Y120.950 F436.851 ; 200 ms
G1 X102.106 Y123.722 F491.396 ; 400 ms
G1 X101.233 Y122.849 F370.412 ; 200 ms
G1 X102.213 Y123.829 F415.773 ; 200 ms
G1 X99.273 Y121.209 F393.747 ; 600 ms
G1 X100.253 Y122.375 F456.804 ; 200 ms
G1 X98.293 Y119.438 F529.596 ; 400 ms
G1 X99.848 Y120.906 F641.746 ; 200 ms
G1 X97.073 Y116.240 F542.958 ; 600 ms
G1 X98.820 Y117.113 F585.673 ; 200 ms
G1 X97.947 Y115.644 F512.485 ; 200 ms
G1 X101.058 Y117.721 F561.087 ; 400 ms
G1 X95.866 Y109.943 F561.087 ; 1000 ms
G1 X97.613 Y110.816 F585.673 ; 200 ms
G1 X93.247 Y102.085 F585.673 ; 1000 ms
G1 X94.633 Y102.668 F451.029 ; 200 ms
G1 X91.858 Y98.001 F542.958 ; 600 ms
G1 X92.783 Y99.387 F499.872 ; 200 ms
G1 X91.910 Y98.001 F491.396 ; 200 ms
G1 X93.218 Y99.235 F539.642 ; 200 ms
G1 X92.238 Y98.581 F353.463 ; 200 ms
G1 X94.200 Y101.521 F353.463 ; 600 ms
G1 X92.238 Y98.025 F400.922 ; 600 ms
G1 X93.404 Y98.679 F400.922 ; 200 ms
G1 X92.750 Y97.986 F285.866 ; 200 ms
G1 X93.623 Y99.372 F491.396 ; 200 ms
G1 X92.315 Y98.499 F471.816 ; 200 ms
G1 X93.623 Y99.116 F433.946 ; 200 ms
G1 X92.315 Y97.951 F525.589 ; 200 ms
G1 X96.239 Y104.943 F400.922 ; 1200 ms
G1 X95.259 Y103.475 F529.596 ; 200 ms
G1 X99.179 Y106.967 F393.747 ; 800 ms
G1 X98.199 Y105.499 F529.596 ; 200 ms
G1 X99.072 Y106.967 F512.485 ; 200 ms
G1 X97.222 Y103.856 F542.958 ; 400 ms
G1 X99.072 Y106.187 F446.363 ; 400 ms
G1 X98.199 Y104.719 F512.485 ; 200 ms
G1 X105.599 Y110.941 F725.132 ; 800 ms
G1 X102.488 Y109.195 F535.166 ; 400 ms
G1 X104.043 Y111.045 F725.132 ; 200 ms
G1 X97.568 Y100.156 F542.958 ; 1400 ms
G1 X100.508 Y105.100 F575.244 ; 600 ms
G1 X98.860 Y104.120 F575.244 ; 200 ms
G1 X99.785 Y105.676 F542.958 ; 200 ms
G1 X98.477 Y104.898 F456.572 ; 200 ms
G1 X99.642 Y106.284 F543.235 ; 200 ms
G1 X97.309 Y103.509 F362.566 ; 600 ms
G1 X98.474 Y104.434 F446.363 ; 200 ms
G1 X97.309 Y103.656 F420.341 ; 200 ms
G1 X98.474 Y104.581 F446.363 ; 200 ms
G1 X97.549 Y103.543 F417.160 ; 200 ms
G1 X99.626 Y105.393 F417.160 ; 400 ms
G1 X98.701 Y104.354 F417.160 ; 200 ms
G1 X100.777 Y106.204 F417.160 ; 400 ms
G1 X99.797 Y105.039 F456.804 ; 200 ms
G1 X100.777 Y105.366 F309.934 ; 200 ms
G1 X99.797 Y103.718 F575.244 ; 200 ms
G1 X100.777 Y104.045 F309.934 ; 200 ms
G1 X99.904 Y103.221 F360.168 ; 200 ms
G4 P200 ; pause
G1 X102.521 Y104.094 F413.713 ; 400 ms
G4 P1000 ; pause
G1 X101.867 Y103.401 F285.866 ; 200 ms
G1 X102.740 Y104.055 F327.269 ; 200 ms
G1 X101.574 Y102.890 F494.442 ; 200 ms
G1 X102.960 Y104.198 F571.730 ; 200 ms
G1 X102.087 Y103.615 F314.899 ; 200 ms
G1 X102.741 Y104.488 F327.269 ; 200 ms
G1 X102.158 Y103.615 F314.899 ; 200 ms
G1 X102.812 Y104.488 F327.269 ; 200 ms
G1 X101.939 Y103.615 F370.412 ; 200 ms
G1 X102.864 Y105.001 F499.872 ; 200 ms
G1 X101.991 Y103.255 F585.673 ; 200 ms
G1 X104.611 Y105.217 F327.269 ; 600 ms
G1 X103.737 Y103.471 F585.673 ; 200 ms
G1 X105.293 Y105.321 F725.132 ; 200 ms
G1 X103.443 Y103.575 F763.169 ; 200 ms
G1 X104.316 Y104.157 F314.899 ; 200 ms
G1 X103.443 Y102.509 F559.531 ; 200 ms
G1 X104.316 Y103.333 F360.168 ; 200 ms
G1 X103.443 Y103.333 F261.921 ; 200 ms
G1 X104.316 Y104.157 F360.168 ; 200 ms
G1 X103.008 Y74.558 F8888.533 ; 200 ms
G1 X104.243 Y75.723 F509.354 ; 200 ms
G1 X103.205 Y74.075 F584.372 ; 200 ms
G1 X104.243 Y75.631 F561.087 ; 200 ms
G1 X102.857 Y74.706 F499.872 ; 200 ms
G1 X103.730 Y76.014 F471.816 ; 200 ms
G1 X101.261 Y74.779 F828.268 ; 200 ms
G1 X103.461 Y75.945 F746.884 ; 200 ms
G1 X101.384 Y75.291 F653.129 ; 200 ms
G1 X103.344 Y77.140 F808.549 ; 200 ms
G1 X101.598 Y75.394 F740.824 ; 200 ms
G1 X103.246 Y76.218 F552.802 ; 200 ms
G1 X101.500 Y74.472 F740.824 ; 200 ms
G1 X102.808 Y76.218 F654.537 ; 200 ms
G1 X101.252 Y74.910 F609.760 ; 200 ms
G1 X102.638 Y76.466 F625.034 ; 200 ms
G1 X101.252 Y75.301 F543.235 ; 200 ms
G1 X102.418 Y76.609 F525.589 ; 200 ms
G1 X101.835 Y75.443 F390.890 ; 200 ms
G1 X102.418 Y77.189 F552.240 ; 200 ms
G1 X101.764 Y76.496 F285.866 ; 200 ms
G1 X102.637 Y77.320 F360.168 ; 200 ms
G1 X101.471 Y76.155 F494.442 ; 200 ms
G1 X102.089 Y77.463 F433.946 ; 200 ms
G1 X100.781 Y77.027 F413.713 ; 200 ms
G1 X101.300 Y78.582 F491.991 ; 200 ms
G1 X100.427 Y77.758 F360.168 ; 200 ms
G1 X101.465 Y78.631 F406.966 ; 200 ms
G1 X100.157 Y77.531 F512.745 ; 200 ms
G1 X101.465 Y78.917 F571.730 ; 200 ms
G1 X98.693 Y78.044 F435.911 ; 400 ms
G1 X99.566 Y78.627 F314.899 ; 200 ms
G1 X98.693 Y77.803 F360.168 ; 200 ms
G1 X100.439 Y79.549 F740.824 ; 200 ms
G1 X98.791 Y77.993 F679.906 ; 200 ms
G1 X100.537 Y79.739 F740.824 ; 200 ms
G1 X98.889 Y78.184 F679.906 ; 200 ms
G1 X100.635 Y79.930 F740.824 ; 200 ms
G1 X99.327 Y79.313 F433.946 ; 200 ms
G1 X100.883 Y80.781 F641.746 ; 200 ms
G1 X99.497 Y79.473 F571.730 ; 200 ms
G1 X100.662 Y80.346 F436.851 ; 200 ms
G1 X99.497 Y79.909 F373.346 ; 200 ms
G1 X100.079 Y81.655 F552.240 ; 200 ms
G1 X99.497 Y81.001 F262.795 ; 200 ms
G1 X100.151 Y81.874 F327.269 ; 200 ms
G1 X99.278 Y81.050 F360.168 ; 200 ms
G1 X100.443 Y82.216 F494.442 ; 200 ms
G1 X99.826 Y80.908 F433.946 ; 200 ms
G1 X101.134 Y81.344 F413.713 ; 200 ms
G1 X100.615 Y79.789 F491.991 ; 200 ms
G1 X101.488 Y80.613 F360.168 ; 200 ms
G1 X100.102 Y79.305 F571.730 ; 200 ms
G1 X101.410 Y80.539 F539.642 ; 200 ms
G1 X100.245 Y79.231 F525.589 ; 200 ms
G1 X101.410 Y79.668 F373.346 ; 200 ms
G1 X100.827 Y77.921 F552.240 ; 200 ms
G1 X102.136 Y78.504 F429.612 ; 200 ms
G1 X100.750 Y77.196 F571.730 ; 200 ms
G1 X102.136 Y78.752 F625.034 ; 200 ms
G1 X100.580 Y77.283 F641.746 ; 200 ms
G1 X101.070 Y79.030 F544.076 ; 200 ms
G1 X99.324 Y78.540 F544.076 ; 200 ms
G1 X99.978 Y79.520 F353.463 ; 200 ms
G1 X98.998 Y78.481 F428.314 ; 200 ms
G1 X100.848 Y80.331 F784.877 ; 200 ms
G1 X99.102 Y78.585 F740.824 ; 200 ms
G1 X99.836 Y79.363 F320.873 ; 200 ms
G1 X99.346 Y77.895 F464.378 ; 200 ms
G1 X99.963 Y78.385 F236.453 ; 200 ms
G1 X98.113 Y76.638 F381.584 ; 400 ms
G1 X99.669 Y78.107 F641.746 ; 200 ms
G1 X98.283 Y76.551 F625.034 ; 200 ms
G1 X99.669 Y76.988 F435.911 ; 200 ms
G1 X98.283 Y76.405 F451.029 ; 200 ms
G1 X99.156 Y76.988 F314.899 ; 200 ms
G1 X98.283 Y76.164 F360.168 ; 200 ms
G1 X99.839 Y77.632 F641.746 ; 200 ms
G1 X98.453 Y76.978 F459.750 ; 200 ms
G1 X99.070 Y78.286 F433.946 ; 200 ms
G1 X97.762 Y77.051 F539.642 ; 200 ms
G1 X98.635 Y78.359 F471.816 ; 200 ms
G1 X97.762 Y77.535 F360.168 ; 200 ms
G1 X98.635 Y78.408 F370.412 ; 200 ms
G1 X97.762 Y77.584 F360.168 ; 200 ms
G1 X98.635 Y78.457 F370.412 ; 200 ms
G1 X95.143 Y74.965 F740.824 ; 400 ms
G1 X96.791 Y76.521 F679.906 ; 200 ms
G1 X95.143 Y74.775 F720.335 ; 200 ms
G1 X96.889 Y76.423 F720.335 ; 200 ms
G1 X95.241 Y74.867 F679.906 ; 200 ms
G1 X96.987 Y76.613 F740.824 ; 200 ms
G1 X95.339 Y75.058 F679.906 ; 200 ms
G1 X97.085 Y76.804 F740.824 ; 200 ms
G1 X95.777 Y75.569 F539.642 ; 200 ms
G1 X97.332 Y77.037 F641.746 ; 200 ms
G1 X95.946 Y75.729 F571.730 ; 200 ms
G1 X97.112 Y76.602 F436.851 ; 200 ms
G1 X95.946 Y76.166 F373.346 ; 200 ms
G1 X96.529 Y77.912 F552.240 ; 200 ms
G1 X95.875 Y77.329 F262.795 ; 200 ms
G1 X96.748 Y77.983 F327.269 ; 200 ms
G1 X95.875 Y76.818 F436.851 ; 200 ms
G1 X97.040 Y77.435 F395.648 ; 200 ms
G1 X96.423 Y76.127 F433.946 ; 200 ms
G1 X97.731 Y76.564 F413.713 ; 200 ms
G1 X97.212 Y75.786 F280.543 ; 200 ms
G1 X98.085 Y76.610 F360.168 ; 200 ms
G1 X97.047 Y75.510 F453.783 ; 200 ms
G1 X98.355 Y76.745 F539.642 ; 200 ms
G1 X96.969 Y75.872 F491.396 ; 200 ms
G1 X98.355 Y76.308 F435.911 ; 200 ms
G1 X97.772 Y74.562 F552.240 ; 200 ms
G1 X98.645 Y75.386 F360.168 ; 200 ms
G1 X97.772 Y74.513 F370.412 ; 200 ms
G1 X99.420 Y76.259 F720.335 ; 200 ms
G1 X95.928 Y72.963 F720.335 ; 400 ms
G1 X97.576 Y74.709 F720.335 ; 200 ms
G1 X95.830 Y73.401 F654.537 ; 200 ms
G1 X97.138 Y74.635 F539.642 ; 200 ms
G1 X95.583 Y73.167 F641.746 ; 200 ms
G1 X96.969 Y74.475 F571.730 ; 200 ms
G1 X95.803 Y73.089 F543.235 ; 200 ms
G1 X96.969 Y73.526 F373.346 ; 200 ms
G1 X96.386 Y71.780 F552.240 ; 200 ms
G1 X97.040 Y73.856 F653.129 ; 200 ms
G1 X96.167 Y73.032 F360.168 ; 200 ms
G1 X97.332 Y73.856 F428.199 ; 200 ms
G1 X96.715 Y72.548 F433.946 ; 200 ms
G1 X98.023 Y73.166 F433.946 ; 200 ms
G1 X96.715 Y72.646 F422.211 ; 200 ms
G1 X97.588 Y73.166 F304.725 ; 200 ms
G1 X96.715 Y71.780 F491.396 ; 200 ms
G1 X98.101 Y73.088 F571.730 ; 200 ms
G1 X96.793 Y72.434 F438.759 ; 200 ms
G1 X97.958 Y73.088 F400.922 ; 200 ms
G1 X96.650 Y70.757 F400.922 ; 400 ms
G1 X98.981 Y72.065 F400.922 ; 400 ms
G1 X98.327 Y70.965 F383.930 ; 200 ms
G1 X98.981 Y71.658 F285.866 ; 200 ms
G4 P1000 ; pause

; End of music G-code