; Generated music G-code
; X axis = melody 1
; Y axis = melody 2

G21 ; use millimeters
G90 ; absolute positioning
G28 X Y ; home x and y
M73 P1 R9
M73 Q1 S9
G0 X100.000 Y100.000 F2000 ; move to start position

G4 P200 ; pause
G4 P200 ; pause
G4 P200 ; pause
G4 P200 ; pause
G4 P200 ; pause
G4 P200 ; pause
G4 P200 ; pause
G4 P200 ; pause
G4 P200 ; pause
G1 X101.746 Y101.746 F740.824 ; 200 ms
G1 X100.000 Y100.000 F740.824 ; 200 ms
G1 X101.648 Y101.746 F720.335 ; 200 ms
G1 X100.000 Y100.000 F720.335 ; 200 ms
G1 X101.746 Y101.746 F740.824 ; 200 ms
G1 X100.098 Y100.000 F720.335 ; 200 ms
G1 X101.746 Y101.746 F720.335 ; 200 ms
G1 X100.000 Y100.000 F740.824 ; 200 ms
G1 X101.746 Y101.746 F740.824 ; 200 ms
G1 X100.438 Y100.000 F654.537 ; 200 ms
G1 X101.746 Y101.556 F609.760 ; 200 ms
G1 X100.191 Y100.248 F609.760 ; 200 ms
G1 X101.576 Y101.803 F625.034 ; 200 ms
G1 X100.191 Y101.803 F415.774 ; 200 ms
G1 X101.356 Y102.386 F390.890 ; 200 ms
G1 X100.773 Y101.220 F390.890 ; 200 ms
G1 X101.356 Y102.386 F390.890 ; 200 ms
G1 X100.773 Y101.513 F314.899 ; 200 ms
G1 X101.356 Y102.386 F314.899 ; 200 ms
G1 X100.702 Y101.803 F262.795 ; 200 ms
G1 X101.356 Y102.676 F327.269 ; 200 ms
G1 X100.483 Y102.094 F314.899 ; 200 ms
G1 X101.066 Y103.259 F390.890 ; 200 ms
G1 X100.483 Y102.094 F390.890 ; 200 ms
G1 X101.791 Y102.967 F471.816 ; 200 ms
G1 X100.483 Y102.094 F471.816 ; 200 ms
G1 X101.356 Y103.402 F471.816 ; 200 ms
G1 X100.483 Y102.965 F292.837 ; 200 ms
G1 X101.356 Y103.402 F292.837 ; 200 ms
G1 X100.483 Y102.965 F292.837 ; 200 ms
G1 X101.356 Y104.003 F406.966 ; 200 ms
G1 X100.318 Y103.130 F406.966 ; 200 ms
G1 X101.626 Y104.169 F501.026 ; 200 ms
G1 X100.318 Y103.130 F501.026 ; 200 ms
G1 X101.704 Y104.438 F571.730 ; 200 ms
G1 X100.318 Y103.856 F451.029 ; 200 ms
G1 X101.704 Y104.438 F451.029 ; 200 ms
G1 X100.538 Y102.692 F314.899 ; 400 ms
G1 X102.284 Y103.858 F314.899 ; 400 ms
G1 X101.411 Y102.112 F585.673 ; 200 ms
G1 X104.707 Y103.858 F559.531 ; 400 ms
G1 X102.961 Y102.985 F585.673 ; 200 ms
G1 X104.707 Y104.633 F720.335 ; 200 ms
G1 X103.059 Y102.887 F720.335 ; 200 ms
G1 X106.552 Y106.379 F740.824 ; 400 ms
G1 X105.244 Y104.633 F654.537 ; 200 ms
G1 X106.799 Y105.941 F609.760 ; 200 ms
G1 X105.244 Y104.473 F641.746 ; 200 ms
G1 X106.629 Y104.473 F415.774 ; 200 ms
G1 X105.244 Y102.917 F625.034 ; 200 ms
G1 X106.409 Y103.500 F390.890 ; 200 ms
G1 X105.244 Y101.169 F390.890 ; 400 ms
G1 X106.409 Y102.915 F314.899 ; 400 ms
G1 X105.101 Y101.750 F262.795 ; 400 ms
G1 X105.974 Y102.404 F327.269 ; 200 ms
G1 X104.808 Y100.073 F390.890 ; 400 ms
G1 X108.733 Y102.692 F471.816 ; 600 ms
G1 X107.860 Y102.255 F292.837 ; 200 ms
G1 X108.296 Y103.129 F292.837 ; 200 ms
G1 X107.423 Y102.692 F292.837 ; 200 ms
G1 X108.296 Y104.078 F491.396 ; 200 ms
G1 X106.910 Y103.205 F491.396 ; 200 ms
G1 X109.527 Y104.951 F471.816 ; 400 ms
G1 X108.361 Y104.368 F390.890 ; 200 ms
G1 X110.109 Y107.865 F390.890 ; 600 ms
G1 X108.361 Y105.245 F314.899 ; 600 ms
G1 X109.234 Y105.828 F314.899 ; 200 ms
G1 X107.488 Y102.532 F559.531 ; 400 ms
G1 X109.234 Y103.405 F585.673 ; 200 ms
G1 X108.652 Y101.757 F524.434 ; 200 ms
G1 X110.300 Y102.339 F524.434 ; 200 ms
G1 X108.554 Y100.593 F740.824 ; 200 ms
G1 X109.136 Y102.339 F552.240 ; 200 ms
G1 X107.828 Y100.593 F654.537 ; 200 ms
G1 X109.384 Y101.901 F609.760 ; 200 ms
G1 X107.828 Y100.433 F641.746 ; 200 ms
G1 X110.600 Y100.433 F415.774 ; 400 ms
G1 X109.435 Y99.850 F390.890 ; 200 ms
G1 X110.600 Y102.181 F390.890 ; 400 ms
G1 X109.435 Y100.435 F314.899 ; 400 ms
G1 X110.743 Y101.600 F262.795 ; 400 ms
G1 X109.870 Y100.946 F327.269 ; 200 ms
G1 X111.035 Y103.277 F390.890 ; 400 ms
G1 X108.419 Y101.531 F471.816 ; 400 ms
G1 X109.292 Y102.839 F471.816 ; 200 ms
G1 X106.673 Y101.530 F292.837 ; 600 ms
G1 X108.749 Y103.276 F406.966 ; 400 ms
G1 X107.441 Y102.403 F471.816 ; 200 ms
G1 X108.479 Y103.711 F501.026 ; 200 ms
G1 X107.093 Y102.838 F491.396 ; 200 ms
G1 X108.479 Y103.420 F451.029 ; 200 ms
G1 X107.897 Y102.034 F451.029 ; 200 ms
G1 X108.479 Y102.908 F314.899 ; 200 ms
G1 X107.897 Y102.471 F218.426 ; 200 ms
G1 X109.643 Y103.636 F314.899 ; 400 ms
G1 X108.770 Y101.890 F585.673 ; 200 ms
G1 X112.066 Y103.636 F559.531 ; 400 ms
G1 X110.320 Y101.890 F740.824 ; 200 ms
G1 X110.903 Y103.538 F524.434 ; 200 ms
G1 X109.254 Y101.792 F720.335 ; 200 ms
G1 X112.747 Y105.285 F740.824 ; 400 ms
G1 X111.439 Y105.285 F392.438 ; 200 ms
G1 X114.550 Y107.901 F609.760 ; 400 ms
G1 X113.164 Y107.901 F415.774 ; 200 ms
G1 X114.550 Y109.209 F571.730 ; 200 ms
G1 X112.802 Y105.713 F390.890 ; 600 ms
G1 X113.967 Y107.459 F314.899 ; 400 ms
G1 X112.659 Y106.293 F262.795 ; 400 ms
G1 X113.532 Y106.876 F314.899 ; 200 ms
G1 X112.367 Y104.545 F390.890 ; 400 ms
G1 X114.983 Y106.291 F471.816 ; 400 ms
G1 X114.546 Y105.674 F226.831 ; 200 ms
G1 X117.166 Y106.984 F292.837 ; 600 ms
G1 X116.292 Y105.598 F491.396 ; 200 ms
G1 X117.678 Y106.471 F491.396 ; 200 ms
G1 X115.062 Y104.725 F471.816 ; 400 ms
G1 X116.228 Y105.307 F390.890 ; 200 ms
G1 X115.062 Y102.977 F390.890 ; 400 ms
G1 X116.228 Y104.723 F314.899 ; 400 ms
G1 X114.919 Y104.140 F429.612 ; 200 ms
G1 X116.305 Y105.448 F571.730 ; 200 ms
G1 X114.919 Y104.865 F451.029 ; 200 ms

; End of music G-code