; Generated music G-code
; X axis = melody 1
; Y axis = melody 2

G21 ; use millimeters
G90 ; absolute positioning
G28 X Y ; home x and y
M73 P1 R9
M73 Q1 S9
G0 X50.000 Y50.000 F2000 ; move to start position

G4 P5200 ; pause
G1 X102.892 Y50.000 F466.691 ; 6800 ms
G1 X101.726 Y50.000 F349.623 ; 200 ms
G1 X103.034 Y51.556 F609.760 ; 200 ms
G1 X95.256 Y45.729 F583.126 ; 1000 ms
G1 X97.002 Y47.284 F701.577 ; 200 ms
G1 X93.302 Y45.434 F620.499 ; 400 ms
G1 X94.227 Y47.284 F620.499 ; 200 ms
G1 X90.527 Y45.434 F620.499 ; 400 ms
G1 X92.604 Y46.359 F681.967 ; 200 ms
G1 X87.365 Y43.740 F585.673 ; 600 ms
G1 X88.239 Y45.486 F585.673 ; 200 ms
G1 X86.683 Y45.486 F466.691 ; 200 ms
G1 X87.991 Y47.042 F609.760 ; 200 ms
G1 X86.435 Y45.876 F583.126 ; 200 ms
G1 X87.991 Y45.876 F466.691 ; 200 ms
G1 X86.435 Y44.711 F583.126 ; 200 ms
G1 X87.601 Y46.267 F583.126 ; 200 ms
G1 X86.435 Y46.267 F349.623 ; 200 ms
G1 X87.601 Y47.575 F525.589 ; 200 ms
G1 X84.490 Y45.725 F542.958 ; 400 ms
G1 X89.156 Y45.725 F466.691 ; 600 ms
G1 X87.410 Y44.169 F701.577 ; 200 ms
G1 X89.260 Y45.094 F620.499 ; 200 ms
G1 X87.410 Y45.094 F554.992 ; 200 ms
G1 X89.260 Y46.019 F620.499 ; 200 ms
G1 X87.410 Y46.019 F554.992 ; 200 ms
G1 X89.260 Y46.944 F620.499 ; 200 ms
G1 X87.184 Y46.290 F653.129 ; 200 ms
G1 X88.930 Y47.270 F600.703 ; 200 ms
G1 X87.950 Y45.524 F600.703 ; 200 ms
G1 X89.696 Y45.524 F523.842 ; 200 ms
G1 X88.823 Y43.778 F585.673 ; 200 ms
G1 X90.379 Y43.778 F466.691 ; 200 ms
G1 X88.823 Y42.470 F609.760 ; 200 ms
G1 X91.934 Y44.800 F583.126 ; 400 ms
G1 X90.769 Y43.245 F583.126 ; 200 ms
G1 X94.265 Y43.245 F349.623 ; 600 ms
G1 X86.487 Y37.418 F583.126 ; 1000 ms
G1 X88.337 Y38.583 F655.936 ; 200 ms
G1 X86.260 Y37.658 F681.967 ; 200 ms
G4 P200 ; pause
G1 X88.337 Y37.658 F622.957 ; 200 ms
G1 X87.412 Y37.658 F277.495 ; 200 ms
G1 X89.488 Y38.583 F681.967 ; 200 ms
G1 X88.563 Y38.583 F277.495 ; 200 ms
G4 P1000 ; pause
G1 X90.640 Y38.583 F622.957 ; 200 ms
G1 X89.475 Y37.849 F413.214 ; 200 ms
G1 X92.586 Y40.180 F583.126 ; 400 ms
G1 X91.420 Y38.624 F583.126 ; 200 ms
G1 X92.976 Y39.790 F583.126 ; 200 ms
G1 X91.230 Y38.624 F629.799 ; 200 ms
G1 X93.080 Y39.549 F620.499 ; 200 ms
G1 X92.155 Y37.699 F620.499 ; 200 ms
G1 X95.855 Y39.549 F620.499 ; 400 ms
G1 X93.778 Y38.624 F681.967 ; 200 ms
G1 X94.703 Y40.701 F681.967 ; 200 ms
G1 X93.538 Y40.701 F349.623 ; 200 ms
G1 X96.649 Y43.032 F583.126 ; 400 ms
G1 X95.484 Y41.476 F583.126 ; 200 ms
G1 X97.039 Y41.476 F466.691 ; 200 ms
G1 X95.189 Y40.310 F655.936 ; 200 ms
G1 X100.428 Y42.930 F585.673 ; 600 ms
G1 X99.555 Y41.184 F585.673 ; 200 ms
G1 X101.405 Y41.184 F554.992 ; 200 ms
G1 X99.849 Y41.184 F466.691 ; 200 ms
G1 X101.595 Y42.057 F585.673 ; 200 ms
G1 X100.722 Y40.310 F585.673 ; 200 ms
G1 X101.595 Y40.310 F261.921 ; 200 ms
G4 P200 ; pause
G1 X100.430 Y39.728 F390.890 ; 200 ms
G4 P200 ; pause
G1 X101.595 Y41.283 F583.126 ; 200 ms
G4 P400 ; pause
G1 X100.430 Y39.728 F583.126 ; 200 ms
G4 P200 ; pause
G1 X101.410 Y39.728 F293.996 ; 200 ms
G1 X96.785 Y39.728 F277.495 ; 1000 ms
G4 P200 ; pause
G1 X100.277 Y39.728 F261.921 ; 800 ms
G4 P1000 ; pause
G1 X96.781 Y39.728 F349.623 ; 600 ms
G1 X98.631 Y39.728 F277.495 ; 400 ms
G1 X97.706 Y38.172 F542.958 ; 200 ms
G4 P200 ; pause
G1 X99.262 Y39.097 F542.958 ; 200 ms
G1 X98.337 Y39.097 F277.495 ; 200 ms
G4 P1200 ; pause
G1 X99.317 Y39.097 F293.996 ; 200 ms
G4 P400 ; pause
G1 X98.443 Y39.097 F261.921 ; 200 ms
G4 P1000 ; pause
G1 X101.940 Y39.097 F349.623 ; 600 ms
G4 P400 ; pause
G1 X100.774 Y37.541 F583.126 ; 200 ms
G1 X101.940 Y37.541 F349.623 ; 200 ms
G4 P200 ; pause
G1 X100.774 Y37.541 F349.623 ; 200 ms
G4 P400 ; pause
G1 X102.624 Y37.541 F277.495 ; 400 ms
G4 P1600 ; pause
G1 X101.459 Y37.541 F349.623 ; 200 ms
G1 X103.014 Y38.707 F583.126 ; 200 ms
G1 X101.849 Y37.151 F583.126 ; 200 ms
G4 P200 ; pause
G1 X104.180 Y37.151 F349.623 ; 400 ms
G1 X98.630 Y37.151 F277.495 ; 1200 ms
G1 X99.795 Y37.151 F349.623 ; 200 ms
G1 X98.240 Y35.986 F583.126 ; 200 ms
G1 X99.405 Y37.541 F583.126 ; 200 ms
G4 P400 ; pause
G1 X98.240 Y37.541 F349.623 ; 200 ms
G1 X101.732 Y37.541 F261.921 ; 800 ms
G4 P800 ; pause
G1 X100.567 Y37.541 F349.623 ; 200 ms
G4 P1600 ; pause
G1 X101.492 Y37.541 F277.495 ; 200 ms
G4 P1000 ; pause
G1 X100.619 Y37.541 F261.921 ; 200 ms
G1 X101.201 Y38.707 F390.890 ; 200 ms
G4 P2000 ; pause
G1 X99.646 Y38.707 F466.691 ; 200 ms
G4 P1200 ; pause
G1 X100.519 Y40.453 F585.673 ; 200 ms
G1 X97.026 Y38.707 F585.673 ; 400 ms
G1 X100.138 Y38.707 F466.691 ; 400 ms
G1 X98.582 Y37.834 F535.166 ; 200 ms
G1 X107.832 Y37.834 F554.992 ; 1000 ms
G1 X105.755 Y37.834 F622.957 ; 200 ms
G1 X117.409 Y37.834 F349.623 ; 2000 ms
G4 P200 ; pause
G1 X116.244 Y37.834 F349.623 ; 200 ms
G1 X118.321 Y38.814 F688.846 ; 200 ms
G1 X117.341 Y36.737 F688.846 ; 200 ms
G1 X119.417 Y37.717 F688.846 ; 200 ms
G1 X118.437 Y37.717 F293.996 ; 200 ms
G1 X120.514 Y38.697 F688.846 ; 200 ms
G1 X119.534 Y36.621 F688.846 ; 200 ms
G1 X121.610 Y37.546 F681.967 ; 200 ms
G4 P200 ; pause
G1 X117.910 Y37.546 F277.495 ; 800 ms
G1 X131.895 Y37.546 F349.623 ; 2400 ms
G1 X127.742 Y37.546 F622.957 ; 400 ms
G1 X129.592 Y37.546 F554.992 ; 200 ms
G1 X127.742 Y36.673 F613.692 ; 200 ms
G1 X129.488 Y37.546 F585.673 ; 200 ms
G1 X128.615 Y35.800 F585.673 ; 200 ms
G1 X130.171 Y35.800 F466.691 ; 200 ms
G1 X127.060 Y33.469 F583.126 ; 400 ms
G1 X128.225 Y35.024 F583.126 ; 200 ms
G1 X126.669 Y33.859 F583.126 ; 200 ms
G1 X128.415 Y35.024 F629.799 ; 200 ms
G1 X124.716 Y32.694 F655.936 ; 400 ms
G1 X126.566 Y32.694 F554.992 ; 200 ms
G1 X125.400 Y32.694 F349.623 ; 200 ms
G1 X127.477 Y32.694 F622.957 ; 200 ms
G1 X126.311 Y32.694 F349.623 ; 200 ms
G1 X128.388 Y33.674 F688.846 ; 200 ms
G1 X127.408 Y33.674 F293.996 ; 200 ms
G1 X131.108 Y33.674 F554.992 ; 400 ms
G1 X127.615 Y33.674 F523.842 ; 400 ms
G1 X128.540 Y35.524 F620.499 ; 200 ms
G1 X126.690 Y34.599 F620.499 ; 200 ms
G1 X128.767 Y35.524 F681.967 ; 200 ms
G1 X125.992 Y35.524 F277.495 ; 600 ms
G1 X128.069 Y36.504 F688.846 ; 200 ms
G4 P600 ; pause
G1 X126.219 Y36.504 F554.992 ; 200 ms
G1 X128.295 Y37.484 F688.846 ; 200 ms
G1 X127.370 Y37.484 F277.495 ; 200 ms
G4 P600 ; pause
G1 X129.447 Y37.484 F622.957 ; 200 ms
G1 X127.597 Y36.559 F620.499 ; 200 ms
G1 X129.343 Y37.432 F585.673 ; 200 ms
G1 X128.470 Y35.685 F585.673 ; 200 ms
G1 X130.320 Y35.685 F554.992 ; 200 ms
G1 X128.470 Y34.812 F613.692 ; 200 ms
G1 X130.216 Y35.685 F585.673 ; 200 ms
G1 X129.343 Y33.939 F585.673 ; 200 ms
G1 X134.010 Y37.436 F583.126 ; 600 ms
G1 X132.844 Y35.880 F583.126 ; 200 ms
G1 X134.590 Y37.045 F629.799 ; 200 ms
G1 X128.368 Y32.384 F583.126 ; 800 ms
G1 X129.533 Y32.384 F349.623 ; 200 ms
G1 X127.978 Y31.218 F583.126 ; 200 ms
G1 X129.143 Y32.774 F583.126 ; 200 ms
G1 X127.978 Y32.774 F349.623 ; 200 ms
G4 P400 ; pause
G1 X131.474 Y32.774 F349.623 ; 600 ms
G1 X129.514 Y32.774 F293.996 ; 400 ms
G4 P600 ; pause
G1 X130.494 Y32.774 F293.996 ; 200 ms
G4 P400 ; pause
G1 X126.794 Y32.774 F277.495 ; 800 ms
G1 X127.719 Y34.330 F542.958 ; 200 ms
G4 P600 ; pause
G1 X126.163 Y34.330 F466.691 ; 200 ms
G1 X127.088 Y34.330 F277.495 ; 200 ms
G1 X120.096 Y34.330 F349.623 ; 1200 ms
G4 P400 ; pause
G1 X123.207 Y34.330 F466.691 ; 400 ms
G4 P1200 ; pause
G1 X120.588 Y34.330 F261.921 ; 600 ms
G4 P200 ; pause
G1 X121.461 Y34.330 F261.921 ; 200 ms
G4 P200 ; pause
G1 X119.715 Y34.330 F261.921 ; 400 ms
G1 X124.376 Y34.330 F349.623 ; 800 ms
G4 P200 ; pause
G1 X123.211 Y34.330 F349.623 ; 200 ms
G4 P1400 ; pause
G1 X125.061 Y34.330 F277.495 ; 400 ms
G4 P400 ; pause
G1 X124.136 Y34.330 F277.495 ; 200 ms
G4 P200 ; pause
G1 X126.096 Y34.330 F293.996 ; 400 ms
G4 P3000 ; pause
G1 X125.223 Y34.330 F261.921 ; 200 ms
G4 P600 ; pause
G1 X126.969 Y34.330 F261.921 ; 400 ms
G1 X125.804 Y32.774 F583.126 ; 200 ms
G4 P200 ; pause
G1 X126.969 Y32.774 F349.623 ; 200 ms
G1 X125.413 Y32.774 F466.691 ; 200 ms
G1 X131.240 Y32.774 F349.623 ; 1000 ms
G4 P200 ; pause
G1 X128.910 Y32.774 F349.623 ; 400 ms
G4 P800 ; pause
G1 X132.610 Y32.774 F277.495 ; 800 ms
G4 P400 ; pause
G1 X130.760 Y32.774 F277.495 ; 400 ms
G4 P200 ; pause
G1 X132.720 Y32.774 F293.996 ; 400 ms
G4 P2600 ; pause
G1 X130.973 Y32.774 F261.921 ; 400 ms
G4 P800 ; pause
G1 X132.720 Y32.774 F261.921 ; 400 ms
G1 X131.554 Y31.218 F583.126 ; 200 ms
G4 P800 ; pause
G1 X132.720 Y32.774 F583.126 ; 200 ms
G1 X128.053 Y29.278 F583.126 ; 600 ms
G1 X129.608 Y29.278 F466.691 ; 200 ms
G4 P5200 ; pause

; End of music G-code