; Generated music G-code
; X axis = melody 1
; Y axis = melody 2

G21 ; use millimeters
G90 ; absolute positioning
G28 X Y ; home x and y
M73 P1 R9
M73 Q1 S9
G0 X100.000 Y100.000 F2000 ; move to start position

G4 P5000 ; pause
G1 X100.778 Y100.734 F320.873 ; 200 ms
G1 X95.333 Y89.845 F521.776 ; 1400 ms
G1 X96.111 Y90.579 F320.873 ; 200 ms
G1 X85.999 Y70.356 F521.776 ; 2600 ms
G1 X86.777 Y71.090 F320.873 ; 200 ms
G1 X85.221 Y67.979 F521.776 ; 400 ms
G1 X86.777 Y69.447 F320.873 ; 400 ms
G1 X82.888 Y61.669 F521.776 ; 1000 ms
G1 X84.444 Y63.137 F320.873 ; 400 ms
G1 X83.666 Y61.581 F521.776 ; 200 ms
G1 X84.249 Y62.747 F390.890 ; 200 ms
G1 X82.863 Y62.093 F459.750 ; 200 ms
G1 X86.752 Y69.871 F521.776 ; 1000 ms
G1 X85.879 Y69.093 F350.789 ; 200 ms
G1 X86.804 Y69.093 F277.495 ; 200 ms
G1 X85.879 Y68.220 F381.584 ; 200 ms
G1 X86.804 Y68.220 F277.495 ; 200 ms
G1 X85.879 Y67.347 F381.584 ; 200 ms
G1 X86.804 Y67.347 F277.495 ; 200 ms
G1 X85.765 Y66.422 F417.160 ; 200 ms
G1 X86.638 Y66.422 F261.921 ; 200 ms
G1 X84.892 Y62.930 F585.673 ; 400 ms
G1 X85.765 Y64.398 F512.485 ; 200 ms
G1 X84.988 Y62.842 F521.776 ; 200 ms
G1 X86.373 Y63.496 F459.750 ; 200 ms
G1 X84.988 Y62.719 F476.779 ; 200 ms
G1 X86.543 Y65.830 F521.776 ; 400 ms
G1 X85.765 Y65.247 F291.563 ; 200 ms
G1 X86.348 Y66.555 F429.612 ; 200 ms
G1 X84.962 Y65.901 F459.750 ; 200 ms
G1 X85.740 Y67.457 F521.776 ; 200 ms
G1 X84.962 Y66.723 F320.873 ; 200 ms
G1 X85.740 Y68.278 F521.776 ; 200 ms
G1 X84.962 Y67.544 F320.873 ; 200 ms
G1 X85.740 Y69.100 F521.776 ; 200 ms
G1 X84.867 Y68.322 F350.789 ; 200 ms
G1 X85.792 Y69.195 F381.584 ; 200 ms
G1 X84.867 Y68.270 F392.438 ; 200 ms
G1 X85.792 Y68.270 F277.495 ; 200 ms
G1 X84.867 Y67.397 F381.584 ; 200 ms
G1 X85.792 Y67.397 F277.495 ; 200 ms
G1 X84.754 Y66.417 F428.314 ; 200 ms
G1 X85.627 Y66.417 F261.921 ; 200 ms
G1 X84.754 Y65.593 F360.168 ; 200 ms
G1 X85.627 Y67.339 F585.673 ; 200 ms
G1 X84.754 Y66.031 F471.816 ; 200 ms
G1 X85.531 Y67.587 F521.776 ; 200 ms
G1 X84.146 Y66.933 F459.750 ; 200 ms
G1 X85.701 Y70.044 F521.776 ; 400 ms
G1 X84.923 Y69.064 F375.345 ; 200 ms
G1 X85.506 Y70.044 F342.042 ; 200 ms
G1 X84.341 Y69.461 F390.890 ; 200 ms
G1 X85.727 Y70.115 F459.750 ; 200 ms
G1 X83.393 Y65.448 F521.776 ; 600 ms
G1 X84.171 Y66.182 F320.873 ; 200 ms
G1 X83.393 Y64.627 F521.776 ; 200 ms
G1 X84.318 Y66.095 F520.617 ; 200 ms
G1 X79.127 Y61.195 F428.314 ; 1000 ms
G1 X80.292 Y63.526 F781.781 ; 200 ms
G1 X79.057 Y62.748 F437.784 ; 200 ms
G1 X80.223 Y63.366 F395.648 ; 200 ms
G1 X79.057 Y62.131 F509.354 ; 200 ms
G1 X79.835 Y62.748 F297.912 ; 200 ms
G1 X78.670 Y61.970 F420.341 ; 200 ms
G1 X79.708 Y62.950 F428.314 ; 200 ms
G1 X78.543 Y62.368 F390.890 ; 200 ms
G1 X80.098 Y65.479 F521.776 ; 400 ms
G1 X79.321 Y64.745 F320.873 ; 200 ms
G1 X80.098 Y66.300 F521.776 ; 200 ms
G1 X79.225 Y66.300 F261.921 ; 200 ms
G1 X80.150 Y67.078 F362.566 ; 200 ms
G1 X79.225 Y66.205 F381.584 ; 200 ms
G1 X80.150 Y66.205 F277.495 ; 200 ms
G1 X79.225 Y65.743 F310.249 ; 200 ms
G1 X81.302 Y67.703 F428.314 ; 400 ms
G1 X80.136 Y67.120 F390.890 ; 200 ms
G1 X81.692 Y70.231 F521.776 ; 400 ms
G1 X80.914 Y69.497 F320.873 ; 200 ms
G1 X81.692 Y71.053 F521.776 ; 200 ms
G1 X80.767 Y70.275 F362.566 ; 200 ms
G1 X81.640 Y70.275 F261.921 ; 200 ms
G1 X80.767 Y69.451 F360.168 ; 200 ms
G1 X81.640 Y69.451 F261.921 ; 200 ms
G1 X80.767 Y68.526 F381.584 ; 200 ms
G1 X81.692 Y69.399 F381.584 ; 200 ms
G1 X80.914 Y67.843 F521.776 ; 200 ms
G1 X81.787 Y67.843 F261.921 ; 200 ms
G1 X80.914 Y67.065 F350.789 ; 200 ms
G1 X81.787 Y67.065 F261.921 ; 200 ms
G1 X81.094 Y66.192 F334.395 ; 200 ms
G1 X82.260 Y66.775 F390.890 ; 200 ms
G1 X80.874 Y65.219 F625.034 ; 200 ms
G1 X82.429 Y65.219 F466.691 ; 200 ms
G1 X80.874 Y63.751 F641.746 ; 200 ms
G1 X82.429 Y63.751 F466.691 ; 200 ms
G1 X80.874 Y62.973 F521.776 ; 200 ms
G1 X82.429 Y62.973 F466.691 ; 200 ms
G1 X80.683 Y62.100 F585.673 ; 200 ms
G1 X81.608 Y63.950 F620.499 ; 200 ms
G1 X79.758 Y63.025 F620.499 ; 200 ms
G1 X81.608 Y64.875 F784.877 ; 200 ms
G1 X79.758 Y61.175 F620.499 ; 400 ms
G1 X81.835 Y62.823 F795.328 ; 200 ms
G1 X76.596 Y57.585 F740.824 ; 600 ms
G1 X78.343 Y58.565 F600.703 ; 200 ms
G1 X76.787 Y57.097 F641.746 ; 200 ms
G1 X79.559 Y60.033 F605.728 ; 400 ms
G1 X78.003 Y60.033 F466.691 ; 200 ms
G1 X79.559 Y60.616 F498.356 ; 200 ms
G1 X78.976 Y59.636 F342.042 ; 200 ms
G1 X80.141 Y60.219 F390.890 ; 200 ms
G1 X78.756 Y58.663 F625.034 ; 200 ms
G1 X80.311 Y58.663 F466.691 ; 200 ms
G1 X78.756 Y57.195 F641.746 ; 200 ms
G1 X80.311 Y57.195 F466.691 ; 200 ms
G1 X78.756 Y55.726 F641.746 ; 200 ms
G1 X80.311 Y56.504 F521.776 ; 200 ms
G1 X78.565 Y54.949 F701.577 ; 200 ms
G1 X87.815 Y64.198 F784.877 ; 1000 ms
G1 X85.738 Y62.452 F813.932 ; 200 ms
G1 X87.485 Y64.198 F740.824 ; 200 ms
G1 X86.611 Y62.452 F585.673 ; 200 ms
G1 X88.358 Y64.198 F740.824 ; 200 ms
G1 X86.611 Y63.325 F585.673 ; 200 ms
G1 X88.167 Y64.794 F641.746 ; 200 ms
G1 X86.611 Y63.408 F625.034 ; 200 ms
G1 X88.167 Y64.876 F641.746 ; 200 ms
G1 X86.611 Y64.876 F466.691 ; 200 ms
G1 X88.167 Y65.459 F498.356 ; 200 ms
G1 X87.584 Y64.479 F342.042 ; 200 ms
G1 X88.750 Y65.061 F390.890 ; 200 ms
G1 X87.364 Y63.506 F625.034 ; 200 ms
G1 X88.920 Y63.506 F466.691 ; 200 ms
G1 X87.364 Y62.038 F641.746 ; 200 ms
G1 X88.920 Y62.038 F466.691 ; 200 ms
G1 X87.364 Y60.569 F641.746 ; 200 ms
G1 X88.920 Y60.569 F466.691 ; 200 ms
G1 X87.070 Y58.719 F784.877 ; 200 ms
G1 X91.223 Y60.275 F665.226 ; 400 ms
G1 X89.146 Y58.198 F880.994 ; 200 ms
G1 X90.071 Y60.275 F681.967 ; 200 ms
G1 X87.995 Y59.541 F660.745 ; 200 ms
G1 X90.325 Y61.872 F988.883 ; 200 ms
G1 X89.548 Y61.254 F297.912 ; 200 ms
G1 X90.325 Y62.078 F339.953 ; 200 ms
G1 X88.770 Y60.844 F297.912 ; 400 ms
G1 X89.548 Y62.009 F420.341 ; 200 ms
G1 X88.770 Y59.932 F665.226 ; 200 ms
G1 X89.548 Y61.488 F521.776 ; 200 ms
G1 X86.436 Y59.932 F521.776 ; 400 ms
G1 X87.992 Y61.401 F641.746 ; 200 ms
G1 X86.436 Y61.401 F466.691 ; 200 ms
G1 X88.182 Y63.147 F740.824 ; 200 ms
G1 X86.332 Y61.297 F784.877 ; 200 ms
G1 X87.257 Y63.147 F620.499 ; 200 ms
G1 X85.407 Y62.222 F620.499 ; 200 ms
G1 X86.332 Y62.956 F354.278 ; 200 ms
G1 X84.256 Y60.880 F880.994 ; 200 ms
G1 X85.181 Y61.614 F354.278 ; 200 ms
G1 X84.403 Y60.058 F521.776 ; 200 ms
G1 X89.070 Y62.392 F521.776 ; 600 ms
G1 X87.514 Y62.392 F466.691 ; 200 ms
G1 X89.364 Y63.947 F725.132 ; 200 ms
G1 X84.126 Y58.709 F740.824 ; 600 ms
G1 X85.872 Y60.177 F684.433 ; 200 ms
G1 X84.316 Y58.709 F641.746 ; 200 ms
G1 X85.785 Y60.177 F622.958 ; 200 ms
G1 X84.229 Y60.177 F466.691 ; 200 ms
G1 X85.785 Y61.645 F641.746 ; 200 ms
G1 X84.229 Y61.645 F466.691 ; 200 ms
G1 X85.785 Y63.114 F641.746 ; 200 ms
G1 X84.039 Y62.241 F585.673 ; 200 ms
G1 X84.912 Y63.987 F585.673 ; 200 ms
G1 X83.062 Y62.137 F784.877 ; 200 ms
G1 X84.912 Y63.010 F613.692 ; 200 ms
G1 X81.212 Y59.310 F784.877 ; 400 ms
G1 X83.288 Y60.696 F748.961 ; 200 ms
G1 X81.212 Y59.771 F681.967 ; 200 ms
G1 X82.085 Y60.464 F334.395 ; 200 ms
G1 X81.307 Y58.264 F700.036 ; 200 ms
G1 X82.287 Y59.137 F393.747 ; 200 ms
G1 X81.307 Y58.157 F415.773 ; 200 ms
G1 X83.157 Y60.007 F784.877 ; 200 ms
G1 X81.601 Y58.539 F641.746 ; 200 ms
G1 X82.767 Y60.094 F583.126 ; 200 ms
G1 X82.184 Y58.929 F390.890 ; 200 ms
G1 X82.877 Y59.909 F360.071 ; 200 ms
G1 X81.897 Y58.440 F529.596 ; 200 ms
G1 X82.590 Y59.314 F334.395 ; 200 ms
G1 X81.717 Y58.334 F393.747 ; 200 ms
G1 X82.334 Y59.111 F297.912 ; 200 ms
G1 X81.717 Y58.418 F278.422 ; 200 ms
G1 X82.495 Y59.036 F297.912 ; 200 ms
G1 X81.877 Y58.258 F297.912 ; 200 ms
G1 X83.954 Y59.814 F778.380 ; 200 ms
G1 X82.398 Y59.036 F521.776 ; 200 ms
G1 X83.954 Y60.270 F595.823 ; 200 ms
G1 X83.176 Y58.715 F521.776 ; 200 ms
G1 X83.954 Y59.880 F420.341 ; 200 ms
G1 X82.398 Y58.646 F297.912 ; 400 ms
G1 X83.271 Y60.392 F585.673 ; 200 ms
G1 X81.525 Y60.392 F261.921 ; 400 ms
G1 X82.398 Y61.169 F350.789 ; 200 ms
G1 X80.065 Y56.503 F521.776 ; 600 ms
G1 X80.990 Y57.280 F362.566 ; 200 ms
G1 X80.065 Y57.280 F277.495 ; 200 ms
G1 X80.990 Y57.973 F346.729 ; 200 ms
G1 X80.065 Y57.048 F392.438 ; 200 ms
G1 X80.990 Y57.048 F277.495 ; 200 ms
G1 X79.952 Y56.068 F428.314 ; 200 ms
G1 X83.448 Y57.816 F390.890 ; 600 ms
G1 X82.865 Y56.651 F390.890 ; 200 ms
G1 X84.030 Y57.234 F390.890 ; 200 ms
G1 X83.448 Y56.068 F390.890 ; 200 ms
G1 X84.030 Y57.303 F409.590 ; 200 ms
G1 X82.865 Y56.720 F390.890 ; 200 ms
G1 X85.196 Y60.640 F342.042 ; 800 ms
G1 X84.158 Y60.150 F344.424 ; 200 ms
G1 X88.311 Y64.070 F428.314 ; 800 ms
G1 X87.272 Y63.580 F344.424 ; 200 ms
G1 X88.311 Y64.560 F428.314 ; 200 ms
G1 X87.145 Y63.522 F468.247 ; 200 ms
G1 X88.311 Y64.622 F480.766 ; 200 ms
G1 X87.386 Y63.457 F446.363 ; 200 ms
G1 X88.551 Y64.382 F446.363 ; 200 ms
G1 X87.626 Y63.919 F310.249 ; 200 ms
G1 X88.791 Y64.502 F390.890 ; 200 ms
G1 X88.209 Y63.336 F390.890 ; 200 ms
G1 X91.705 Y65.084 F390.890 ; 600 ms
G1 X91.122 Y63.919 F390.890 ; 200 ms
G1 X91.705 Y64.899 F342.042 ; 200 ms
G1 X90.540 Y64.316 F390.890 ; 200 ms
G1 X91.122 Y65.482 F390.890 ; 200 ms
G1 X90.540 Y64.502 F342.042 ; 200 ms
G1 X91.520 Y65.084 F342.042 ; 200 ms
G1 X90.937 Y64.046 F357.181 ; 200 ms
G1 X93.013 Y66.006 F428.314 ; 400 ms
G1 X92.088 Y66.006 F277.495 ; 200 ms
G1 X93.013 Y66.879 F381.584 ; 200 ms
G1 X92.140 Y66.879 F261.921 ; 200 ms
G1 X93.013 Y67.657 F350.789 ; 200 ms
G1 X89.124 Y59.879 F521.776 ; 1000 ms
G1 X89.997 Y60.462 F314.899 ; 200 ms
G1 X88.147 Y58.715 F381.584 ; 400 ms
G1 X89.072 Y59.298 F327.968 ; 200 ms
G1 X88.490 Y58.373 F327.968 ; 200 ms
G1 X89.528 Y59.353 F428.314 ; 200 ms
G1 X88.363 Y58.770 F390.890 ; 200 ms
G1 X90.439 Y60.730 F428.314 ; 400 ms
G1 X89.514 Y60.730 F277.495 ; 200 ms
G1 X90.439 Y61.604 F381.584 ; 200 ms
G1 X88.693 Y59.754 F381.584 ; 400 ms
G1 X90.543 Y59.754 F277.495 ; 400 ms
G1 X88.466 Y57.794 F428.314 ; 400 ms
G1 X90.797 Y59.644 F446.363 ; 400 ms
G1 X89.759 Y58.664 F428.314 ; 200 ms
G1 X90.797 Y59.154 F344.424 ; 200 ms
G1 X90.307 Y58.280 F300.352 ; 200 ms
G1 X91.232 Y58.770 F314.026 ; 200 ms
G1 X90.307 Y58.770 F277.495 ; 200 ms
G1 X91.345 Y59.750 F428.314 ; 200 ms
G1 X90.180 Y58.825 F446.363 ; 200 ms
G1 X91.345 Y59.925 F480.766 ; 200 ms
G1 X89.015 Y58.076 F446.363 ; 400 ms
G1 X90.053 Y59.056 F428.314 ; 200 ms
G1 X89.128 Y59.056 F277.495 ; 200 ms
G1 X90.001 Y60.802 F585.673 ; 200 ms
G1 X89.128 Y59.877 F381.584 ; 200 ms
G1 X90.053 Y59.877 F277.495 ; 200 ms
G1 X89.128 Y59.004 F381.584 ; 200 ms
G1 X90.001 Y59.004 F261.921 ; 200 ms
G1 X89.128 Y57.535 F512.485 ; 200 ms
G1 X91.461 Y62.202 F521.776 ; 600 ms
G1 X90.684 Y61.619 F291.563 ; 200 ms
G1 X91.557 Y61.619 F261.921 ; 200 ms
G1 X90.171 Y60.965 F459.750 ; 200 ms
G1 X92.504 Y65.632 F521.776 ; 600 ms
G1 X91.524 Y65.050 F342.042 ; 200 ms
G1 X93.080 Y65.827 F521.776 ; 200 ms
G1 X91.334 Y64.272 F701.577 ; 200 ms
G1 X93.184 Y65.050 F602.051 ; 200 ms
G1 X92.601 Y63.200 F581.872 ; 200 ms
G1 X93.581 Y63.782 F342.042 ; 200 ms
G1 X92.998 Y62.802 F342.042 ; 200 ms
G1 X94.744 Y64.548 F740.824 ; 200 ms
G1 X92.894 Y62.699 F784.877 ; 200 ms
G1 X94.971 Y63.737 F696.487 ; 200 ms
G1 X93.933 Y61.660 F696.487 ; 200 ms
G1 X95.783 Y62.150 F574.129 ; 200 ms
G1 X94.858 Y61.660 F314.026 ; 200 ms
G1 X96.934 Y63.046 F748.961 ; 200 ms
G1 X95.896 Y62.173 F406.966 ; 200 ms
G1 X97.061 Y62.951 F420.341 ; 200 ms
G1 X95.896 Y62.026 F446.363 ; 200 ms
G1 X97.972 Y63.191 F714.361 ; 200 ms
G1 X97.047 Y61.805 F499.872 ; 200 ms
G1 X97.972 Y63.655 F620.499 ; 200 ms
G1 X97.047 Y62.100 F542.958 ; 200 ms
G1 X98.603 Y62.100 F466.691 ; 200 ms
G1 X95.492 Y60.544 F521.776 ; 400 ms
G1 X97.047 Y62.100 F660.000 ; 200 ms
G1 X95.492 Y62.100 F466.691 ; 200 ms
G1 X97.238 Y63.655 F701.577 ; 200 ms
G1 X95.388 Y61.805 F784.877 ; 200 ms
G1 X95.971 Y63.655 F581.872 ; 200 ms
G1 X93.894 Y63.073 F647.019 ; 200 ms
G1 X94.477 Y64.053 F342.042 ; 200 ms
G1 X93.699 Y62.497 F521.776 ; 200 ms
G1 X95.255 Y63.275 F521.776 ; 200 ms
G1 X94.477 Y62.658 F297.912 ; 200 ms
G1 X96.033 Y64.213 F660.000 ; 200 ms
G1 X92.921 Y62.658 F521.776 ; 400 ms
G1 X97.074 Y64.213 F665.226 ; 400 ms
G1 X95.224 Y62.363 F784.877 ; 200 ms
G1 X95.917 Y64.213 F592.649 ; 200 ms
G1 X95.224 Y63.233 F360.071 ; 200 ms
G1 X95.917 Y64.106 F334.395 ; 200 ms
G1 X93.841 Y63.126 F688.846 ; 200 ms
G1 X95.587 Y64.872 F740.824 ; 200 ms
G1 X89.364 Y58.999 F641.746 ; 800 ms
G1 X91.110 Y60.745 F740.824 ; 200 ms
G1 X89.642 Y60.052 F487.088 ; 200 ms
G1 X90.808 Y61.032 F456.804 ; 200 ms
G1 X90.225 Y60.254 F291.563 ; 200 ms
G1 X90.808 Y61.234 F342.042 ; 200 ms
G1 X89.828 Y60.652 F342.042 ; 200 ms
G1 X90.993 Y62.612 F342.042 ; 400 ms
G1 X90.215 Y61.377 F437.784 ; 200 ms
G1 X90.993 Y62.250 F350.789 ; 200 ms
G1 X90.376 Y61.472 F297.912 ; 200 ms
G1 X92.709 Y63.324 F297.912 ; 600 ms
G1 X91.544 Y62.546 F420.341 ; 200 ms
G1 X92.709 Y63.471 F446.363 ; 200 ms
G1 X91.544 Y61.141 F781.781 ; 200 ms
G1 X92.709 Y62.066 F446.363 ; 200 ms
G1 X91.544 Y59.735 F781.781 ; 200 ms
G1 X92.709 Y60.660 F446.363 ; 200 ms
G1 X91.931 Y58.329 F737.153 ; 200 ms
G1 X96.084 Y60.405 F696.487 ; 400 ms
G1 X95.594 Y59.240 F379.269 ; 200 ms
G1 X96.084 Y60.113 F300.352 ; 200 ms
G1 X95.594 Y59.075 F344.424 ; 200 ms
G1 X97.671 Y61.151 F880.994 ; 200 ms
G1 X95.594 Y60.374 F665.226 ; 200 ms
G1 X97.928 Y62.226 F297.912 ; 600 ms
G1 X97.310 Y61.448 F297.912 ; 200 ms
G1 X99.160 Y63.298 F784.877 ; 200 ms
G1 X97.310 Y62.373 F620.499 ; 200 ms
G1 X98.290 Y63.246 F393.747 ; 200 ms
G1 X97.310 Y62.553 F360.071 ; 200 ms
G1 X98.696 Y64.299 F334.395 ; 400 ms
G1 X96.846 Y62.449 F784.877 ; 200 ms
G1 X97.771 Y64.299 F620.499 ; 200 ms
G1 X93.618 Y62.339 F688.846 ; 400 ms
G1 X95.364 Y64.085 F740.824 ; 200 ms
G1 X93.618 Y63.212 F585.673 ; 200 ms
G1 X95.174 Y63.212 F466.691 ; 200 ms
G1 X93.618 Y61.744 F641.746 ; 200 ms
G1 X95.174 Y62.522 F521.776 ; 200 ms
G1 X93.618 Y62.522 F466.691 ; 200 ms
G1 X95.364 Y64.077 F701.577 ; 200 ms
G1 X93.514 Y62.227 F784.877 ; 200 ms
G1 X94.680 Y63.005 F420.341 ; 200 ms
G1 X94.097 Y62.025 F342.042 ; 200 ms
G1 X94.875 Y63.581 F521.776 ; 200 ms
G1 X93.319 Y63.581 F466.691 ; 200 ms
G1 X95.065 Y64.164 F552.240 ; 200 ms
G1 X93.216 Y63.581 F581.872 ; 200 ms
G1 X94.450 Y64.746 F509.354 ; 200 ms
G1 X93.672 Y64.012 F320.873 ; 200 ms
G1 X95.228 Y65.568 F660.000 ; 200 ms
G1 X93.672 Y65.568 F466.691 ; 200 ms
G1 X95.419 Y67.123 F701.577 ; 200 ms
G1 X93.569 Y66.198 F620.499 ; 200 ms
G1 X95.899 Y68.048 F446.363 ; 400 ms
G1 X94.734 Y65.717 F781.781 ; 200 ms
G1 X96.584 Y68.048 F446.363 ; 400 ms
G1 X95.419 Y67.123 F446.363 ; 200 ms
G1 X96.196 Y68.048 F362.566 ; 200 ms
G1 X94.120 Y66.662 F748.961 ; 200 ms
G1 X95.158 Y67.152 F344.424 ; 200 ms
G1 X93.993 Y66.662 F379.269 ; 200 ms
G1 X95.031 Y67.535 F406.966 ; 200 ms
G1 X93.993 Y67.045 F344.424 ; 200 ms
G1 X98.146 Y71.199 F880.994 ; 400 ms
G1 X95.812 Y69.346 F297.912 ; 600 ms
G1 X96.430 Y70.124 F297.912 ; 200 ms
G1 X94.580 Y68.274 F784.877 ; 200 ms
G1 X96.430 Y68.967 F592.649 ; 200 ms
G1 X95.450 Y68.094 F393.747 ; 200 ms
G1 X96.836 Y70.054 F360.071 ; 400 ms
G1 X95.856 Y69.361 F360.071 ; 200 ms
G1 X97.706 Y71.211 F784.877 ; 200 ms
G1 X97.013 Y70.286 F346.729 ; 200 ms
G1 X99.089 Y72.363 F880.994 ; 200 ms
G1 X97.013 Y71.383 F688.846 ; 200 ms
G1 X98.759 Y73.129 F740.824 ; 200 ms
G1 X97.013 Y72.256 F585.673 ; 200 ms
G1 X98.568 Y73.724 F641.746 ; 200 ms
G1 X97.013 Y73.724 F466.691 ; 200 ms
G1 X98.568 Y75.192 F641.746 ; 200 ms
G1 X97.588 Y74.610 F342.042 ; 200 ms
G1 X98.568 Y75.918 F490.348 ; 200 ms
G1 X97.790 Y75.335 F291.563 ; 200 ms
G1 X100.902 Y81.558 F521.776 ; 800 ms
G1 X97.790 Y77.638 F375.345 ; 800 ms
G4 P4400 ; pause

; End of music G-code