; Generated music G-code
; X axis = melody 1
; Y axis = melody 2

G21 ; use millimeters
G90 ; absolute positioning
G28 X Y ; home x and y
M73 P1 R9
M73 Q1 S9
G0 X100.000 Y100.000 F2000 ; move to start position

G4 P4200 ; pause
G1 X102.937 Y101.386 F487.088 ; 400 ms
G1 X100.860 Y99.918 F381.482 ; 400 ms
G1 X103.975 Y101.996 F374.481 ; 600 ms
G1 X102.937 Y101.996 F311.479 ; 200 ms
G4 P6200 ; pause
G1 X104.897 Y106.150 F344.424 ; 800 ms
G1 X99.664 Y95.062 F459.750 ; 1600 ms
G1 X102.775 Y101.285 F521.776 ; 800 ms
G1 X101.998 Y101.285 F233.345 ; 200 ms
G1 X102.775 Y102.840 F521.776 ; 200 ms
G1 X101.998 Y102.840 F233.345 ; 200 ms
G1 X102.923 Y102.840 F277.495 ; 200 ms
G1 X98.256 Y102.840 F233.345 ; 1200 ms
G1 X99.033 Y103.664 F339.953 ; 200 ms
G1 X98.256 Y102.626 F389.190 ; 200 ms
G1 X100.706 Y107.818 F344.424 ; 1000 ms
G1 X100.216 Y106.838 F328.698 ; 200 ms
G1 X101.196 Y108.914 F344.424 ; 400 ms
G1 X100.542 Y107.528 F459.750 ; 200 ms
G1 X101.196 Y108.221 F285.866 ; 200 ms
G1 X99.233 Y104.063 F459.750 ; 600 ms
G1 X100.011 Y104.798 F320.873 ; 200 ms
G1 X98.456 Y101.686 F521.776 ; 400 ms
G1 X99.233 Y101.686 F233.345 ; 200 ms
G1 X98.456 Y100.706 F375.345 ; 200 ms
G1 X98.946 Y101.745 F344.424 ; 200 ms
G1 X98.456 Y100.967 F275.787 ; 200 ms
G1 X99.233 Y101.457 F275.787 ; 200 ms
G1 X98.579 Y100.071 F459.750 ; 200 ms
G1 X99.559 Y100.725 F353.463 ; 200 ms
G1 X98.634 Y100.071 F339.862 ; 200 ms
G1 X101.409 Y100.071 F277.495 ; 600 ms
G1 X100.484 Y99.198 F381.584 ; 200 ms
G1 X103.259 Y99.198 F277.495 ; 600 ms
G1 X100.148 Y97.238 F275.787 ; 800 ms
G1 X101.128 Y98.276 F428.314 ; 200 ms
G1 X100.090 Y97.296 F428.314 ; 200 ms
G1 X101.070 Y98.074 F375.345 ; 200 ms
G1 X100.580 Y97.094 F328.698 ; 200 ms
G1 X101.966 Y97.748 F459.750 ; 200 ms
G1 X100.580 Y96.710 F519.506 ; 200 ms
G1 X106.123 Y99.326 F459.750 ; 800 ms
G1 X103.012 Y96.389 F641.746 ; 400 ms
G1 X107.957 Y101.056 F679.906 ; 600 ms
G1 X106.571 Y101.056 F415.774 ; 200 ms
G1 X108.647 Y102.442 F748.961 ; 200 ms
G1 X107.722 Y100.366 F681.967 ; 200 ms
G1 X108.647 Y100.983 F333.624 ; 200 ms
G1 X106.999 Y99.427 F679.906 ; 200 ms
G1 X108.385 Y99.946 F443.985 ; 200 ms
G1 X107.835 Y98.560 F447.317 ; 200 ms
G1 X109.391 Y99.660 F285.788 ; 400 ms
G1 X108.841 Y98.883 F285.788 ; 200 ms
G1 X109.360 Y99.660 F280.543 ; 200 ms
G1 X107.804 Y98.622 F280.543 ; 400 ms
G1 X111.962 Y98.622 F415.774 ; 600 ms
G1 X110.576 Y97.236 F587.993 ; 200 ms
G1 X112.224 Y98.792 F679.906 ; 200 ms
G1 X110.668 Y97.324 F641.746 ; 200 ms
G1 X112.054 Y98.879 F625.034 ; 200 ms
G1 X110.668 Y98.879 F415.774 ; 200 ms
G1 X111.446 Y100.956 F665.226 ; 200 ms
G1 X107.557 Y98.506 F275.787 ; 1000 ms
G1 X109.205 Y99.284 F546.738 ; 200 ms
G1 X107.819 Y99.284 F415.774 ; 200 ms
G1 X108.858 Y100.264 F428.314 ; 200 ms
G1 X105.918 Y97.149 F428.314 ; 600 ms
G1 X107.994 Y99.109 F428.314 ; 400 ms
G1 X107.014 Y98.071 F428.314 ; 200 ms
G1 X113.944 Y101.341 F459.750 ; 1000 ms
G1 X112.636 Y98.569 F459.750 ; 400 ms
G1 X118.179 Y101.185 F459.750 ; 800 ms
G1 X117.525 Y99.799 F459.750 ; 200 ms
G1 X118.303 Y100.534 F320.873 ; 200 ms
G1 X115.970 Y95.867 F521.776 ; 600 ms
G1 X116.950 Y96.905 F428.314 ; 200 ms
G1 X116.460 Y95.925 F328.698 ; 200 ms
G1 X117.440 Y97.481 F275.787 ; 400 ms
G1 X114.328 Y95.521 F275.787 ; 800 ms
G1 X115.428 Y96.686 F480.766 ; 200 ms
G1 X109.601 Y92.797 F420.341 ; 1000 ms
G1 X110.767 Y94.032 F509.354 ; 200 ms
G1 X109.381 Y92.723 F571.730 ; 200 ms
G1 X110.615 Y93.889 F509.354 ; 200 ms
G1 X109.381 Y93.111 F437.784 ; 200 ms
G1 X110.159 Y94.276 F420.341 ; 200 ms
G1 X109.381 Y93.786 F275.787 ; 200 ms
G1 X110.159 Y94.952 F420.341 ; 200 ms
G1 X107.825 Y93.482 F275.787 ; 600 ms
G1 X110.159 Y98.149 F521.776 ; 600 ms
G1 X109.381 Y97.415 F320.873 ; 200 ms
G1 X112.492 Y103.637 F521.776 ; 800 ms
G1 X112.002 Y102.657 F328.698 ; 200 ms
G1 X112.492 Y103.695 F344.424 ; 200 ms
G1 X111.512 Y102.140 F275.787 ; 400 ms
G1 X113.068 Y103.120 F275.787 ; 400 ms
G1 X110.737 Y101.564 F420.341 ; 400 ms
G1 X113.068 Y104.034 F509.354 ; 400 ms
G1 X111.512 Y100.922 F521.776 ; 400 ms
G1 X112.677 Y102.157 F509.354 ; 200 ms
G1 X111.697 Y101.119 F428.314 ; 200 ms
G1 X112.736 Y102.099 F428.314 ; 200 ms
G1 X111.180 Y101.321 F521.776 ; 200 ms
G1 X115.338 Y103.283 F459.750 ; 600 ms
G1 X113.952 Y102.793 F440.995 ; 200 ms
G1 X115.338 Y103.447 F459.750 ; 200 ms
G1 X114.848 Y102.793 F245.175 ; 200 ms
G1 X115.502 Y103.283 F245.175 ; 200 ms
G1 X114.848 Y101.897 F459.750 ; 200 ms
G1 X116.810 Y103.367 F245.175 ; 600 ms
G1 X115.342 Y101.812 F641.746 ; 200 ms
G1 X116.897 Y102.302 F489.294 ; 200 ms
G1 X115.342 Y100.833 F641.746 ; 200 ms
G1 X116.897 Y101.323 F489.294 ; 200 ms
G1 X114.821 Y100.343 F688.846 ; 200 ms
G1 X115.599 Y101.323 F375.345 ; 200 ms
G1 X112.487 Y99.363 F275.787 ; 800 ms
G1 X113.265 Y101.694 F737.153 ; 200 ms
G1 X112.487 Y100.960 F320.873 ; 200 ms
G1 X113.265 Y103.429 F776.706 ; 200 ms
G1 X112.803 Y100.960 F753.706 ; 200 ms
G1 X113.265 Y101.738 F271.479 ; 200 ms
G1 X111.189 Y99.661 F880.994 ; 200 ms
G1 X112.227 Y100.641 F428.314 ; 200 ms
G1 X111.189 Y98.565 F696.487 ; 200 ms
G1 X113.265 Y99.603 F696.487 ; 200 ms
G1 X110.796 Y97.134 F1047.685 ; 200 ms
G1 X111.961 Y98.368 F509.354 ; 200 ms
G1 X110.796 Y97.979 F368.577 ; 200 ms
G1 X111.413 Y99.145 F395.648 ; 200 ms
G1 X110.635 Y97.910 F218.892 ; 400 ms
G1 X111.870 Y98.688 F218.892 ; 400 ms
G1 X111.253 Y97.708 F347.470 ; 200 ms
G1 X117.482 Y103.937 F880.994 ; 600 ms
G1 X115.406 Y103.320 F649.905 ; 200 ms
G1 X116.183 Y105.789 F776.706 ; 200 ms
G1 X114.628 Y101.128 F737.153 ; 400 ms
G1 X116.704 Y103.204 F880.994 ; 200 ms
G1 X115.724 Y102.622 F342.042 ; 200 ms
G1 X116.307 Y103.399 F291.563 ; 200 ms
G1 X115.142 Y102.665 F206.607 ; 400 ms
G1 X116.307 Y104.221 F291.563 ; 400 ms
G1 X113.838 Y103.638 F761.171 ; 200 ms
G1 X115.914 Y105.715 F880.994 ; 200 ms
G1 X111.247 Y103.381 F521.776 ; 600 ms
G1 X113.581 Y108.048 F521.776 ; 600 ms
G1 X112.803 Y107.466 F291.563 ; 200 ms
G1 X113.581 Y109.021 F521.776 ; 200 ms
G1 X111.504 Y107.061 F428.314 ; 400 ms
G1 X113.060 Y109.021 F375.345 ; 400 ms
G1 X109.949 Y107.553 F258.026 ; 800 ms
G1 X111.909 Y107.553 F293.996 ; 400 ms
G1 X109.949 Y105.593 F415.773 ; 400 ms
G1 X112.889 Y105.593 F293.996 ; 600 ms
G1 X111.909 Y104.555 F428.314 ; 200 ms
G1 X112.399 Y105.535 F328.698 ; 200 ms
G1 X109.459 Y99.305 F344.424 ; 1200 ms
G1 X109.949 Y99.305 F146.999 ; 200 ms
G1 X108.969 Y97.228 F344.424 ; 400 ms
G1 X109.459 Y97.228 F146.999 ; 200 ms
G1 X108.681 Y96.494 F320.873 ; 200 ms
G1 X111.014 Y101.161 F521.776 ; 600 ms
G1 X110.524 Y100.383 F275.787 ; 200 ms
G1 X111.014 Y101.363 F328.698 ; 200 ms
G1 X110.524 Y100.325 F344.424 ; 200 ms
G1 X111.014 Y101.305 F328.698 ; 200 ms
G1 X109.054 Y97.152 F344.424 ; 800 ms
G1 X110.154 Y98.317 F480.766 ; 200 ms
G1 X105.493 Y98.317 F349.623 ; 800 ms
G1 X106.658 Y98.807 F379.269 ; 200 ms
G1 X105.423 Y97.642 F509.354 ; 200 ms
G1 X106.809 Y99.028 F587.993 ; 200 ms
G1 X105.644 Y97.793 F509.354 ; 200 ms
G1 X107.114 Y101.289 F379.269 ; 600 ms
G1 X106.134 Y99.213 F344.424 ; 400 ms
G1 X106.624 Y100.378 F379.269 ; 200 ms
G1 X106.134 Y99.340 F344.424 ; 200 ms
G1 X112.356 Y111.785 F521.776 ; 1600 ms
G1 X111.376 Y110.747 F428.314 ; 200 ms
G1 X111.866 Y111.727 F328.698 ; 200 ms
G1 X110.886 Y110.171 F275.787 ; 400 ms
G1 X112.442 Y111.151 F275.787 ; 400 ms
G1 X110.111 Y109.596 F420.341 ; 400 ms
G1 X112.442 Y112.065 F509.354 ; 400 ms
G1 X110.886 Y108.954 F521.776 ; 400 ms
G1 X112.052 Y109.732 F420.341 ; 200 ms
G1 X110.092 Y107.655 F428.314 ; 400 ms
G1 X111.647 Y108.145 F489.294 ; 200 ms
G1 X107.490 Y106.183 F459.750 ; 600 ms
G1 X108.798 Y108.955 F459.750 ; 400 ms
G1 X107.412 Y108.301 F459.750 ; 200 ms
G1 X108.066 Y108.791 F245.175 ; 200 ms
G1 X107.412 Y107.405 F459.750 ; 200 ms
G1 X108.066 Y107.895 F245.175 ; 200 ms
G1 X107.412 Y106.509 F459.750 ; 200 ms
G1 X108.066 Y106.999 F245.175 ; 200 ms
G1 X107.576 Y105.530 F464.378 ; 200 ms
G1 X109.132 Y106.999 F641.746 ; 200 ms
G1 X104.465 Y105.529 F489.294 ; 600 ms
G1 X104.955 Y106.509 F328.698 ; 200 ms
G1 X104.465 Y105.471 F344.424 ; 200 ms
G1 X104.955 Y106.451 F328.698 ; 200 ms
G1 X103.975 Y104.374 F344.424 ; 400 ms
G1 X104.955 Y105.930 F275.787 ; 400 ms
G1 X102.485 Y105.152 F776.706 ; 200 ms
G1 X102.948 Y106.077 F310.249 ; 200 ms
G1 X102.023 Y105.614 F310.249 ; 200 ms
G1 X104.099 Y107.691 F880.994 ; 200 ms
G1 X103.061 Y106.711 F428.314 ; 200 ms
G1 X104.099 Y107.636 F417.160 ; 200 ms
G1 X102.023 Y107.173 F638.221 ; 200 ms
G1 X104.492 Y109.643 F1047.685 ; 200 ms
G1 X103.714 Y108.477 F420.341 ; 200 ms
G1 X104.492 Y108.866 F260.888 ; 200 ms
G1 X104.103 Y108.088 F260.888 ; 200 ms
G1 X107.992 Y110.033 F260.888 ; 1000 ms
G1 X101.763 Y103.803 F880.994 ; 600 ms
G1 X103.839 Y104.581 F665.226 ; 200 ms
G1 X98.900 Y99.642 F1047.685 ; 400 ms
G1 X99.678 Y101.973 F737.153 ; 200 ms
G1 X97.602 Y99.897 F880.994 ; 200 ms
G1 X98.582 Y101.452 F551.574 ; 200 ms
G1 X97.804 Y99.897 F521.776 ; 200 ms
G1 X98.582 Y100.264 F258.026 ; 200 ms
G1 X97.804 Y98.708 F521.776 ; 200 ms
G1 X99.360 Y99.442 F258.026 ; 400 ms
G1 X96.890 Y98.664 F776.706 ; 200 ms
G1 X98.967 Y100.741 F880.994 ; 200 ms
G1 X91.189 Y96.852 F521.776 ; 1000 ms
G1 X94.300 Y99.789 F641.746 ; 400 ms
G1 X92.744 Y99.011 F521.776 ; 200 ms
G1 X93.522 Y101.087 F665.226 ; 200 ms
G1 X84.966 Y96.809 F260.888 ; 2200 ms
G1 X88.077 Y96.809 F233.345 ; 800 ms
G1 X87.299 Y94.733 F665.226 ; 200 ms
G1 X92.744 Y97.455 F260.888 ; 1400 ms
G1 X88.083 Y95.899 F737.153 ; 400 ms
G1 X89.638 Y100.561 F737.153 ; 400 ms
G1 X87.307 Y99.783 F737.153 ; 200 ms
G1 X89.777 Y100.561 F776.706 ; 200 ms
G1 X88.999 Y98.092 F776.706 ; 200 ms
G1 X89.924 Y98.870 F362.566 ; 200 ms
G1 X84.479 Y96.300 F258.026 ; 1400 ms
G1 X86.035 Y97.768 F641.746 ; 200 ms
G1 X79.812 Y94.657 F521.776 ; 800 ms
G1 X82.924 Y97.594 F641.746 ; 400 ms
G1 X81.368 Y96.816 F521.776 ; 200 ms
G1 X82.924 Y98.284 F641.746 ; 200 ms
G1 X79.812 Y96.729 F521.776 ; 400 ms
G1 X81.368 Y97.248 F491.991 ; 200 ms
G1 X78.596 Y94.631 F571.730 ; 400 ms
G1 X79.982 Y95.409 F476.779 ; 200 ms
G1 X78.596 Y94.023 F587.993 ; 200 ms
G1 X81.368 Y95.579 F476.779 ; 400 ms
G1 X75.145 Y89.706 F641.746 ; 800 ms
G1 X78.442 Y92.817 F679.906 ; 400 ms
G1 X76.363 Y90.614 F302.864 ; 600 ms
G1 X77.056 Y91.653 F374.481 ; 200 ms
G1 X71.864 Y88.188 F374.481 ; 1000 ms
G1 X72.557 Y89.226 F374.481 ; 200 ms
G1 X70.227 Y86.757 F509.354 ; 400 ms
G1 X74.384 Y86.757 F415.774 ; 600 ms
G1 X72.998 Y85.449 F571.730 ; 200 ms
G1 X74.384 Y86.183 F235.254 ; 400 ms
G1 X71.448 Y84.797 F487.088 ; 400 ms
G1 X74.744 Y86.873 F584.372 ; 400 ms
G1 X71.044 Y83.173 F784.877 ; 400 ms
G1 X71.969 Y85.250 F681.967 ; 200 ms
G1 X70.734 Y83.400 F333.624 ; 400 ms
G1 X71.659 Y84.017 F333.624 ; 200 ms
G1 X69.459 Y83.400 F685.494 ; 200 ms
G1 X71.659 Y84.325 F715.964 ; 200 ms
G1 X69.459 Y83.708 F685.494 ; 200 ms
G1 X70.077 Y85.908 F685.494 ; 200 ms
G1 X68.225 Y83.133 F333.624 ; 600 ms
G1 X69.390 Y84.171 F468.247 ; 200 ms
G1 X67.430 Y80.018 F344.424 ; 800 ms
G1 X69.506 Y81.326 F368.132 ; 400 ms
G1 X65.582 Y75.096 F368.132 ; 1200 ms
G1 X72.777 Y75.096 F196.220 ; 2200 ms
G4 P200 ; pause
G1 X72.123 Y75.096 F196.220 ; 200 ms
G4 P8200 ; pause
G1 X74.573 Y80.288 F344.424 ; 1000 ms
G1 X73.919 Y79.595 F285.866 ; 200 ms
G1 X81.113 Y94.840 F459.750 ; 2200 ms
G1 X74.891 Y82.395 F521.776 ; 1600 ms
G1 X75.669 Y83.219 F339.953 ; 200 ms
G1 X74.891 Y83.219 F233.345 ; 200 ms
G1 X75.816 Y83.219 F277.495 ; 200 ms
G1 X75.038 Y82.395 F339.953 ; 200 ms
G1 X77.371 Y82.395 F233.345 ; 600 ms
G1 X76.594 Y81.571 F339.953 ; 200 ms
G1 X78.149 Y81.571 F233.345 ; 400 ms
G1 X77.371 Y80.646 F362.566 ; 200 ms
G1 X79.705 Y80.646 F233.345 ; 600 ms
G1 X78.725 Y79.607 F428.314 ; 200 ms
G1 X84.115 Y91.028 F344.424 ; 2200 ms
G1 X78.882 Y79.941 F459.750 ; 1600 ms
G1 X81.216 Y84.608 F521.776 ; 600 ms
G1 X80.438 Y83.784 F339.953 ; 200 ms
G1 X81.994 Y83.784 F233.345 ; 400 ms
G1 X80.524 Y80.669 F344.424 ; 600 ms
G1 X82.079 Y80.669 F233.345 ; 400 ms
G1 X81.425 Y79.283 F459.750 ; 200 ms
G1 X82.079 Y79.976 F285.866 ; 200 ms
G1 X81.425 Y78.996 F353.463 ; 200 ms
G1 X82.350 Y79.650 F339.862 ; 200 ms
G1 X78.650 Y79.650 F277.495 ; 800 ms
G1 X79.575 Y80.113 F310.249 ; 200 ms
G1 X74.025 Y80.113 F277.495 ; 1200 ms
G1 X77.914 Y82.563 F275.787 ; 1000 ms
G1 X76.934 Y81.524 F428.314 ; 200 ms
G1 X77.973 Y82.014 F344.424 ; 200 ms
G1 X76.013 Y81.034 F328.698 ; 400 ms
G1 X76.503 Y81.812 F275.787 ; 200 ms
G1 X75.725 Y80.832 F375.345 ; 200 ms
G1 X81.269 Y83.449 F459.750 ; 800 ms
G1 X79.960 Y80.677 F459.750 ; 400 ms
G1 X82.732 Y81.985 F459.750 ; 400 ms
G1 X78.065 Y77.580 F641.746 ; 600 ms
G1 X84.658 Y83.802 F679.906 ; 800 ms
G1 X83.272 Y82.416 F587.993 ; 200 ms
G1 X84.658 Y82.416 F415.774 ; 200 ms
G1 X82.581 Y81.031 F748.961 ; 200 ms
G1 X84.431 Y85.184 F681.967 ; 400 ms
G1 X83.506 Y84.566 F333.624 ; 200 ms
G1 X85.154 Y86.122 F679.906 ; 200 ms
G1 X83.506 Y85.197 F566.988 ; 200 ms
G1 X84.892 Y85.975 F476.779 ; 200 ms
G1 X84.342 Y84.589 F447.317 ; 200 ms
G1 X84.861 Y85.367 F280.543 ; 200 ms
G1 X84.084 Y84.817 F285.788 ; 200 ms
G1 X84.861 Y85.336 F280.543 ; 200 ms
G1 X84.084 Y84.786 F285.788 ; 200 ms
G1 X87.195 Y86.862 F280.543 ; 800 ms
G1 X86.676 Y86.084 F280.543 ; 200 ms
G1 X90.833 Y86.084 F415.774 ; 600 ms
G1 X89.448 Y84.776 F571.730 ; 200 ms
G1 X90.833 Y84.776 F415.774 ; 200 ms
G1 X89.448 Y84.257 F443.985 ; 200 ms
G1 X91.096 Y85.813 F679.906 ; 200 ms
G1 X89.448 Y84.344 F662.201 ; 200 ms
G1 X91.003 Y85.813 F641.746 ; 200 ms
G1 X89.617 Y84.427 F587.993 ; 200 ms
G1 X91.003 Y84.427 F415.774 ; 200 ms
G1 X88.927 Y83.041 F748.961 ; 200 ms
G1 X95.149 Y86.961 F275.787 ; 1600 ms
G1 X93.501 Y86.183 F546.738 ; 200 ms
G1 X96.273 Y88.799 F571.730 ; 400 ms
G1 X94.196 Y86.839 F428.314 ; 400 ms
G1 X95.176 Y87.878 F428.314 ; 200 ms
G1 X94.138 Y86.898 F428.314 ; 200 ms
G1 X100.998 Y94.166 F428.314 ; 1400 ms
G1 X96.840 Y92.203 F459.750 ; 600 ms
G1 X99.456 Y97.747 F459.750 ; 800 ms
G1 X96.685 Y96.439 F459.750 ; 400 ms
G1 X100.609 Y104.754 F459.750 ; 1200 ms
G1 X99.223 Y104.100 F459.750 ; 200 ms
G1 X99.877 Y105.486 F459.750 ; 200 ms
G1 X95.988 Y97.708 F521.776 ; 1000 ms
G1 X96.766 Y98.746 F389.190 ; 200 ms
G1 X96.276 Y97.766 F328.698 ; 200 ms
G1 X96.766 Y98.544 F275.787 ; 200 ms
G1 X89.766 Y94.134 F275.787 ; 1800 ms
G1 X92.096 Y94.134 F349.623 ; 400 ms
G1 X90.931 Y93.356 F420.341 ; 200 ms
G1 X93.262 Y93.356 F349.623 ; 400 ms
G1 X90.931 Y91.801 F420.341 ; 400 ms
G1 X92.096 Y91.801 F349.623 ; 200 ms
G1 X90.862 Y90.635 F509.354 ; 200 ms
G1 X92.027 Y91.870 F509.354 ; 200 ms
G1 X90.641 Y91.870 F415.774 ; 200 ms
G1 X91.876 Y93.035 F509.354 ; 200 ms
G1 X90.710 Y91.801 F509.354 ; 200 ms
G1 X91.876 Y92.579 F420.341 ; 200 ms
G1 X89.542 Y89.082 F420.341 ; 600 ms
G1 X93.432 Y91.532 F275.787 ; 1000 ms
G1 X92.654 Y90.798 F320.873 ; 200 ms
G1 X101.210 Y107.910 F521.776 ; 2200 ms
G1 X100.230 Y107.420 F328.698 ; 200 ms
G1 X100.720 Y108.458 F344.424 ; 200 ms
G1 X100.230 Y107.681 F275.787 ; 200 ms
G1 X104.119 Y110.130 F275.787 ; 1000 ms
G1 X103.019 Y108.965 F480.766 ; 200 ms
G1 X105.350 Y110.521 F420.341 ; 400 ms
G1 X101.853 Y106.817 F509.354 ; 600 ms
G1 X104.187 Y111.484 F521.776 ; 600 ms
G1 X103.021 Y110.706 F420.341 ; 200 ms
G1 X104.187 Y111.940 F509.354 ; 200 ms
G1 X103.149 Y110.960 F428.314 ; 200 ms
G1 X104.129 Y111.999 F428.314 ; 200 ms
G1 X102.573 Y111.221 F521.776 ; 200 ms
G1 X104.129 Y112.607 F625.034 ; 200 ms
G1 X98.585 Y109.991 F459.750 ; 800 ms
G1 X99.565 Y111.299 F245.175 ; 400 ms
G1 X98.179 Y110.645 F459.750 ; 200 ms
G1 X98.833 Y112.030 F459.750 ; 200 ms
G1 X97.525 Y111.050 F245.175 ; 400 ms
G1 X98.179 Y112.436 F459.750 ; 200 ms
G1 X97.525 Y111.946 F245.175 ; 200 ms
G1 X100.141 Y111.946 F196.220 ; 800 ms
G1 X92.363 Y104.605 F641.746 ; 1000 ms
G1 X93.919 Y105.095 F489.294 ; 200 ms
G1 X91.842 Y104.115 F688.846 ; 200 ms
G1 X92.620 Y105.095 F375.345 ; 200 ms
G1 X87.953 Y102.155 F275.787 ; 1200 ms
G1 X88.731 Y102.889 F320.873 ; 200 ms
G1 X87.175 Y98.227 F737.153 ; 400 ms
G1 X87.953 Y100.697 F776.706 ; 200 ms
G1 X85.484 Y100.234 F753.706 ; 200 ms
G1 X85.946 Y102.704 F753.706 ; 200 ms
G1 X83.477 Y102.241 F753.706 ; 200 ms
G1 X84.402 Y103.407 F446.363 ; 200 ms
G1 X82.325 Y101.330 F880.994 ; 200 ms
G1 X83.363 Y102.310 F428.314 ; 200 ms
G1 X81.287 Y98.157 F696.487 ; 400 ms
G1 X82.325 Y99.195 F440.497 ; 200 ms
G1 X77.386 Y94.256 F1047.685 ; 400 ms
G1 X78.164 Y95.491 F218.892 ; 400 ms
G1 X77.547 Y95.102 F218.892 ; 200 ms
G1 X78.325 Y96.337 F218.892 ; 400 ms
G1 X77.090 Y95.559 F218.892 ; 400 ms
G1 X78.070 Y96.176 F347.470 ; 200 ms
G1 X77.453 Y95.197 F347.470 ; 200 ms
G1 X78.070 Y95.585 F218.892 ; 200 ms
G1 X77.453 Y95.585 F185.207 ; 200 ms
G1 X81.606 Y99.738 F880.994 ; 400 ms
G1 X77.453 Y98.504 F649.905 ; 400 ms
G1 X78.070 Y100.580 F649.905 ; 200 ms
G1 X77.453 Y100.191 F218.892 ; 200 ms
G1 X78.230 Y102.661 F776.706 ; 200 ms
G1 X77.453 Y101.495 F420.341 ; 200 ms
G1 X79.783 Y102.273 F737.153 ; 200 ms
G1 X75.630 Y98.120 F880.994 ; 400 ms
G1 X76.610 Y99.158 F428.314 ; 200 ms
G1 X74.862 Y98.057 F206.607 ; 600 ms
G1 X75.445 Y98.835 F291.563 ; 200 ms
G1 X74.862 Y98.468 F206.607 ; 200 ms
G1 X76.610 Y100.801 F291.563 ; 600 ms
G1 X74.141 Y98.332 F1047.685 ; 200 ms
G1 X78.294 Y102.485 F880.994 ; 400 ms
G1 X77.516 Y100.929 F521.776 ; 200 ms
G1 X80.627 Y102.485 F521.776 ; 400 ms
G1 X77.516 Y96.262 F521.776 ; 800 ms
G1 X79.072 Y97.428 F291.563 ; 400 ms
G1 X77.906 Y95.872 F291.563 ; 400 ms
G1 X78.886 Y96.910 F428.314 ; 200 ms
G1 X77.848 Y95.930 F428.314 ; 200 ms
G1 X78.626 Y96.969 F389.190 ; 200 ms
G1 X77.848 Y95.989 F375.345 ; 200 ms
G1 X81.737 Y97.824 F258.026 ; 1000 ms
G1 X80.182 Y95.493 F420.341 ; 400 ms
G1 X81.161 Y96.418 F404.274 ; 200 ms
G1 X78.222 Y96.418 F293.996 ; 600 ms
G1 X80.182 Y98.378 F415.773 ; 400 ms
G1 X75.282 Y98.378 F293.996 ; 1000 ms
G1 X76.262 Y99.417 F428.314 ; 200 ms
G1 X75.772 Y98.437 F328.698 ; 200 ms
G1 X76.262 Y99.475 F344.424 ; 200 ms
G1 X75.772 Y98.495 F328.698 ; 200 ms
G1 X77.732 Y102.648 F344.424 ; 800 ms
G1 X77.242 Y101.668 F328.698 ; 200 ms
G1 X78.222 Y103.744 F344.424 ; 400 ms
G1 X76.262 Y103.744 F146.999 ; 800 ms
G1 X76.752 Y104.783 F344.424 ; 200 ms
G1 X76.262 Y104.783 F146.999 ; 200 ms
G1 X77.039 Y105.517 F320.873 ; 200 ms
G1 X74.706 Y100.850 F521.776 ; 600 ms
G1 X76.262 Y102.318 F320.873 ; 400 ms
G1 X75.772 Y101.338 F328.698 ; 200 ms
G1 X76.752 Y103.415 F344.424 ; 400 ms
G1 X76.262 Y102.435 F328.698 ; 200 ms
G1 X77.732 Y105.550 F344.424 ; 600 ms
G1 X77.242 Y105.550 F146.999 ; 200 ms
G1 X77.732 Y106.530 F328.698 ; 200 ms
G1 X77.242 Y105.491 F344.424 ; 200 ms
G1 X77.732 Y106.471 F328.698 ; 200 ms
G1 X77.242 Y105.371 F361.260 ; 200 ms
G1 X86.565 Y105.371 F349.623 ; 1600 ms
G1 X84.234 Y102.902 F509.354 ; 400 ms
G1 X85.620 Y102.902 F415.774 ; 200 ms
G1 X84.455 Y102.412 F379.269 ; 200 ms
G1 X85.924 Y105.908 F379.269 ; 600 ms
G1 X84.945 Y103.832 F344.424 ; 400 ms
G1 X85.435 Y104.997 F379.269 ; 200 ms
G1 X84.945 Y103.959 F344.424 ; 200 ms
G1 X85.435 Y105.124 F379.269 ; 200 ms
G1 X84.455 Y105.124 F146.999 ; 400 ms
G1 X85.232 Y105.858 F320.873 ; 200 ms
G1 X82.899 Y101.191 F521.776 ; 600 ms
G1 X83.677 Y101.191 F233.345 ; 200 ms
G1 X79.010 Y91.858 F521.776 ; 1200 ms
G1 X79.788 Y91.858 F233.345 ; 200 ms
G1 X79.298 Y90.878 F328.698 ; 200 ms
G1 X79.788 Y91.655 F275.787 ; 200 ms
G1 X75.121 Y88.715 F275.787 ; 1200 ms
G1 X76.286 Y89.815 F480.766 ; 200 ms
G1 X73.955 Y88.260 F420.341 ; 400 ms
G1 X75.121 Y89.495 F509.354 ; 200 ms
G1 X73.955 Y89.495 F349.623 ; 200 ms
G1 X75.121 Y90.729 F509.354 ; 200 ms
G1 X73.565 Y87.618 F521.776 ; 400 ms
G1 X74.343 Y88.352 F320.873 ; 200 ms
G1 X73.177 Y87.117 F509.354 ; 200 ms
G1 X74.343 Y88.097 F456.804 ; 200 ms
G1 X73.363 Y87.059 F428.314 ; 200 ms
G1 X74.919 Y88.039 F551.574 ; 200 ms
G1 X73.363 Y87.261 F521.776 ; 200 ms
G1 X74.749 Y88.039 F476.779 ; 200 ms
G1 X71.977 Y87.059 F440.995 ; 400 ms
G1 X76.135 Y89.021 F459.750 ; 600 ms
G1 X75.645 Y87.635 F440.995 ; 200 ms
G1 X76.299 Y89.021 F459.750 ; 200 ms
G1 X75.645 Y88.531 F245.175 ; 200 ms
G1 X76.953 Y91.303 F459.750 ; 400 ms
G1 X76.299 Y90.813 F245.175 ; 200 ms
G1 X76.953 Y92.199 F459.750 ; 200 ms
G1 X76.299 Y91.709 F245.175 ; 200 ms
G1 X78.261 Y91.709 F196.220 ; 600 ms
G1 X72.038 Y85.836 F641.746 ; 800 ms
G1 X75.150 Y86.816 F489.294 ; 400 ms
G1 X71.720 Y79.548 F344.424 ; 1400 ms
G1 X72.210 Y80.528 F328.698 ; 200 ms
G1 X69.879 Y78.197 F988.883 ; 200 ms
G1 X70.369 Y78.975 F275.787 ; 200 ms
G1 X69.879 Y76.644 F714.530 ; 200 ms
G1 X72.348 Y77.569 F791.092 ; 200 ms
G1 X70.961 Y74.794 F310.249 ; 600 ms
G1 X73.037 Y76.871 F880.994 ; 200 ms
G1 X70.961 Y76.408 F638.221 ; 200 ms
G1 X71.999 Y78.485 F696.487 ; 200 ms
G1 X70.961 Y78.022 F340.984 ; 200 ms
G1 X71.423 Y78.947 F310.249 ; 200 ms
G1 X70.961 Y77.909 F340.984 ; 200 ms
G1 X73.430 Y80.378 F1047.685 ; 200 ms
G1 X72.265 Y79.601 F420.341 ; 200 ms
G1 X77.710 Y82.323 F260.888 ; 1400 ms
G1 X77.321 Y81.545 F260.888 ; 200 ms
G1 X79.654 Y82.712 F260.888 ; 600 ms
G1 X73.425 Y76.482 F880.994 ; 600 ms
G1 X77.578 Y78.038 F665.226 ; 400 ms
G1 X76.022 Y73.099 F776.706 ; 400 ms
G1 X78.353 Y75.430 F988.883 ; 200 ms
G1 X76.022 Y74.652 F737.153 ; 200 ms
G1 X80.175 Y78.805 F880.994 ; 400 ms
G1 X78.619 Y77.825 F551.574 ; 200 ms
G1 X84.064 Y80.395 F258.026 ; 1400 ms
G1 X83.286 Y79.661 F320.873 ; 200 ms
G1 X85.756 Y82.130 F1047.685 ; 200 ms
G1 X83.679 Y80.053 F880.994 ; 200 ms
G1 X85.756 Y81.033 F688.846 ; 200 ms
G1 X82.644 Y78.097 F641.746 ; 400 ms
G1 X87.311 Y80.430 F521.776 ; 600 ms
G1 X79.533 Y73.089 F641.746 ; 1000 ms
G1 X81.089 Y73.866 F521.776 ; 200 ms
G1 X80.311 Y71.790 F665.226 ; 200 ms
G1 X88.867 Y76.068 F260.888 ; 2200 ms
G1 X81.867 Y76.068 F233.345 ; 1800 ms
G4 P200 ; pause
G1 X83.943 Y78.144 F880.994 ; 200 ms
G1 X83.165 Y76.068 F665.226 ; 200 ms
G1 X90.944 Y79.957 F260.888 ; 2000 ms
G1 X88.613 Y78.792 F781.781 ; 200 ms
G1 X93.274 Y83.453 F988.883 ; 400 ms
G1 X90.944 Y82.675 F737.153 ; 200 ms
G1 X91.721 Y85.006 F737.153 ; 200 ms
G1 X89.391 Y84.228 F737.153 ; 200 ms
G1 X90.168 Y84.228 F233.345 ; 200 ms
G1 X89.391 Y81.898 F737.153 ; 200 ms
G1 X91.860 Y82.675 F776.706 ; 200 ms
G1 X89.391 Y80.206 F1047.685 ; 200 ms
G1 X92.162 Y81.131 F876.628 ; 200 ms
G1 X91.385 Y80.397 F320.873 ; 200 ms
G1 X97.607 Y83.333 F258.026 ; 1600 ms
G1 X96.051 Y81.003 F420.341 ; 400 ms
G1 X99.163 Y83.939 F641.746 ; 400 ms
G1 X89.829 Y79.272 F521.776 ; 1200 ms
G1 X90.607 Y80.828 F521.776 ; 200 ms
G1 X89.051 Y80.050 F521.776 ; 200 ms
G1 X92.162 Y82.987 F641.746 ; 400 ms
G1 X85.940 Y79.876 F521.776 ; 800 ms
G1 X86.718 Y80.395 F280.543 ; 200 ms
G1 X85.332 Y79.009 F587.993 ; 200 ms
G1 X92.261 Y79.009 F415.774 ; 1000 ms
G1 X89.489 Y77.970 F443.985 ; 400 ms
G1 X90.875 Y78.748 F476.779 ; 200 ms
G1 X89.320 Y78.748 F466.691 ; 200 ms
G1 X95.542 Y84.622 F641.746 ; 800 ms
G1 X93.987 Y82.973 F679.906 ; 200 ms
G1 X95.635 Y82.973 F494.441 ; 200 ms
G1 X93.987 Y81.418 F679.906 ; 200 ms
G1 X94.764 Y83.887 F776.706 ; 200 ms
G1 X93.379 Y83.153 F235.254 ; 400 ms
G1 X94.071 Y83.887 F302.864 ; 200 ms
G1 X92.686 Y81.811 F374.481 ; 400 ms
G1 X93.724 Y81.811 F311.479 ; 200 ms
G1 X86.456 Y76.960 F374.481 ; 1400 ms
G1 X87.691 Y78.125 F509.354 ; 200 ms
G1 X85.360 Y75.656 F509.354 ; 400 ms
G1 X86.746 Y77.042 F587.993 ; 200 ms
G1 X83.974 Y77.042 F415.774 ; 400 ms
G1 X85.360 Y78.350 F571.730 ; 200 ms
G1 X82.588 Y78.350 F415.774 ; 400 ms
G1 X83.974 Y79.084 F235.254 ; 400 ms
G1 X83.607 Y78.391 F235.254 ; 200 ms
G1 X85.075 Y79.084 F487.088 ; 200 ms
G1 X83.607 Y78.350 F492.491 ; 200 ms
G1 X85.075 Y79.043 F487.088 ; 200 ms
G1 X81.779 Y76.966 F584.372 ; 400 ms
G1 X87.329 Y82.516 F784.877 ; 600 ms
G1 X85.252 Y81.591 F681.967 ; 200 ms
G1 X85.870 Y83.668 F649.905 ; 200 ms
G1 X85.252 Y82.743 F333.624 ; 200 ms
G1 X86.177 Y83.360 F333.624 ; 200 ms
G1 X85.560 Y82.435 F333.624 ; 200 ms
G1 X86.485 Y83.053 F333.624 ; 200 ms
G1 X84.285 Y80.976 F907.565 ; 200 ms
G1 X86.485 Y83.176 F933.381 ; 200 ms
G1 X85.868 Y80.976 F685.494 ; 200 ms
G1 X88.068 Y81.593 F685.494 ; 200 ms
G1 X87.450 Y80.669 F333.624 ; 200 ms
G1 X88.068 Y82.869 F685.494 ; 200 ms
G1 X85.868 Y82.251 F685.494 ; 200 ms
G1 X86.485 Y83.176 F333.624 ; 200 ms
G1 X85.868 Y80.976 F685.494 ; 200 ms
G1 X87.102 Y82.826 F333.624 ; 400 ms
G1 X84.162 Y76.597 F344.424 ; 1200 ms
G1 X87.277 Y78.559 F368.132 ; 600 ms
G1 X83.353 Y72.329 F368.132 ; 1200 ms
G1 X92.510 Y72.329 F196.220 ; 2800 ms
G4 P9400 ; pause
G1 X89.573 Y70.943 F487.088 ; 400 ms
G1 X90.611 Y71.636 F374.481 ; 200 ms
G1 X89.573 Y70.902 F381.482 ; 200 ms
G1 X91.650 Y72.288 F374.481 ; 400 ms
G1 X90.611 Y70.820 F539.497 ; 200 ms
G4 P800 ; pause

; End of music G-code