; Generated music G-code
; X axis = melody 1
; Y axis = melody 2

G21 ; use millimeters
G90 ; absolute positioning
G28 X Y ; home x and y
M73 P1 R9
M73 Q1 S9
G0 X100.000 Y100.000 F2000 ; move to start position

G1 X101.100 Y100.550 F368.951 ; 200 ms
G1 X100.000 Y100.000 F368.951 ; 200 ms
G1 X100.654 Y101.100 F383.930 ; 200 ms
G1 X100.000 Y100.517 F262.795 ; 200 ms
G1 X100.873 Y102.263 F585.673 ; 200 ms
G1 X100.000 Y100.517 F585.673 ; 200 ms
G1 X101.165 Y101.390 F436.851 ; 200 ms
G1 X100.292 Y99.060 F746.691 ; 200 ms
G1 X101.600 Y99.933 F471.816 ; 200 ms
G1 X100.292 Y97.316 F877.519 ; 200 ms
G1 X101.165 Y98.624 F471.816 ; 200 ms
G1 X100.292 Y98.624 F261.921 ; 200 ms
G1 X101.165 Y99.279 F327.269 ; 200 ms
G1 X100.511 Y98.405 F327.269 ; 200 ms
G1 X101.819 Y101.022 F877.519 ; 200 ms
G4 P200 ; pause
G1 X100.434 Y98.405 F888.200 ; 200 ms
G1 X101.819 Y101.022 F888.200 ; 200 ms
G1 X100.434 Y100.149 F491.396 ; 200 ms
G1 X101.307 Y101.535 F491.396 ; 200 ms
G1 X100.434 Y100.149 F491.396 ; 200 ms
G1 X101.307 Y100.803 F327.269 ; 200 ms
G1 X100.434 Y100.149 F327.269 ; 200 ms
G4 P200 ; pause
G1 X101.414 Y100.639 F328.698 ; 200 ms
G1 X100.434 Y100.149 F328.698 ; 200 ms
G1 X101.211 Y101.129 F375.345 ; 200 ms
G1 X100.434 Y100.149 F375.345 ; 200 ms
G1 X101.211 Y100.731 F291.563 ; 200 ms
G1 X100.434 Y100.149 F291.563 ; 200 ms
G1 X101.414 Y102.109 F657.396 ; 200 ms
G1 X100.489 Y102.109 F277.495 ; 200 ms
G1 X101.362 Y103.855 F585.673 ; 200 ms
G1 X99.615 Y102.982 F585.673 ; 200 ms
G1 X100.489 Y104.728 F585.673 ; 200 ms
G1 X99.615 Y102.982 F585.673 ; 200 ms
G1 X100.489 Y104.728 F585.673 ; 200 ms
G1 X99.906 Y103.855 F314.899 ; 200 ms
G1 X100.489 Y104.728 F314.899 ; 200 ms
G4 P200 ; pause
G4 P200 ; pause
G4 P200 ; pause
G4 P200 ; pause
G1 X99.615 Y102.982 F585.673 ; 200 ms
G1 X100.489 Y104.728 F585.673 ; 200 ms
G1 X99.615 Y102.982 F585.673 ; 200 ms
G1 X100.489 Y104.728 F585.673 ; 200 ms
G1 X99.615 Y104.728 F261.921 ; 200 ms
G4 P200 ; pause
G4 P200 ; pause
G4 P200 ; pause
G4 P1800 ; pause
G1 X100.198 Y105.601 F314.899 ; 200 ms
G4 P200 ; pause
G1 X99.505 Y105.601 F207.887 ; 200 ms
G4 P600 ; pause
G1 X100.088 Y105.601 F174.811 ; 200 ms
G1 X99.505 Y104.728 F314.899 ; 200 ms
G1 X100.813 Y105.552 F463.817 ; 200 ms
G1 X99.940 Y104.969 F314.899 ; 200 ms
G1 X100.764 Y106.617 F552.802 ; 200 ms
G1 X99.116 Y105.793 F552.802 ; 200 ms
G1 X99.770 Y106.666 F327.269 ; 200 ms
G1 X98.024 Y103.370 F559.531 ; 400 ms
G1 X99.332 Y105.986 F877.519 ; 200 ms
G1 X98.024 Y105.113 F471.816 ; 200 ms
G1 X98.897 Y106.421 F471.816 ; 200 ms
G1 X98.024 Y104.773 F559.531 ; 200 ms
G1 X99.672 Y106.421 F699.246 ; 200 ms
G1 X98.024 Y105.548 F559.531 ; 200 ms
G1 X99.332 Y106.421 F471.816 ; 200 ms
G1 X98.459 Y105.597 F360.168 ; 200 ms
G1 X98.949 Y108.214 F798.523 ; 200 ms
G1 X97.563 Y106.905 F571.730 ; 200 ms
G1 X99.309 Y110.398 F585.673 ; 400 ms
G1 X97.563 Y110.398 F261.921 ; 400 ms
G1 X98.217 Y111.271 F327.269 ; 200 ms
G1 X97.052 Y110.398 F436.851 ; 200 ms
G1 X97.635 Y111.563 F390.890 ; 200 ms
G1 X96.655 Y111.073 F328.698 ; 200 ms
G1 X97.635 Y112.239 F456.804 ; 200 ms
G1 X96.655 Y111.461 F375.345 ; 200 ms
G1 X97.635 Y112.626 F456.804 ; 200 ms
G1 X97.052 Y111.461 F390.890 ; 200 ms
G1 X98.032 Y112.626 F456.804 ; 200 ms
G1 X97.052 Y112.626 F293.996 ; 200 ms
G4 P200 ; pause
G1 X98.798 Y116.118 F585.673 ; 400 ms
G1 X97.052 Y113.788 F436.851 ; 400 ms
G1 X98.217 Y114.370 F390.890 ; 200 ms
G1 X97.052 Y112.039 F390.890 ; 400 ms
G1 X98.217 Y112.622 F390.890 ; 200 ms
G1 X97.635 Y111.457 F390.890 ; 200 ms
G4 P200 ; pause
G1 X99.381 Y114.949 F585.673 ; 400 ms
G1 X97.635 Y114.076 F585.673 ; 200 ms
G1 X98.508 Y115.822 F585.673 ; 200 ms
G1 X96.762 Y115.822 F261.921 ; 400 ms
G4 P200 ; pause
G1 X98.230 Y116.312 F464.378 ; 200 ms
G1 X96.674 Y115.274 F561.087 ; 200 ms
G1 X97.257 Y116.147 F314.899 ; 200 ms
G1 X96.674 Y114.982 F390.890 ; 200 ms
G1 X97.257 Y115.855 F314.899 ; 200 ms
G1 X96.674 Y114.689 F390.890 ; 200 ms
G1 X97.840 Y117.985 F524.434 ; 400 ms
G1 X97.257 Y117.985 F174.811 ; 200 ms
G1 X98.422 Y121.282 F524.434 ; 400 ms
G1 X97.840 Y120.116 F390.890 ; 200 ms
G1 X98.422 Y121.424 F429.612 ; 200 ms
G4 P600 ; pause
G1 X97.729 Y121.424 F207.887 ; 200 ms
G1 X98.422 Y122.463 F374.481 ; 200 ms
G1 X97.384 Y122.136 F326.565 ; 200 ms
G1 X98.038 Y122.463 F219.380 ; 200 ms
G1 X97.165 Y121.809 F327.269 ; 200 ms
G1 X97.655 Y122.136 F176.732 ; 200 ms
G1 X95.909 Y120.828 F327.269 ; 400 ms
G1 X96.563 Y121.808 F353.463 ; 200 ms
G1 X94.603 Y120.339 F367.346 ; 400 ms
G1 X95.381 Y121.319 F375.345 ; 200 ms
G1 X94.603 Y120.585 F320.873 ; 200 ms
G1 X96.937 Y122.333 F291.563 ; 600 ms
G1 X96.202 Y121.555 F320.873 ; 200 ms

; End of music G-code