; Generated music G-code
; X axis = melody 1
; Y axis = melody 2

G21 ; use millimeters
G90 ; absolute positioning
G28 X Y ; home x and y
M73 P1 R9
M73 Q1 S9
G0 X100.000 Y100.000 F2000 ; move to start position

G1 X101.038 Y100.490 F344.424 ; 200 ms
G1 X100.548 Y99.510 F328.698 ; 200 ms
G1 X101.038 Y100.548 F344.424 ; 200 ms
G1 X100.548 Y99.510 F344.424 ; 200 ms
G1 X101.038 Y100.490 F328.698 ; 200 ms
G1 X100.000 Y100.000 F344.424 ; 200 ms
G1 X100.490 Y101.038 F344.424 ; 200 ms
G1 X100.101 Y100.260 F260.888 ; 200 ms
G1 X100.490 Y101.038 F260.888 ; 200 ms
G1 X100.101 Y100.260 F260.888 ; 200 ms
G1 X100.591 Y101.240 F328.698 ; 200 ms
G1 X100.101 Y100.202 F344.424 ; 200 ms
G1 X101.139 Y100.692 F344.424 ; 200 ms
G1 X100.750 Y99.914 F260.888 ; 200 ms
G1 X101.139 Y100.692 F260.888 ; 200 ms
G1 X99.974 Y100.303 F368.577 ; 200 ms
G1 X100.464 Y101.283 F328.698 ; 200 ms
G1 X99.426 Y100.303 F428.314 ; 200 ms
G1 X100.464 Y100.793 F344.424 ; 200 ms
G1 X99.426 Y99.813 F428.314 ; 200 ms
G1 X100.406 Y100.332 F332.699 ; 200 ms
G1 X99.916 Y99.813 F214.157 ; 200 ms
G1 X100.406 Y100.591 F275.787 ; 200 ms
G1 X99.628 Y99.035 F521.776 ; 200 ms
G1 X100.406 Y100.591 F521.776 ; 200 ms
G1 X99.916 Y99.813 F275.787 ; 200 ms
G1 X100.406 Y100.591 F275.787 ; 200 ms
G1 X99.916 Y99.813 F275.787 ; 200 ms
G1 X100.406 Y100.591 F275.787 ; 200 ms
G1 X99.916 Y99.813 F275.787 ; 200 ms
G1 X100.406 Y100.591 F275.787 ; 200 ms
G1 X99.628 Y100.101 F275.787 ; 200 ms
G1 X100.452 Y100.591 F287.623 ; 200 ms
G1 X99.287 Y99.974 F395.648 ; 200 ms
G1 X99.776 Y100.954 F328.698 ; 200 ms
G1 X99.287 Y99.974 F328.698 ; 200 ms
G1 X99.776 Y100.954 F328.698 ; 200 ms
G1 X99.388 Y100.176 F260.888 ; 200 ms
G1 X99.776 Y101.000 F273.369 ; 200 ms
G1 X98.611 Y100.383 F395.648 ; 200 ms
G1 X99.101 Y101.363 F328.698 ; 200 ms
G1 X98.063 Y100.843 F348.244 ; 200 ms
G1 X99.101 Y101.363 F348.244 ; 200 ms
G1 X98.121 Y100.873 F328.698 ; 200 ms
G1 X99.046 Y101.853 F404.274 ; 200 ms
G1 X98.121 Y101.363 F314.026 ; 200 ms
G1 X98.611 Y102.343 F328.698 ; 200 ms
G1 X97.573 Y100.266 F696.487 ; 200 ms
G1 X98.611 Y101.246 F428.314 ; 200 ms
G1 X98.121 Y100.266 F328.698 ; 200 ms
G1 X99.159 Y101.246 F428.314 ; 200 ms
G1 X98.179 Y99.286 F328.698 ; 400 ms
G1 X98.669 Y100.324 F344.424 ; 200 ms
G1 X98.179 Y99.805 F214.157 ; 200 ms
G1 X99.159 Y100.295 F328.698 ; 200 ms
G1 X98.669 Y99.776 F214.157 ; 200 ms
G1 X99.594 Y100.649 F381.584 ; 200 ms
G1 X98.817 Y100.282 F258.026 ; 200 ms
G1 X100.563 Y103.774 F585.673 ; 400 ms
G1 X100.196 Y103.081 F235.254 ; 200 ms
G1 X101.234 Y103.631 F352.483 ; 200 ms
G1 X100.867 Y103.285 F151.431 ; 200 ms
G1 X102.335 Y103.978 F487.088 ; 200 ms
G1 X101.968 Y103.244 F246.245 ; 200 ms
G1 X102.661 Y103.611 F235.254 ; 200 ms
G1 X99.889 Y102.877 F430.111 ; 400 ms
G1 X101.197 Y103.494 F433.946 ; 200 ms
G1 X100.032 Y103.105 F368.577 ; 200 ms
G1 X101.197 Y103.722 F395.648 ; 200 ms
G1 X100.032 Y103.334 F368.577 ; 200 ms
G1 X101.199 Y105.667 F260.888 ; 600 ms
G1 X100.219 Y105.177 F328.698 ; 200 ms
G1 X100.709 Y106.157 F328.698 ; 200 ms
G1 X100.320 Y105.177 F316.301 ; 200 ms
G1 X101.098 Y105.667 F275.787 ; 200 ms
G1 X100.608 Y104.889 F275.787 ; 200 ms
G1 X101.587 Y105.379 F328.698 ; 200 ms
G1 X100.422 Y104.889 F379.269 ; 200 ms
G1 X100.912 Y105.507 F236.453 ; 200 ms
G1 X100.422 Y104.341 F379.269 ; 200 ms
G1 X100.912 Y105.321 F328.698 ; 200 ms
G1 X100.422 Y104.932 F187.673 ; 200 ms
G1 X100.811 Y106.098 F368.577 ; 200 ms
G1 X99.831 Y104.542 F275.787 ; 400 ms
G1 X100.321 Y105.276 F264.798 ; 200 ms
G1 X99.341 Y103.720 F275.787 ; 400 ms
G1 X100.119 Y105.276 F521.776 ; 200 ms
G1 X99.730 Y104.498 F260.888 ; 200 ms
G1 X100.710 Y105.537 F428.314 ; 200 ms
G1 X99.730 Y105.148 F316.301 ; 200 ms
G1 X100.220 Y105.537 F187.673 ; 200 ms
G1 X99.730 Y104.557 F328.698 ; 200 ms
G1 X100.710 Y105.047 F328.698 ; 200 ms
G1 X100.220 Y104.067 F328.698 ; 200 ms
G1 X101.258 Y105.047 F428.314 ; 200 ms
G1 X100.768 Y104.067 F328.698 ; 200 ms
G1 X101.748 Y104.557 F328.698 ; 200 ms
G1 X101.258 Y103.577 F328.698 ; 200 ms
G1 X102.183 Y104.127 F322.845 ; 200 ms
G1 X101.405 Y103.088 F389.190 ; 200 ms
G1 X102.278 Y103.607 F304.725 ; 200 ms
G1 X101.932 Y103.240 F151.431 ; 200 ms
G1 X102.299 Y103.933 F235.254 ; 200 ms
G1 X101.261 Y103.566 F330.373 ; 200 ms
G1 X101.628 Y104.259 F235.254 ; 200 ms
G1 X100.160 Y103.566 F487.088 ; 200 ms
G1 X100.852 Y104.952 F464.849 ; 200 ms
G1 X100.160 Y104.585 F235.254 ; 200 ms
G1 X100.527 Y105.971 F430.111 ; 200 ms
G1 X99.873 Y104.663 F438.759 ; 200 ms
G1 X101.038 Y105.441 F420.341 ; 200 ms
G1 X99.873 Y104.858 F390.890 ; 200 ms
G1 X101.038 Y105.636 F420.341 ; 200 ms
G1 X100.649 Y105.247 F164.999 ; 200 ms
G1 X101.038 Y105.659 F169.976 ; 200 ms
G1 X99.482 Y104.881 F260.888 ; 400 ms
G1 X100.462 Y105.371 F328.698 ; 200 ms
G1 X99.972 Y104.391 F328.698 ; 200 ms
G1 X101.528 Y105.169 F260.888 ; 400 ms
G1 X101.038 Y104.391 F275.787 ; 200 ms
G1 X102.508 Y107.331 F328.698 ; 600 ms
G1 X101.341 Y104.998 F260.888 ; 600 ms
G1 X103.301 Y108.918 F328.698 ; 800 ms
G1 X102.811 Y107.879 F344.424 ; 200 ms
G1 X103.301 Y108.859 F328.698 ; 200 ms
G1 X102.321 Y107.821 F214.157 ; 400 ms
G1 X102.811 Y108.859 F344.424 ; 200 ms
G1 X99.871 Y105.745 F214.157 ; 1200 ms
G1 X100.361 Y106.725 F328.698 ; 200 ms
G1 X99.871 Y106.336 F187.673 ; 200 ms
G1 X100.361 Y107.316 F328.698 ; 200 ms
G1 X99.871 Y106.796 F214.157 ; 200 ms
G1 X100.361 Y107.286 F207.887 ; 200 ms
G1 X99.381 Y106.248 F214.157 ; 400 ms
G1 X99.900 Y106.738 F214.157 ; 200 ms
G1 X97.940 Y104.662 F214.157 ; 800 ms
G1 X98.920 Y105.051 F316.301 ; 200 ms
G1 X98.430 Y104.662 F187.673 ; 200 ms
G1 X103.330 Y114.462 F328.698 ; 2000 ms
G1 X102.552 Y112.906 F260.888 ; 400 ms
G1 X103.330 Y113.295 F260.888 ; 200 ms
G1 X101.860 Y110.355 F328.698 ; 600 ms
G1 X103.027 Y112.688 F260.888 ; 600 ms
G1 X101.557 Y109.748 F328.698 ; 600 ms
G1 X102.537 Y111.825 F344.424 ; 400 ms
G1 X102.047 Y111.306 F214.157 ; 200 ms
G1 X102.537 Y112.084 F275.787 ; 200 ms
G1 X100.981 Y108.972 F521.776 ; 400 ms
G1 X101.471 Y109.750 F275.787 ; 200 ms
G1 X100.694 Y109.260 F275.787 ; 200 ms
G1 X101.674 Y110.816 F275.787 ; 400 ms
G1 X100.896 Y110.326 F275.787 ; 200 ms
G1 X101.386 Y111.104 F275.787 ; 200 ms
G1 X100.608 Y110.715 F260.888 ; 200 ms
G1 X101.386 Y111.205 F275.787 ; 200 ms
G1 X100.608 Y110.039 F420.341 ; 200 ms
G1 X102.078 Y112.979 F328.698 ; 600 ms
G1 X100.911 Y110.646 F260.888 ; 600 ms
G1 X101.401 Y111.626 F328.698 ; 200 ms
G1 X100.363 Y111.136 F344.424 ; 200 ms
G1 X100.853 Y112.174 F344.424 ; 200 ms
G1 X99.815 Y111.684 F344.424 ; 200 ms
G1 X100.795 Y112.174 F328.698 ; 200 ms
G1 X99.870 Y111.684 F314.026 ; 200 ms
G1 X100.360 Y112.664 F328.698 ; 200 ms
G1 X98.283 Y110.704 F428.314 ; 400 ms
G1 X98.773 Y111.684 F328.698 ; 200 ms
G1 X97.735 Y110.704 F428.314 ; 200 ms
G1 X98.715 Y111.194 F328.698 ; 200 ms
G1 X98.225 Y110.214 F328.698 ; 200 ms
G1 X100.301 Y111.194 F344.424 ; 400 ms
G1 X98.341 Y110.214 F328.698 ; 400 ms
G1 X99.266 Y111.087 F381.584 ; 200 ms
G1 X98.393 Y110.720 F284.130 ; 200 ms
G1 X99.266 Y111.544 F360.168 ; 200 ms
G1 X97.520 Y110.671 F585.673 ; 200 ms
G1 X97.887 Y111.709 F330.373 ; 200 ms
G1 X96.849 Y111.190 F348.244 ; 200 ms
G1 X97.216 Y111.537 F151.431 ; 200 ms
G1 X95.748 Y110.844 F487.088 ; 200 ms
G1 X96.115 Y111.578 F246.245 ; 200 ms
G1 X95.381 Y111.211 F246.245 ; 200 ms
G1 X96.767 Y111.865 F459.750 ; 200 ms
G1 X95.381 Y111.498 F430.111 ; 200 ms
G1 X96.689 Y112.115 F433.946 ; 200 ms
G1 X96.300 Y110.950 F368.577 ; 200 ms
G1 X97.465 Y111.532 F390.890 ; 200 ms
G1 X96.299 Y109.199 F260.888 ; 600 ms
G1 X96.688 Y109.611 F169.976 ; 200 ms
G1 X95.708 Y109.121 F328.698 ; 200 ms
G1 X96.198 Y109.510 F187.673 ; 200 ms
G1 X95.708 Y108.530 F328.698 ; 200 ms
G1 X96.485 Y109.020 F275.787 ; 200 ms
G1 X95.995 Y108.631 F187.673 ; 200 ms
G1 X96.975 Y109.121 F328.698 ; 200 ms
G1 X95.810 Y108.631 F379.269 ; 200 ms

; End of music G-code