; Generated music G-code
; X axis = melody 1
; Y axis = melody 2

G21 ; use millimeters
G90 ; absolute positioning
G28 X Y ; home x and y
M73 P1 R9
M73 Q1 S9
G0 X100.000 Y100.000 F2000 ; move to start position

G1 X101.038 Y100.980 F428.314 ; 200 ms
G1 X100.058 Y98.903 F688.846 ; 200 ms
G1 X101.097 Y99.883 F428.314 ; 200 ms
G1 X100.058 Y98.903 F428.314 ; 200 ms
G1 X101.038 Y100.980 F688.846 ; 200 ms
G1 X100.000 Y100.000 F428.314 ; 200 ms
G1 X101.038 Y100.980 F428.314 ; 200 ms
G1 X100.260 Y99.815 F420.341 ; 200 ms
G1 X101.038 Y100.980 F420.341 ; 200 ms
G1 X99.873 Y100.202 F420.341 ; 200 ms
G1 X100.853 Y102.279 F688.846 ; 200 ms
G1 X99.815 Y101.299 F428.314 ; 200 ms
G1 X100.853 Y102.279 F428.314 ; 200 ms
G1 X100.075 Y101.113 F420.341 ; 200 ms
G1 X100.853 Y101.937 F339.953 ; 200 ms
G1 X99.687 Y100.703 F509.354 ; 200 ms
G1 X100.667 Y102.779 F688.846 ; 200 ms
G1 X99.629 Y101.799 F428.314 ; 200 ms
G1 X100.667 Y102.779 F428.314 ; 200 ms
G1 X99.629 Y101.799 F428.314 ; 200 ms
G1 X100.609 Y102.837 F428.314 ; 200 ms
G1 X99.571 Y101.857 F428.314 ; 200 ms
G1 X100.349 Y104.969 F962.107 ; 200 ms
G1 X99.571 Y103.413 F521.776 ; 200 ms
G1 X100.349 Y104.969 F521.776 ; 200 ms
G1 X99.571 Y101.857 F962.107 ; 200 ms
G1 X100.349 Y103.413 F521.776 ; 200 ms
G1 X99.571 Y101.857 F521.776 ; 200 ms
G1 X100.349 Y104.969 F962.107 ; 200 ms
G1 X99.571 Y103.413 F521.776 ; 200 ms
G1 X100.349 Y104.451 F389.190 ; 200 ms
G1 X99.571 Y101.155 F1016.041 ; 200 ms
G1 X101.219 Y101.979 F552.802 ; 200 ms
G1 X100.054 Y100.744 F509.354 ; 200 ms
G1 X101.034 Y102.213 F529.596 ; 200 ms
G1 X100.054 Y101.233 F415.773 ; 200 ms
G1 X101.034 Y102.213 F415.773 ; 200 ms
G1 X100.256 Y101.047 F420.341 ; 200 ms
G1 X101.080 Y101.825 F339.953 ; 200 ms
G1 X99.914 Y100.590 F509.354 ; 200 ms
G1 X100.894 Y102.667 F688.846 ; 200 ms
G1 X99.856 Y101.687 F428.314 ; 200 ms
G1 X100.894 Y102.667 F428.314 ; 200 ms
G1 X99.914 Y101.629 F428.314 ; 200 ms
G1 X101.764 Y102.554 F620.499 ; 200 ms
G1 X100.839 Y100.704 F620.499 ; 200 ms
G1 X102.916 Y101.684 F688.846 ; 200 ms
G1 X101.878 Y99.607 F696.487 ; 200 ms
G1 X102.916 Y100.587 F428.314 ; 200 ms
G1 X101.936 Y98.511 F688.846 ; 200 ms
G1 X102.974 Y99.491 F428.314 ; 200 ms
G1 X101.994 Y98.452 F428.314 ; 200 ms
G1 X104.071 Y99.432 F688.846 ; 200 ms
G1 X103.032 Y97.356 F696.487 ; 200 ms
G1 X104.012 Y99.432 F688.846 ; 200 ms
G1 X103.032 Y95.512 F1212.179 ; 200 ms
G1 X104.012 Y96.492 F415.773 ; 200 ms
G1 X103.087 Y93.000 F1083.811 ; 200 ms
G1 X103.865 Y93.873 F350.789 ; 200 ms
G1 X102.992 Y92.127 F585.673 ; 200 ms
G1 X104.738 Y93.000 F585.673 ; 200 ms
G1 X103.270 Y91.962 F539.497 ; 200 ms
G1 X104.308 Y94.038 F696.487 ; 200 ms
G1 X103.615 Y93.000 F374.481 ; 200 ms
G1 X105.084 Y93.693 F487.088 ; 200 ms
G1 X103.615 Y92.959 F492.491 ; 200 ms
G1 X105.084 Y93.652 F487.088 ; 200 ms
G1 X103.698 Y92.998 F459.750 ; 200 ms
G1 X105.084 Y94.384 F587.993 ; 200 ms
G1 X103.776 Y93.766 F433.946 ; 200 ms
G1 X104.941 Y94.932 F494.442 ; 200 ms
G1 X103.776 Y93.697 F509.354 ; 200 ms
G1 X104.941 Y94.475 F420.341 ; 200 ms
G1 X102.608 Y90.979 F420.341 ; 600 ms
G1 X103.588 Y91.756 F375.345 ; 200 ms
G1 X102.608 Y90.776 F415.773 ; 200 ms
G1 X103.588 Y91.554 F375.345 ; 200 ms
G1 X102.810 Y90.574 F375.345 ; 200 ms
G1 X103.790 Y91.352 F375.345 ; 200 ms
G1 X102.810 Y90.372 F415.773 ; 200 ms
G1 X103.975 Y90.990 F395.648 ; 200 ms
G1 X102.740 Y89.824 F509.354 ; 200 ms
G1 X103.906 Y91.059 F509.354 ; 200 ms
G1 X102.926 Y88.982 F688.846 ; 200 ms
G1 X103.964 Y89.962 F428.314 ; 200 ms
G1 X102.799 Y89.184 F420.341 ; 200 ms
G1 X103.576 Y90.653 F498.486 ; 200 ms
G1 X102.799 Y89.673 F375.345 ; 200 ms
G1 X103.779 Y90.407 F367.346 ; 200 ms
G1 X101.445 Y85.740 F521.776 ; 600 ms
G1 X103.522 Y86.518 F665.226 ; 200 ms
G1 X102.542 Y85.480 F428.314 ; 200 ms
G1 X103.522 Y87.035 F551.574 ; 200 ms
G1 X102.542 Y84.959 F688.846 ; 200 ms
G1 X104.502 Y87.035 F428.314 ; 400 ms
G1 X103.522 Y84.959 F688.846 ; 200 ms
G1 X104.560 Y85.939 F428.314 ; 200 ms
G1 X103.580 Y83.979 F657.396 ; 200 ms
G1 X104.560 Y84.959 F415.773 ; 200 ms
G1 X103.580 Y83.724 F472.905 ; 200 ms
G1 X104.505 Y85.192 F520.617 ; 200 ms
G1 X103.727 Y84.154 F389.190 ; 200 ms
G1 X104.600 Y87.646 F1079.929 ; 200 ms
G1 X103.214 Y86.178 F605.728 ; 200 ms
G1 X103.907 Y87.646 F487.088 ; 200 ms
G1 X102.869 Y85.570 F696.487 ; 200 ms
G1 X104.255 Y87.038 F605.728 ; 200 ms
G1 X102.787 Y86.000 F539.497 ; 200 ms
G1 X104.173 Y88.772 F464.849 ; 400 ms
G1 X102.787 Y87.303 F605.728 ; 200 ms
G1 X104.095 Y88.689 F571.730 ; 200 ms
G1 X102.929 Y87.911 F420.341 ; 200 ms
G1 X104.095 Y88.891 F456.804 ; 200 ms
G1 X102.929 Y88.114 F420.341 ; 200 ms
G1 X103.707 Y89.094 F375.345 ; 200 ms
G1 X102.929 Y87.859 F437.784 ; 200 ms
G1 X103.707 Y89.024 F420.341 ; 200 ms
G1 X102.929 Y88.044 F375.345 ; 200 ms
G1 X103.909 Y88.822 F375.345 ; 200 ms
G1 X102.929 Y87.897 F404.274 ; 200 ms
G1 X103.707 Y88.877 F375.345 ; 200 ms
G1 X102.929 Y87.712 F420.341 ; 200 ms
G1 X103.707 Y88.692 F375.345 ; 200 ms
G1 X102.727 Y87.653 F428.314 ; 200 ms
G1 X103.707 Y89.730 F688.846 ; 200 ms
G1 X102.727 Y88.692 F428.314 ; 200 ms
G1 X103.505 Y89.516 F339.953 ; 200 ms
G1 X101.949 Y87.185 F420.341 ; 400 ms
G1 X102.929 Y88.223 F428.314 ; 200 ms
G1 X101.949 Y86.147 F688.846 ; 200 ms
G1 X103.909 Y88.223 F428.314 ; 400 ms
G1 X102.871 Y87.243 F428.314 ; 200 ms
G1 X104.831 Y89.320 F428.314 ; 400 ms
G1 X103.793 Y87.764 F561.087 ; 200 ms
G1 X104.831 Y88.744 F428.314 ; 200 ms
G1 X103.851 Y87.706 F428.314 ; 200 ms
G1 X104.889 Y89.262 F561.087 ; 200 ms
G1 X103.909 Y88.223 F428.314 ; 200 ms
G1 X104.889 Y89.779 F551.574 ; 200 ms
G1 X103.851 Y88.799 F428.314 ; 200 ms
G1 X104.831 Y89.837 F428.314 ; 200 ms
G1 X102.871 Y85.917 F657.396 ; 400 ms
G1 X103.851 Y87.386 F529.596 ; 200 ms
G1 X102.871 Y86.896 F328.698 ; 200 ms
G1 X104.427 Y87.934 F561.087 ; 200 ms
G1 X103.388 Y87.934 F311.479 ; 200 ms
G1 X104.368 Y88.424 F328.698 ; 200 ms
G1 X103.388 Y87.386 F428.314 ; 200 ms
G1 X104.368 Y87.876 F328.698 ; 200 ms
G1 X103.878 Y86.837 F344.424 ; 200 ms
G1 X105.838 Y88.914 F428.314 ; 400 ms
G1 X102.898 Y84.509 F529.596 ; 600 ms
G1 X103.878 Y85.547 F428.314 ; 200 ms
G1 X102.898 Y83.471 F688.846 ; 200 ms
G1 X104.858 Y85.547 F428.314 ; 400 ms
G1 X103.878 Y83.471 F688.846 ; 200 ms
G1 X104.858 Y84.509 F428.314 ; 200 ms
G1 X102.898 Y80.356 F688.846 ; 400 ms
G1 X103.878 Y81.394 F428.314 ; 200 ms
G1 X101.545 Y77.898 F420.341 ; 600 ms
G1 X102.525 Y78.936 F428.314 ; 200 ms
G1 X101.545 Y76.860 F688.846 ; 200 ms
G1 X102.525 Y77.898 F428.314 ; 200 ms
G1 X100.191 Y74.402 F420.341 ; 600 ms
G1 X101.171 Y76.478 F688.846 ; 200 ms
G1 X99.212 Y74.402 F428.314 ; 400 ms
G1 X102.326 Y77.342 F428.314 ; 600 ms
G1 X101.548 Y74.230 F962.107 ; 200 ms
G1 X103.104 Y77.342 F521.776 ; 400 ms
G1 X102.326 Y74.230 F962.107 ; 200 ms
G1 X103.104 Y75.786 F521.776 ; 200 ms
G1 X102.326 Y74.806 F375.345 ; 200 ms
G1 X103.104 Y77.917 F962.107 ; 200 ms
G1 X102.326 Y76.362 F521.776 ; 200 ms
G1 X103.104 Y77.342 F375.345 ; 200 ms
G1 X101.548 Y70.749 F1016.041 ; 400 ms
G1 X102.326 Y71.914 F420.341 ; 200 ms
G1 X101.346 Y70.446 F529.596 ; 200 ms
G1 X103.306 Y72.406 F415.773 ; 400 ms
G1 X102.528 Y71.241 F420.341 ; 200 ms
G1 X103.306 Y72.065 F339.953 ; 200 ms
G1 X102.141 Y71.287 F420.341 ; 200 ms
G1 X103.121 Y73.363 F688.846 ; 200 ms
G1 X100.006 Y70.423 F428.314 ; 600 ms
G1 X100.986 Y71.462 F428.314 ; 200 ms
G1 X100.061 Y69.612 F620.499 ; 200 ms
G1 X102.138 Y70.592 F688.846 ; 200 ms
G1 X100.061 Y69.553 F696.487 ; 200 ms
G1 X101.099 Y71.630 F696.487 ; 200 ms
G1 X100.119 Y69.553 F688.846 ; 200 ms
G1 X101.158 Y70.533 F428.314 ; 200 ms
G1 X100.178 Y68.457 F688.846 ; 200 ms
G1 X102.254 Y69.437 F688.846 ; 200 ms
G1 X100.178 Y65.284 F696.487 ; 400 ms
G1 X101.158 Y69.204 F1212.179 ; 200 ms
G1 X100.178 Y67.896 F490.348 ; 200 ms
G1 X101.103 Y71.388 F1083.811 ; 200 ms
G1 X99.356 Y64.403 F1079.929 ; 400 ms
G1 X101.103 Y65.277 F585.673 ; 200 ms
G1 X99.634 Y64.238 F539.497 ; 200 ms
G1 X100.673 Y65.338 F453.783 ; 200 ms
G1 X99.634 Y64.645 F374.481 ; 200 ms
G1 X101.103 Y65.338 F487.088 ; 200 ms
G1 X99.634 Y64.604 F492.491 ; 200 ms
G1 X100.368 Y66.072 F492.491 ; 200 ms
G1 X98.983 Y65.418 F459.750 ; 200 ms
G1 X100.368 Y66.111 F464.849 ; 200 ms
G1 X99.060 Y65.494 F433.946 ; 200 ms
G1 X100.226 Y66.272 F420.341 ; 200 ms
G1 X97.895 Y63.802 F509.354 ; 400 ms
G1 X98.673 Y64.968 F420.341 ; 200 ms
G1 X97.895 Y64.144 F339.953 ; 200 ms
G1 X98.673 Y65.309 F420.341 ; 200 ms
G1 X95.733 Y62.976 F375.345 ; 600 ms
G1 X96.511 Y63.956 F375.345 ; 200 ms
G1 X95.687 Y62.976 F384.125 ; 200 ms
G1 X96.667 Y63.466 F328.698 ; 200 ms
G1 X95.501 Y62.848 F395.648 ; 200 ms

; End of music G-code