; Generated music G-code
; X axis = melody 1
; Y axis = melody 2

G21 ; use millimeters
G90 ; absolute positioning
G28 X Y ; home x and y
M73 P1 R9
M73 Q1 S9
G0 X100.000 Y100.000 F2000 ; move to start position

G1 X101.038 Y100.490 F344.424 ; 200 ms
G1 X100.548 Y100.490 F146.999 ; 200 ms
G1 X101.038 Y101.470 F328.698 ; 200 ms
G1 X100.548 Y100.432 F344.424 ; 200 ms
G1 X101.038 Y100.432 F146.999 ; 200 ms
G1 X100.548 Y99.393 F344.424 ; 200 ms
G1 X101.038 Y100.432 F344.424 ; 200 ms
G1 X100.649 Y99.654 F260.888 ; 200 ms
G1 X101.038 Y100.432 F260.888 ; 200 ms
G1 X100.649 Y99.654 F260.888 ; 200 ms
G1 X101.139 Y99.654 F146.999 ; 200 ms
G1 X100.649 Y98.616 F344.424 ; 200 ms
G1 X101.688 Y99.106 F344.424 ; 200 ms
G1 X101.299 Y98.328 F260.888 ; 200 ms
G1 X101.688 Y99.106 F260.888 ; 200 ms
G1 X101.299 Y98.488 F218.892 ; 200 ms
G1 X101.789 Y98.488 F146.999 ; 200 ms
G1 X101.299 Y97.450 F344.424 ; 200 ms
G1 X102.337 Y97.940 F344.424 ; 200 ms
G1 X101.847 Y96.902 F344.424 ; 200 ms
G1 X102.827 Y97.392 F328.698 ; 200 ms
G1 X102.337 Y96.873 F214.157 ; 200 ms
G1 X103.115 Y97.363 F275.787 ; 200 ms
G1 X102.337 Y97.363 F233.345 ; 200 ms
G1 X103.115 Y97.363 F233.345 ; 200 ms
G1 X102.337 Y96.873 F275.787 ; 200 ms
G1 X103.115 Y97.363 F275.787 ; 200 ms
G1 X102.337 Y96.873 F275.787 ; 200 ms
G1 X103.115 Y97.363 F275.787 ; 200 ms
G1 X102.337 Y96.873 F275.787 ; 200 ms
G1 X103.115 Y97.363 F275.787 ; 200 ms
G1 X102.337 Y96.974 F260.888 ; 200 ms
G1 X102.726 Y97.798 F273.369 ; 200 ms
G1 X102.109 Y97.215 F254.677 ; 200 ms
G1 X102.599 Y98.195 F328.698 ; 200 ms
G1 X102.109 Y97.215 F328.698 ; 200 ms
G1 X102.599 Y98.195 F328.698 ; 200 ms
G1 X102.210 Y97.417 F260.888 ; 200 ms
G1 X102.599 Y98.241 F273.369 ; 200 ms
G1 X101.981 Y97.659 F254.677 ; 200 ms
G1 X102.471 Y97.659 F146.999 ; 200 ms
G1 X101.433 Y97.169 F344.424 ; 200 ms
G1 X102.471 Y97.688 F348.244 ; 200 ms
G1 X101.491 Y97.198 F328.698 ; 200 ms
G1 X102.416 Y97.688 F314.026 ; 200 ms
G4 P200 ; pause
G1 X101.926 Y96.708 F328.698 ; 200 ms
G1 X102.964 Y96.708 F311.479 ; 200 ms
G1 X101.926 Y95.728 F428.314 ; 200 ms
G1 X102.416 Y95.728 F146.999 ; 200 ms
G1 X101.378 Y95.238 F344.424 ; 200 ms
G1 X102.358 Y97.198 F328.698 ; 400 ms
G1 X101.320 Y96.708 F344.424 ; 200 ms
G1 X101.810 Y97.688 F328.698 ; 200 ms
G1 X100.830 Y97.198 F328.698 ; 200 ms
G1 X101.320 Y98.178 F328.698 ; 200 ms
G1 X100.395 Y98.178 F277.495 ; 200 ms
G1 X101.172 Y99.051 F350.789 ; 200 ms
G1 X100.299 Y99.051 F261.921 ; 200 ms
G1 X128.238 Y99.924 F8385.570 ; 200 ms
G1 X127.871 Y99.924 F110.124 ; 200 ms
G1 X128.909 Y100.474 F352.483 ; 200 ms
G1 X128.542 Y100.127 F151.431 ; 200 ms
G1 X128.909 Y100.820 F235.254 ; 200 ms
G1 X128.542 Y100.086 F246.245 ; 200 ms
G1 X128.909 Y100.779 F235.254 ; 200 ms
G1 X128.542 Y100.125 F225.010 ; 200 ms
G1 X128.909 Y100.818 F235.254 ; 200 ms
G1 X128.291 Y99.510 F433.946 ; 200 ms
G1 X128.874 Y99.899 F210.170 ; 200 ms
G1 X128.257 Y99.316 F254.677 ; 200 ms
G1 X156.195 Y127.254 F11853.201 ; 200 ms
G1 X155.806 Y127.254 F116.672 ; 200 ms
G1 X156.195 Y128.032 F260.888 ; 200 ms
G1 X155.806 Y128.032 F116.672 ; 200 ms
G1 X156.296 Y129.012 F328.698 ; 200 ms
G1 X155.806 Y128.623 F187.673 ; 200 ms
G1 X156.195 Y129.113 F187.673 ; 200 ms
G1 X155.417 Y128.724 F260.888 ; 200 ms
G1 X155.907 Y129.113 F187.673 ; 200 ms
G1 X155.417 Y128.133 F328.698 ; 200 ms
G1 X156.035 Y129.299 F395.648 ; 200 ms
G1 X155.417 Y128.809 F236.453 ; 200 ms
G1 X155.907 Y129.391 F228.402 ; 200 ms
G1 X154.927 Y128.614 F187.673 ; 400 ms
G1 X155.316 Y129.231 F218.892 ; 200 ms
G1 X153.761 Y128.251 F275.787 ; 400 ms
G1 X154.251 Y128.985 F264.798 ; 200 ms
G1 X152.695 Y128.005 F275.787 ; 400 ms
G1 X153.473 Y128.739 F320.873 ; 200 ms
G1 X153.084 Y127.961 F260.888 ; 200 ms
G1 X154.064 Y129.000 F428.314 ; 200 ms
G1 X153.084 Y128.611 F316.301 ; 200 ms
G1 X155.044 Y132.531 F328.698 ; 800 ms
G1 X154.006 Y132.041 F344.424 ; 200 ms
G1 X154.496 Y133.021 F328.698 ; 200 ms
G1 X152.536 Y132.041 F328.698 ; 400 ms
G1 X153.461 Y132.408 F298.548 ; 200 ms
G1 X152.683 Y131.370 F389.190 ; 200 ms
G1 X153.556 Y131.370 F261.921 ; 200 ms
G1 X153.189 Y131.023 F151.431 ; 200 ms
G1 X153.556 Y131.023 F110.124 ; 200 ms
G1 X152.518 Y130.656 F330.373 ; 200 ms
G1 X152.885 Y131.349 F235.254 ; 200 ms
G1 X151.846 Y130.982 F330.373 ; 200 ms
G1 X153.232 Y131.716 F235.254 ; 400 ms
G1 X152.865 Y131.062 F225.010 ; 200 ms
G1 X153.519 Y131.429 F225.010 ; 200 ms
G1 X153.130 Y130.651 F260.888 ; 200 ms
G1 X153.713 Y131.817 F390.890 ; 200 ms
G1 X152.935 Y130.651 F420.341 ; 200 ms
G1 X153.324 Y131.429 F260.888 ; 200 ms
G1 X152.935 Y131.429 F116.672 ; 200 ms
G1 X153.324 Y132.207 F260.888 ; 200 ms
G1 X152.546 Y131.818 F260.888 ; 200 ms
G1 X153.036 Y132.798 F328.698 ; 200 ms
G1 X152.546 Y132.409 F187.673 ; 200 ms
G1 X153.324 Y132.798 F260.888 ; 200 ms
G1 X152.935 Y132.020 F260.888 ; 200 ms
G1 X153.324 Y132.510 F187.673 ; 200 ms
G1 X152.834 Y131.530 F328.698 ; 200 ms
G1 X153.324 Y131.530 F146.999 ; 200 ms
G1 X152.834 Y130.550 F328.698 ; 200 ms
G1 X154.001 Y132.884 F260.888 ; 600 ms
G1 X153.511 Y131.904 F328.698 ; 200 ms
G1 X154.001 Y131.904 F146.999 ; 200 ms
G1 X153.021 Y129.944 F328.698 ; 400 ms
G1 X153.511 Y130.982 F344.424 ; 200 ms
G1 X153.021 Y130.002 F328.698 ; 200 ms
G1 X153.511 Y130.521 F214.157 ; 200 ms
G1 X153.021 Y130.521 F146.999 ; 200 ms
G4 P200 ; pause
G1 X153.511 Y131.040 F214.157 ; 200 ms
G1 X153.021 Y131.040 F146.999 ; 200 ms
G1 X154.001 Y132.078 F214.157 ; 400 ms
G4 P200 ; pause
G1 X153.511 Y131.559 F214.157 ; 200 ms
G1 X154.491 Y133.519 F328.698 ; 400 ms
G1 X154.001 Y133.130 F187.673 ; 200 ms
G1 X154.491 Y133.650 F214.157 ; 200 ms
G4 P400 ; pause
G1 X154.001 Y133.130 F214.157 ; 200 ms
G4 P200 ; pause
G1 X154.981 Y134.169 F214.157 ; 400 ms
G1 X127.043 Y106.230 F11853.201 ; 200 ms
G1 X127.533 Y106.230 F146.999 ; 200 ms
G1 X126.553 Y105.740 F328.698 ; 200 ms
G1 X127.043 Y106.720 F328.698 ; 200 ms
G1 X126.553 Y106.331 F187.673 ; 200 ms
G1 X127.533 Y106.331 F146.999 ; 400 ms
G1 X126.553 Y104.372 F328.698 ; 400 ms
G1 X127.043 Y104.372 F146.999 ; 200 ms
G1 X126.063 Y102.412 F328.698 ; 400 ms
G1 X126.553 Y102.412 F146.999 ; 200 ms
G1 X126.063 Y101.432 F328.698 ; 200 ms
G1 X127.229 Y103.765 F260.888 ; 600 ms
G1 X126.249 Y103.765 F146.999 ; 400 ms
G1 X126.739 Y104.745 F328.698 ; 200 ms
G1 X125.573 Y102.412 F260.888 ; 600 ms
G1 X126.553 Y102.412 F146.999 ; 400 ms
G1 X126.063 Y101.432 F328.698 ; 200 ms
G1 X127.043 Y103.508 F344.424 ; 400 ms
G1 X126.553 Y103.508 F146.999 ; 200 ms
G1 X127.330 Y103.998 F275.787 ; 200 ms
G1 X125.775 Y103.998 F233.345 ; 400 ms
G1 X130.442 Y106.938 F275.787 ; 1200 ms
G1 X128.108 Y105.771 F260.888 ; 600 ms
G1 X129.578 Y108.711 F328.698 ; 600 ms
G1 X128.411 Y106.378 F260.888 ; 600 ms
G1 X128.901 Y106.378 F146.999 ; 200 ms
G1 X127.921 Y104.301 F344.424 ; 400 ms
G1 X128.901 Y106.261 F328.698 ; 400 ms
G1 X127.977 Y106.261 F277.495 ; 200 ms
G1 X128.466 Y107.241 F328.698 ; 200 ms
G1 X127.428 Y106.261 F428.314 ; 200 ms
G1 X128.466 Y106.261 F311.479 ; 200 ms
G1 X127.977 Y106.261 F146.999 ; 200 ms
G1 X128.466 Y107.300 F344.424 ; 200 ms
G1 X127.977 Y106.780 F214.157 ; 200 ms
G1 X128.466 Y107.760 F328.698 ; 200 ms
G1 X127.977 Y106.722 F344.424 ; 200 ms
G1 X129.015 Y107.212 F344.424 ; 200 ms
G1 X127.055 Y106.232 F328.698 ; 400 ms
G1 X127.980 Y106.232 F277.495 ; 200 ms
G1 X127.107 Y105.865 F284.130 ; 200 ms
G1 X127.980 Y105.865 F261.921 ; 200 ms
G4 P200 ; pause
G1 X127.613 Y104.827 F330.373 ; 200 ms
G1 X128.651 Y105.346 F348.244 ; 200 ms
G1 X128.284 Y104.999 F151.431 ; 200 ms
G1 X128.651 Y105.692 F235.254 ; 200 ms
G1 X127.917 Y104.224 F246.245 ; 400 ms
G1 X128.284 Y104.878 F225.010 ; 200 ms
G1 X127.917 Y104.185 F235.254 ; 200 ms
G1 X128.534 Y104.839 F269.821 ; 200 ms
G1 X128.145 Y104.222 F218.892 ; 200 ms
G1 X128.763 Y104.805 F254.677 ; 200 ms
G4 P200 ; pause
G1 X128.374 Y104.805 F116.672 ; 200 ms
G1 X128.763 Y105.582 F260.888 ; 200 ms
G1 X128.374 Y105.170 F169.976 ; 200 ms
G1 X128.864 Y106.150 F328.698 ; 200 ms
G1 X127.884 Y105.373 F187.673 ; 400 ms
G1 X128.273 Y106.150 F260.888 ; 200 ms
G1 X127.783 Y105.761 F187.673 ; 200 ms
G1 X128.273 Y106.741 F328.698 ; 200 ms
G1 X127.783 Y106.124 F236.453 ; 200 ms

; End of music G-code