; Generated music G-code
; X axis = melody 1
; Y axis = melody 2

G21 ; use millimeters
G90 ; absolute positioning
G28 X Y ; home x and y
M73 P1 R9
M73 Q1 S9
G0 X100.000 Y100.000 F2000 ; move to start position

G1 X101.038 Y100.490 F344.424 ; 200 ms
G1 X100.548 Y99.510 F328.698 ; 200 ms
G1 X101.528 Y100.548 F428.314 ; 200 ms
G1 X101.038 Y99.510 F344.424 ; 200 ms
G1 X101.528 Y100.490 F328.698 ; 200 ms
G1 X100.548 Y99.452 F428.314 ; 200 ms
G1 X101.038 Y100.490 F344.424 ; 200 ms
G1 X100.260 Y100.101 F260.888 ; 200 ms
G1 X101.038 Y100.490 F260.888 ; 200 ms
G1 X99.873 Y99.712 F420.341 ; 200 ms
G1 X100.363 Y100.692 F328.698 ; 200 ms
G1 X99.873 Y99.654 F344.424 ; 200 ms
G1 X100.911 Y100.144 F344.424 ; 200 ms
G1 X100.522 Y99.366 F260.888 ; 200 ms
G1 X101.346 Y100.144 F339.953 ; 200 ms
G1 X100.764 Y98.978 F390.890 ; 200 ms
G1 X101.254 Y99.958 F328.698 ; 200 ms
G1 X100.215 Y98.978 F428.314 ; 200 ms
G1 X101.254 Y99.468 F344.424 ; 200 ms
G1 X100.764 Y98.488 F328.698 ; 200 ms
G1 X101.283 Y99.468 F332.699 ; 200 ms
G1 X100.793 Y98.949 F214.157 ; 200 ms
G1 X101.571 Y99.439 F275.787 ; 200 ms
G1 X100.793 Y97.884 F521.776 ; 200 ms
G1 X101.571 Y99.439 F521.776 ; 200 ms
G1 X100.793 Y98.949 F275.787 ; 200 ms
G1 X102.348 Y99.727 F521.776 ; 200 ms
G1 X101.571 Y98.172 F521.776 ; 200 ms
G1 X102.348 Y98.662 F275.787 ; 200 ms
G1 X100.793 Y97.884 F521.776 ; 200 ms
G1 X101.571 Y98.374 F275.787 ; 200 ms
G1 X100.793 Y96.818 F521.776 ; 200 ms
G1 X102.441 Y97.642 F552.802 ; 200 ms
G1 X101.275 Y96.407 F509.354 ; 200 ms
G1 X101.765 Y97.387 F328.698 ; 200 ms
G1 X101.275 Y96.407 F328.698 ; 200 ms
G1 X101.765 Y97.387 F328.698 ; 200 ms
G1 X101.377 Y96.610 F260.888 ; 200 ms
G1 X102.201 Y97.387 F339.953 ; 200 ms
G1 X101.035 Y96.805 F390.890 ; 200 ms
G1 X101.525 Y97.785 F328.698 ; 200 ms
G1 X100.487 Y96.805 F428.314 ; 200 ms
G1 X101.525 Y97.324 F348.244 ; 200 ms
G1 X100.545 Y96.834 F328.698 ; 200 ms
G1 X102.395 Y97.759 F620.499 ; 200 ms
G1 X100.649 Y95.909 F763.169 ; 200 ms
G1 X102.726 Y96.399 F640.065 ; 200 ms
G1 X100.649 Y92.246 F696.487 ; 400 ms
G1 X101.139 Y93.226 F328.698 ; 200 ms
G1 X100.101 Y92.246 F428.314 ; 200 ms
G1 X100.591 Y93.226 F328.698 ; 200 ms
G1 X98.514 Y92.246 F688.846 ; 200 ms
G1 X99.552 Y92.736 F344.424 ; 200 ms
G1 X99.062 Y91.698 F344.424 ; 200 ms
G1 X100.042 Y93.658 F657.396 ; 200 ms
G1 X99.552 Y92.678 F328.698 ; 200 ms
G1 X100.477 Y94.528 F620.499 ; 200 ms
G1 X98.922 Y92.879 F679.906 ; 200 ms
G1 X102.414 Y94.626 F585.673 ; 400 ms
G1 X101.721 Y94.258 F235.254 ; 200 ms
G1 X102.759 Y94.808 F352.483 ; 200 ms
G1 X102.066 Y94.441 F235.254 ; 200 ms
G1 X102.759 Y95.910 F487.088 ; 200 ms
G1 X101.291 Y95.176 F492.491 ; 200 ms
G1 X101.984 Y95.910 F302.864 ; 200 ms
G1 X100.598 Y95.256 F459.750 ; 200 ms
G1 X101.984 Y95.949 F464.849 ; 200 ms
G1 X100.676 Y95.331 F433.946 ; 200 ms
G1 X101.841 Y95.914 F390.890 ; 200 ms
G1 X100.676 Y95.297 F395.648 ; 200 ms
G1 X101.841 Y96.074 F420.341 ; 200 ms
G1 X101.452 Y95.297 F260.888 ; 200 ms
G1 X102.230 Y95.685 F260.888 ; 200 ms
G1 X101.841 Y94.908 F260.888 ; 200 ms
G1 X102.821 Y95.398 F328.698 ; 200 ms
G1 X102.331 Y94.418 F328.698 ; 200 ms
G1 X103.311 Y94.908 F328.698 ; 200 ms
G1 X102.533 Y94.418 F275.787 ; 200 ms
G1 X103.023 Y95.195 F275.787 ; 200 ms
G1 X102.044 Y94.705 F328.698 ; 200 ms
G1 X103.209 Y95.323 F395.648 ; 200 ms
G1 X102.592 Y94.157 F395.648 ; 200 ms
G1 X103.082 Y95.323 F379.269 ; 200 ms
G1 X102.592 Y94.343 F328.698 ; 200 ms
G1 X103.082 Y95.381 F344.424 ; 200 ms
G1 X101.916 Y94.146 F509.354 ; 200 ms
G1 X102.694 Y95.615 F498.486 ; 200 ms
G1 X101.138 Y94.837 F521.776 ; 200 ms
G1 X101.916 Y96.305 F498.486 ; 200 ms
G1 X100.448 Y94.750 F641.746 ; 200 ms
G1 X101.226 Y96.305 F521.776 ; 200 ms
G1 X99.670 Y95.527 F521.776 ; 200 ms
G1 X101.747 Y96.305 F665.226 ; 200 ms
G1 X100.767 Y94.229 F688.846 ; 200 ms
G1 X101.747 Y94.811 F342.042 ; 200 ms
G1 X100.767 Y92.851 F328.698 ; 400 ms
G1 X101.747 Y93.341 F328.698 ; 200 ms
G1 X99.670 Y92.361 F688.846 ; 200 ms
G1 X100.650 Y93.400 F428.314 ; 200 ms
G1 X99.670 Y92.622 F375.345 ; 200 ms
G1 X100.650 Y94.090 F529.596 ; 200 ms
G1 X100.160 Y93.110 F328.698 ; 200 ms
G1 X101.906 Y94.960 F763.169 ; 200 ms
G1 X101.128 Y93.405 F521.776 ; 200 ms
G1 X102.874 Y94.278 F585.673 ; 200 ms
G1 X102.181 Y93.728 F265.409 ; 200 ms
G1 X102.874 Y94.462 F302.864 ; 200 ms
G1 X101.836 Y93.943 F348.244 ; 200 ms
G1 X102.570 Y94.310 F246.245 ; 200 ms
G1 X101.102 Y93.617 F487.088 ; 200 ms
G1 X101.795 Y95.003 F464.849 ; 200 ms
G1 X101.102 Y93.534 F487.088 ; 200 ms
G1 X102.488 Y94.227 F464.849 ; 200 ms
G1 X101.834 Y92.919 F438.759 ; 200 ms
G1 X104.165 Y94.085 F390.890 ; 400 ms
G1 X102.999 Y93.467 F395.648 ; 200 ms
G1 X103.823 Y94.245 F339.953 ; 200 ms
G1 X103.434 Y93.467 F260.888 ; 200 ms
G1 X104.212 Y93.856 F260.888 ; 200 ms
G1 X103.434 Y93.273 F291.563 ; 200 ms
G1 X105.394 Y94.253 F328.698 ; 400 ms
G1 X104.617 Y92.605 F546.738 ; 200 ms
G1 X105.394 Y92.994 F260.888 ; 200 ms
G1 X104.904 Y92.216 F275.787 ; 200 ms
G1 X105.394 Y92.736 F214.157 ; 200 ms
G1 X104.414 Y90.776 F328.698 ; 400 ms
G1 X106.748 Y91.942 F260.888 ; 600 ms
G1 X106.258 Y91.423 F214.157 ; 200 ms
G1 X107.728 Y94.363 F328.698 ; 600 ms
G1 X107.238 Y93.325 F344.424 ; 200 ms
G1 X108.218 Y94.363 F428.314 ; 200 ms
G1 X107.238 Y93.325 F214.157 ; 400 ms
G1 X107.728 Y94.363 F344.424 ; 200 ms
G1 X107.238 Y93.844 F214.157 ; 200 ms
G1 X107.728 Y94.334 F207.887 ; 200 ms
G1 X105.768 Y92.257 F214.157 ; 800 ms
G1 X106.258 Y93.237 F328.698 ; 200 ms
G1 X105.768 Y92.747 F207.887 ; 200 ms
G1 X106.258 Y93.727 F328.698 ; 200 ms
G1 X105.768 Y93.208 F214.157 ; 200 ms
G1 X106.748 Y94.188 F207.887 ; 400 ms
G1 X106.258 Y93.669 F214.157 ; 200 ms
G1 X106.777 Y94.159 F214.157 ; 200 ms
G1 X105.797 Y93.121 F214.157 ; 400 ms
G1 X106.316 Y93.611 F214.157 ; 200 ms
G1 X105.826 Y93.092 F214.157 ; 200 ms
G1 X108.276 Y97.992 F328.698 ; 1000 ms
G1 X107.296 Y97.502 F328.698 ; 200 ms
G1 X110.236 Y103.382 F328.698 ; 1200 ms
G1 X107.903 Y102.215 F260.888 ; 600 ms
G1 X109.373 Y105.155 F328.698 ; 600 ms
G1 X108.984 Y104.377 F260.888 ; 200 ms
G1 X109.762 Y104.766 F260.888 ; 200 ms
G1 X109.373 Y103.988 F260.888 ; 200 ms
G1 X109.863 Y104.968 F328.698 ; 200 ms
G1 X108.883 Y104.478 F328.698 ; 200 ms
G1 X109.373 Y105.458 F328.698 ; 200 ms
G1 X108.883 Y104.420 F344.424 ; 200 ms
G1 X109.863 Y105.458 F214.157 ; 400 ms
G1 X107.529 Y100.791 F521.776 ; 600 ms
G1 X108.307 Y102.260 F498.486 ; 200 ms
G1 X106.751 Y99.148 F521.776 ; 400 ms
G1 X107.529 Y99.638 F275.787 ; 200 ms
G1 X106.751 Y98.083 F521.776 ; 200 ms
G1 X107.529 Y99.551 F498.486 ; 200 ms
G1 X106.751 Y97.995 F521.776 ; 200 ms
G1 X107.529 Y99.643 F546.738 ; 200 ms
G1 X106.364 Y98.409 F509.354 ; 200 ms
G1 X106.854 Y99.389 F328.698 ; 200 ms
G1 X104.894 Y98.409 F328.698 ; 400 ms
G1 X105.283 Y99.187 F260.888 ; 200 ms
G1 X104.505 Y98.363 F339.953 ; 200 ms
G1 X105.088 Y99.528 F390.890 ; 200 ms
G1 X104.598 Y98.548 F328.698 ; 200 ms
G1 X105.636 Y99.528 F428.314 ; 200 ms
G1 X104.656 Y97.451 F344.424 ; 400 ms
G1 X105.175 Y98.431 F332.699 ; 200 ms
G1 X103.325 Y97.506 F620.499 ; 200 ms
G1 X103.815 Y98.486 F328.698 ; 200 ms
G1 X101.739 Y97.448 F696.487 ; 200 ms
G1 X102.777 Y99.525 F696.487 ; 200 ms
G1 X102.287 Y98.545 F328.698 ; 200 ms
G1 X103.325 Y99.525 F428.314 ; 200 ms
G1 X102.345 Y99.035 F328.698 ; 200 ms
G1 X102.835 Y101.111 F640.065 ; 200 ms
G1 X101.797 Y99.035 F696.487 ; 200 ms
G1 X102.835 Y99.525 F344.424 ; 200 ms
G1 X101.855 Y97.565 F657.396 ; 200 ms
G1 X102.835 Y98.084 F332.699 ; 200 ms
G1 X101.910 Y96.234 F620.499 ; 200 ms
G1 X107.148 Y98.853 F585.673 ; 600 ms
G1 X106.456 Y98.486 F235.254 ; 200 ms
G1 X107.494 Y99.036 F352.483 ; 200 ms
G1 X107.127 Y98.343 F235.254 ; 200 ms
G1 X108.595 Y99.036 F487.088 ; 200 ms
G1 X107.127 Y98.302 F492.491 ; 200 ms
G1 X107.861 Y99.770 F492.491 ; 200 ms
G1 X106.475 Y99.116 F459.750 ; 200 ms
G1 X107.861 Y99.809 F464.849 ; 200 ms
G1 X106.553 Y99.192 F433.946 ; 200 ms
G1 X107.170 Y100.357 F395.648 ; 200 ms
G1 X106.005 Y99.774 F390.890 ; 200 ms
G1 X107.170 Y100.940 F494.442 ; 200 ms
G1 X106.781 Y100.162 F260.888 ; 200 ms
G1 X107.559 Y100.551 F260.888 ; 200 ms
G1 X107.170 Y99.773 F260.888 ; 200 ms
G1 X108.150 Y100.263 F328.698 ; 200 ms
G1 X107.170 Y98.303 F328.698 ; 400 ms
G1 X107.948 Y98.692 F260.888 ; 200 ms
G1 X107.458 Y98.303 F187.673 ; 200 ms
G1 X108.438 Y98.793 F328.698 ; 200 ms
G1 X107.273 Y98.176 F395.648 ; 200 ms

; End of music G-code